(.../EAGLE-8.3.2/ulp/pcb-gcode-3/pcb-gcode.ulp)
(Copyright 2005 - 2012 by John Johnson)
(See readme.txt for licensing terms.)
(This file generated from the board:)
(.../PCB_DEV_BOARD-ESP12/BHOnOfreDevBoard.brd)
(Current profile is .../pcb-gcode-3/profiles/generic.pp  )
(This file generated 26/12/2017 00:57)
(Settings from pcb-machine.h)
(spindle on time = 3.0000)
(  Tool Size)
(0.1700 )
(spindle speed = 30000.0000)
(tool change at 0.0000 0.0000 3.4000 )
(feed rate xy = F508.00 )
(feed rate z  = F254.00 )
(Z Axis Settings)
(  High     Up        Down     Drill)
(8.7000 	2.5400 	-0.1778 	-0.2794 )
(Settings from pcb-defaults.h)
(isolate min = 0.0254)
(isolate max = 1.1000)
(isolate step = 0.1270)
(Generated top outlines, top drill, )
(Unit of measure: mm)
(Metric Mode)
G21
(Absolute Coordinates)
G90
S30000
G00 Z8.7000 
G00 X0.0000 Y0.0000 
M03
G04 P3.000000
G00 Z2.5400 
G00 X0.1854 Y0.0369 
G01 Z-0.1778 F254.00 
G01 X0.1854 Y-0.1084 F508.00 
G01 X0.1572 Y-0.1766 
G01 X0.1050 Y-0.2287 
G01 X0.0369 Y-0.2570 
G01 X-0.0369 Y-0.2570 
G01 X-0.1050 Y-0.2287 
G01 X-0.1572 Y-0.1766 
G01 X-0.1825 Y-0.1155 
G01 X-0.1930 Y-0.1050 
G01 X-0.2212 Y-0.0369 
G01 X-0.2212 Y0.0369 
G01 X-0.1930 Y0.1050 
G01 X-0.1408 Y0.1572 
G01 X-0.0727 Y0.1854 
G01 X-0.0369 Y0.1854 
G01 X0.0369 Y0.1854 
G01 X0.1050 Y0.1572 
G01 X0.1572 Y0.1050 
G01 X0.1854 Y0.0369 
G00 Z2.5400 
G00 X10.1078 Y3.7278 
G01 Z-0.1778 F254.00 
G01 X10.0262 Y3.8499 F508.00 
G01 X9.9700 Y3.9856 
G01 X9.9413 Y4.1296 
G01 X9.9413 Y5.4880 
G01 X9.9235 Y5.4971 
G01 X9.7477 Y5.6248 
G01 X9.2455 Y6.1271 
G01 X9.1178 Y6.3028 
G01 X9.0191 Y6.4964 
G01 X8.9520 Y6.7031 
G01 X8.9180 Y6.9177 
G01 X8.9180 Y10.7294 
G01 X8.3714 Y10.7294 
G01 X8.3309 Y10.7462 
G01 X8.2998 Y10.7772 
G01 X8.2830 Y10.8178 
G01 X8.2830 Y14.6717 
G01 X8.2998 Y14.7123 
G01 X8.3309 Y14.7434 
G01 X8.3714 Y14.7602 
G01 X12.2254 Y14.7602 
G01 X12.2659 Y14.7434 
G01 X12.2970 Y14.7123 
G01 X12.3138 Y14.6717 
G01 X12.3138 Y10.8178 
G01 X12.2970 Y10.7772 
G01 X12.2659 Y10.7462 
G01 X12.2254 Y10.7294 
G01 X11.6788 Y10.7294 
G01 X11.6788 Y7.5981 
G01 X11.6999 Y7.5770 
G01 X11.8276 Y7.4012 
G01 X11.9263 Y7.2076 
G01 X11.9934 Y7.0010 
G01 X12.0274 Y6.7864 
G01 X12.0274 Y6.5691 
G01 X11.9934 Y6.3545 
G01 X11.9263 Y6.1478 
G01 X11.8276 Y5.9542 
G01 X11.6999 Y5.7785 
G01 X11.5463 Y5.6248 
G01 X11.4321 Y5.5419 
G01 X11.4321 Y4.5118 
G01 X11.9695 Y3.9744 
G01 X23.5149 Y3.9744 
G01 X23.5706 Y4.0301 
G01 X23.7043 Y4.1272 
G01 X23.8516 Y4.2023 
G01 X24.0088 Y4.2534 
G01 X24.1721 Y4.2792 
G01 X24.3374 Y4.2792 
G01 X24.5006 Y4.2534 
G01 X24.6578 Y4.2023 
G01 X24.8051 Y4.1272 
G01 X24.9389 Y4.0301 
G01 X25.0558 Y3.9132 
G01 X25.1529 Y3.7795 
G01 X25.2280 Y3.6322 
G01 X25.2790 Y3.4750 
G01 X25.3049 Y3.3117 
G01 X25.3049 Y3.1464 
G01 X25.2790 Y2.9831 
G01 X25.2280 Y2.8259 
G01 X25.1529 Y2.6786 
G01 X25.0558 Y2.5449 
G01 X24.9389 Y2.4280 
G01 X24.8051 Y2.3308 
G01 X24.6578 Y2.2558 
G01 X24.5006 Y2.2047 
G01 X24.3374 Y2.1788 
G01 X24.1721 Y2.1788 
G01 X24.0088 Y2.2047 
G01 X23.8516 Y2.2558 
G01 X23.7043 Y2.3308 
G01 X23.5706 Y2.4280 
G01 X23.5149 Y2.4836 
G01 X11.5873 Y2.4836 
G01 X11.4433 Y2.5123 
G01 X11.3076 Y2.5685 
G01 X11.1856 Y2.6500 
G01 X10.2116 Y3.6240 
G01 X10.1078 Y3.7278 
G00 Z2.5400 
G00 X13.1431 Y5.7241 
G01 Z-0.1778 F254.00 
G01 X13.0063 Y5.8929 F508.00 
G01 X12.8975 Y6.0810 
G01 X12.8195 Y6.2838 
G01 X12.7743 Y6.4963 
G01 X12.7628 Y6.7133 
G01 X12.7854 Y6.9294 
G01 X13.7523 Y10.5454 
G01 X13.7722 Y10.7294 
G01 X13.4514 Y10.7294 
G01 X13.4109 Y10.7462 
G01 X13.3798 Y10.7772 
G01 X13.3630 Y10.8178 
G01 X13.3630 Y14.6717 
G01 X13.3798 Y14.7123 
G01 X13.4109 Y14.7434 
G01 X13.4514 Y14.7602 
G01 X17.3054 Y14.7602 
G01 X17.3459 Y14.7434 
G01 X17.3770 Y14.7123 
G01 X17.3938 Y14.6717 
G01 X17.3938 Y10.8178 
G01 X17.3770 Y10.7772 
G01 X17.3459 Y10.7462 
G01 X17.3054 Y10.7294 
G01 X16.5490 Y10.7294 
G01 X16.4859 Y10.1451 
G01 X16.4749 Y10.0398 
G01 X16.4740 Y10.0351 
G01 X16.4461 Y9.9323 
G01 X15.4525 Y6.2162 
G01 X15.3642 Y6.0177 
G01 X15.2460 Y5.8354 
G01 X15.1007 Y5.6738 
G01 X14.9319 Y5.5370 
G01 X14.7438 Y5.4283 
G01 X14.5410 Y5.3503 
G01 X14.3284 Y5.3050 
G01 X14.1115 Y5.2935 
G01 X13.8954 Y5.3161 
G01 X13.6855 Y5.3722 
G01 X13.4869 Y5.4605 
G01 X13.3046 Y5.5788 
G01 X13.1431 Y5.7241 
G00 Z2.5400 
G00 X16.7878 Y5.9439 
G01 Z-0.1778 F254.00 
G01 X16.6836 Y6.0874 F508.00 
G01 X16.6031 Y6.2453 
G01 X16.5483 Y6.4140 
G01 X16.5206 Y6.5891 
G01 X16.5206 Y6.7664 
G01 X16.5483 Y6.9415 
G01 X16.6031 Y7.1101 
G01 X16.6836 Y7.2681 
G01 X16.7878 Y7.4115 
G01 X16.9016 Y7.5253 
G01 X16.9016 Y8.4447 
G01 X16.9302 Y8.5887 
G01 X16.9864 Y8.7244 
G01 X17.0680 Y8.8464 
G01 X19.6144 Y11.3928 
G01 X19.7182 Y11.4966 
G01 X19.8403 Y11.5782 
G01 X19.9759 Y11.6344 
G01 X20.1199 Y11.6630 
G01 X23.6303 Y11.6630 
G01 X23.7743 Y11.6344 
G01 X23.9099 Y11.5782 
G01 X24.0320 Y11.4966 
G01 X25.0144 Y10.5143 
G01 X25.0508 Y10.5070 
G01 X25.2081 Y10.4419 
G01 X25.3497 Y10.3473 
G01 X25.4701 Y10.2269 
G01 X25.5647 Y10.0853 
G01 X25.6298 Y9.9280 
G01 X25.6631 Y9.7610 
G01 X25.6631 Y9.5907 
G01 X25.6298 Y9.4237 
G01 X25.5647 Y9.2664 
G01 X25.4701 Y9.1248 
G01 X25.3497 Y9.0044 
G01 X25.2081 Y8.9098 
G01 X25.0508 Y8.8447 
G01 X24.8838 Y8.8115 
G01 X24.7135 Y8.8115 
G01 X24.5465 Y8.8447 
G01 X24.3892 Y8.9098 
G01 X24.2476 Y9.0044 
G01 X24.1272 Y9.1248 
G01 X24.0326 Y9.2664 
G01 X23.9675 Y9.4237 
G01 X23.9602 Y9.4601 
G01 X23.2481 Y10.1722 
G01 X20.5021 Y10.1722 
G01 X18.3924 Y8.0625 
G01 X18.3924 Y7.5253 
G01 X18.5062 Y7.4115 
G01 X18.6104 Y7.2681 
G01 X18.6909 Y7.1101 
G01 X18.7457 Y6.9415 
G01 X18.7734 Y6.7664 
G01 X18.7734 Y6.5891 
G01 X18.7457 Y6.4140 
G01 X18.6909 Y6.2453 
G01 X18.6104 Y6.0874 
G01 X18.5062 Y5.9439 
G01 X18.3808 Y5.8186 
G01 X18.2373 Y5.7143 
G01 X18.0794 Y5.6339 
G01 X17.9108 Y5.5791 
G01 X17.7356 Y5.5513 
G01 X17.5583 Y5.5513 
G01 X17.3832 Y5.5791 
G01 X17.2146 Y5.6339 
G01 X17.0566 Y5.7143 
G01 X16.9132 Y5.8186 
G01 X16.7878 Y5.9439 
G00 Z2.5400 
G00 X20.0206 Y5.6398 
G01 Z-0.1778 F254.00 
G01 X20.0206 Y7.7157 F508.00 
G01 X20.0374 Y7.7563 
G01 X20.0685 Y7.7873 
G01 X20.1090 Y7.8041 
G01 X22.1850 Y7.8041 
G01 X22.2255 Y7.7873 
G01 X22.2566 Y7.7563 
G01 X22.2734 Y7.7157 
G01 X22.2734 Y7.4231 
G01 X24.8762 Y7.4231 
G01 X26.4017 Y8.9486 
G01 X26.4017 Y12.6914 
G01 X24.5769 Y14.5162 
G01 X24.5405 Y14.5234 
G01 X24.3832 Y14.5886 
G01 X24.2417 Y14.6832 
G01 X24.1213 Y14.8036 
G01 X24.0267 Y14.9451 
G01 X23.9615 Y15.1025 
G01 X23.9283 Y15.2695 
G01 X23.9283 Y15.4397 
G01 X23.9615 Y15.6067 
G01 X24.0267 Y15.7640 
G01 X24.1213 Y15.9056 
G01 X24.2417 Y16.0260 
G01 X24.3832 Y16.1206 
G01 X24.5405 Y16.1858 
G01 X24.7075 Y16.2190 
G01 X24.8778 Y16.2190 
G01 X25.0448 Y16.1858 
G01 X25.2021 Y16.1206 
G01 X25.3437 Y16.0260 
G01 X25.4641 Y15.9056 
G01 X25.5587 Y15.7640 
G01 X25.6239 Y15.6067 
G01 X25.6311 Y15.5703 
G01 X27.7261 Y13.4753 
G01 X27.8077 Y13.3533 
G01 X27.8639 Y13.2176 
G01 X27.8925 Y13.0736 
G01 X27.8925 Y8.5664 
G01 X27.8639 Y8.4224 
G01 X27.8077 Y8.2868 
G01 X27.7261 Y8.1647 
G01 X27.6223 Y8.0609 
G01 X25.6601 Y6.0987 
G01 X25.5380 Y6.0172 
G01 X25.4024 Y5.9610 
G01 X25.2584 Y5.9323 
G01 X22.2734 Y5.9323 
G01 X22.2734 Y5.6398 
G01 X22.2566 Y5.5992 
G01 X22.2255 Y5.5681 
G01 X22.1850 Y5.5513 
G01 X20.1090 Y5.5513 
G01 X20.0685 Y5.5681 
G01 X20.0374 Y5.5992 
G01 X20.0206 Y5.6398 
G00 Z2.5400 
G00 X28.3267 Y7.5351 
G01 Z-0.1778 F254.00 
G01 X28.3554 Y7.6791 F508.00 
G01 X28.4116 Y7.8148 
G01 X28.4932 Y7.9369 
G01 X28.5970 Y8.0407 
G01 X30.8111 Y10.2548 
G01 X30.9332 Y10.3364 
G01 X31.0689 Y10.3926 
G01 X31.2129 Y10.4212 
G01 X31.6673 Y10.4212 
G01 X31.6673 Y14.9143 
G01 X31.6467 Y14.9451 
G01 X31.5815 Y15.1025 
G01 X31.5483 Y15.2695 
G01 X31.5483 Y15.4397 
G01 X31.5815 Y15.6067 
G01 X31.6467 Y15.7640 
G01 X31.7413 Y15.9056 
G01 X31.8617 Y16.0260 
G01 X32.0032 Y16.1206 
G01 X32.1605 Y16.1858 
G01 X32.3275 Y16.2190 
G01 X32.4978 Y16.2190 
G01 X32.6648 Y16.1858 
G01 X32.8221 Y16.1206 
G01 X32.9637 Y16.0260 
G01 X33.0841 Y15.9056 
G01 X33.1787 Y15.7640 
G01 X33.2439 Y15.6067 
G01 X33.2771 Y15.4397 
G01 X33.2771 Y15.2695 
G01 X33.2439 Y15.1025 
G01 X33.1787 Y14.9451 
G01 X33.1581 Y14.9143 
G01 X33.1581 Y10.1251 
G01 X33.1847 Y10.0853 
G01 X33.2498 Y9.9280 
G01 X33.2831 Y9.7610 
G01 X33.2831 Y9.5907 
G01 X33.2498 Y9.4237 
G01 X33.1847 Y9.2664 
G01 X33.0901 Y9.1248 
G01 X32.9697 Y9.0044 
G01 X32.8281 Y8.9098 
G01 X32.6708 Y8.8447 
G01 X32.5038 Y8.8115 
G01 X32.3335 Y8.8115 
G01 X32.1665 Y8.8447 
G01 X32.0092 Y8.9098 
G01 X31.9783 Y8.9305 
G01 X31.5951 Y8.9305 
G01 X29.8175 Y7.1529 
G01 X29.8175 Y4.1617 
G01 X29.8851 Y4.1272 
G01 X30.0189 Y4.0301 
G01 X30.1358 Y3.9132 
G01 X30.2329 Y3.7795 
G01 X30.3080 Y3.6322 
G01 X30.3590 Y3.4750 
G01 X30.3849 Y3.3117 
G01 X30.3849 Y3.1464 
G01 X30.3590 Y2.9831 
G01 X30.3080 Y2.8259 
G01 X30.2329 Y2.6786 
G01 X30.1358 Y2.5449 
G01 X30.0189 Y2.4280 
G01 X29.8851 Y2.3308 
G01 X29.7378 Y2.2558 
G01 X29.5806 Y2.2047 
G01 X29.4174 Y2.1788 
G01 X29.2521 Y2.1788 
G01 X29.0888 Y2.2047 
G01 X28.9316 Y2.2558 
G01 X28.7843 Y2.3308 
G01 X28.6505 Y2.4280 
G01 X28.5337 Y2.5449 
G01 X28.4365 Y2.6786 
G01 X28.3615 Y2.8259 
G01 X28.3104 Y2.9831 
G01 X28.2845 Y3.1464 
G01 X28.2845 Y3.3117 
G01 X28.3104 Y3.4750 
G01 X28.3267 Y3.5254 
G01 X28.3267 Y7.5351 
G00 Z2.5400 
G00 X31.5958 Y6.9188 
G01 Z-0.1778 F254.00 
G01 X32.6686 Y7.9915 F508.00 
G01 X32.7459 Y8.0688 
G01 X32.8406 Y8.1235 
G01 X32.9462 Y8.1518 
G01 X33.0332 Y8.1518 
G01 X36.9052 Y12.0238 
G01 X36.9052 Y12.7690 
G01 X36.9220 Y12.8095 
G01 X36.9530 Y12.8406 
G01 X36.9936 Y12.8574 
G01 X38.4375 Y12.8574 
G01 X38.4781 Y12.8406 
G01 X38.5091 Y12.8095 
G01 X38.5260 Y12.7690 
G01 X38.5260 Y11.7250 
G01 X38.5091 Y11.6845 
G01 X38.4781 Y11.6534 
G01 X38.4375 Y11.6366 
G01 X37.6923 Y11.6366 
G01 X33.4601 Y7.4044 
G01 X33.3654 Y7.3497 
G01 X33.2598 Y7.3214 
G01 X33.1728 Y7.3214 
G01 X32.3432 Y6.4918 
G01 X32.3432 Y5.6728 
G01 X32.5000 Y5.6728 
G01 X32.5406 Y5.6560 
G01 X32.5716 Y5.6249 
G01 X32.5884 Y5.5843 
G01 X32.5884 Y4.5404 
G01 X32.5716 Y4.4998 
G01 X32.5406 Y4.4688 
G01 X32.5000 Y4.4520 
G01 X31.3561 Y4.4520 
G01 X31.3155 Y4.4688 
G01 X31.2844 Y4.4998 
G01 X31.2676 Y4.5404 
G01 X31.2676 Y5.5843 
G01 X31.2844 Y5.6249 
G01 X31.3155 Y5.6560 
G01 X31.3561 Y5.6728 
G01 X31.5128 Y5.6728 
G01 X31.5128 Y6.7185 
G01 X31.5411 Y6.8241 
G01 X31.5958 Y6.9188 
G00 Z2.5400 
G00 X33.0853 Y6.9151 
G01 Z-0.1778 F254.00 
G01 X33.1400 Y7.0097 F508.00 
G01 X36.0842 Y9.9539 
G01 X36.1789 Y10.0086 
G01 X36.2845 Y10.0369 
G01 X39.9790 Y10.0369 
G01 X41.2680 Y11.3258 
G01 X41.2680 Y11.8845 
G01 X39.4207 Y13.7318 
G01 X38.5260 Y13.7318 
G01 X38.5260 Y13.6250 
G01 X38.5091 Y13.5845 
G01 X38.4781 Y13.5534 
G01 X38.4375 Y13.5366 
G01 X36.9936 Y13.5366 
G01 X36.9530 Y13.5534 
G01 X36.9220 Y13.5845 
G01 X36.9052 Y13.6250 
G01 X36.9052 Y14.6690 
G01 X36.9220 Y14.7095 
G01 X36.9530 Y14.7406 
G01 X36.9936 Y14.7574 
G01 X38.4375 Y14.7574 
G01 X38.4781 Y14.7406 
G01 X38.5091 Y14.7095 
G01 X38.5260 Y14.6690 
G01 X38.5260 Y14.5622 
G01 X39.6474 Y14.5622 
G01 X39.7529 Y14.5339 
G01 X39.8476 Y14.4793 
G01 X41.9381 Y12.3888 
G01 X42.0154 Y12.3115 
G01 X42.0701 Y12.2168 
G01 X42.0984 Y12.1112 
G01 X42.0984 Y11.0992 
G01 X42.0701 Y10.9936 
G01 X42.0154 Y10.8989 
G01 X40.4832 Y9.3667 
G01 X40.4059 Y9.2894 
G01 X40.3113 Y9.2348 
G01 X40.2057 Y9.2065 
G01 X36.5111 Y9.2065 
G01 X33.8875 Y6.5828 
G01 X33.8875 Y2.0337 
G01 X40.4076 Y2.0337 
G01 X44.5448 Y6.1709 
G01 X40.2399 Y6.1709 
G01 X40.2399 Y6.0642 
G01 X40.2231 Y6.0236 
G01 X40.1920 Y5.9925 
G01 X40.1515 Y5.9757 
G01 X38.7075 Y5.9757 
G01 X38.6670 Y5.9925 
G01 X38.6359 Y6.0236 
G01 X38.6191 Y6.0642 
G01 X38.6191 Y7.1081 
G01 X38.6359 Y7.1487 
G01 X38.6670 Y7.1797 
G01 X38.7075 Y7.1965 
G01 X40.1515 Y7.1965 
G01 X40.1920 Y7.1797 
G01 X40.2231 Y7.1487 
G01 X40.2399 Y7.1081 
G01 X40.2399 Y7.0013 
G01 X45.3752 Y7.0013 
G01 X49.2855 Y10.9116 
G01 X49.2855 Y22.2188 
G01 X48.4443 Y21.3775 
G01 X48.3496 Y21.3228 
G01 X48.2440 Y21.2945 
G01 X45.7459 Y21.2945 
G01 X45.0600 Y20.6086 
G01 X45.0600 Y18.7827 
G01 X45.0317 Y18.6771 
G01 X44.9770 Y18.5825 
G01 X44.5487 Y18.1541 
G01 X44.4540 Y18.0994 
G01 X44.3484 Y18.0712 
G01 X43.1826 Y18.0712 
G01 X43.1137 Y17.9359 
G01 X43.0166 Y17.8022 
G01 X42.8997 Y17.6853 
G01 X42.7659 Y17.5881 
G01 X42.6187 Y17.5131 
G01 X42.4614 Y17.4620 
G01 X42.2982 Y17.4362 
G01 X42.1329 Y17.4362 
G01 X41.9696 Y17.4620 
G01 X41.8124 Y17.5131 
G01 X41.6651 Y17.5881 
G01 X41.5314 Y17.6853 
G01 X41.4145 Y17.8022 
G01 X41.3173 Y17.9359 
G01 X41.3002 Y17.9696 
G01 X40.5909 Y17.9696 
G01 X40.5737 Y17.9359 
G01 X40.4766 Y17.8022 
G01 X40.3597 Y17.6853 
G01 X40.2259 Y17.5881 
G01 X40.0787 Y17.5131 
G01 X39.9214 Y17.4620 
G01 X39.7582 Y17.4362 
G01 X39.5929 Y17.4362 
G01 X39.4296 Y17.4620 
G01 X39.2724 Y17.5131 
G01 X39.1251 Y17.5881 
G01 X38.9914 Y17.6853 
G01 X38.8745 Y17.8022 
G01 X38.7773 Y17.9359 
G01 X38.7602 Y17.9696 
G01 X38.0509 Y17.9696 
G01 X38.0337 Y17.9359 
G01 X37.9366 Y17.8022 
G01 X37.8197 Y17.6853 
G01 X37.6859 Y17.5881 
G01 X37.5387 Y17.5131 
G01 X37.3814 Y17.4620 
G01 X37.2182 Y17.4362 
G01 X37.0529 Y17.4362 
G01 X36.8896 Y17.4620 
G01 X36.7324 Y17.5131 
G01 X36.5851 Y17.5881 
G01 X36.4514 Y17.6853 
G01 X36.3345 Y17.8022 
G01 X36.2373 Y17.9359 
G01 X36.2202 Y17.9696 
G01 X35.5109 Y17.9696 
G01 X35.4937 Y17.9359 
G01 X35.3966 Y17.8022 
G01 X35.2797 Y17.6853 
G01 X35.1459 Y17.5881 
G01 X34.9987 Y17.5131 
G01 X34.8414 Y17.4620 
G01 X34.6782 Y17.4362 
G01 X34.5129 Y17.4362 
G01 X34.3496 Y17.4620 
G01 X34.1924 Y17.5131 
G01 X34.0451 Y17.5881 
G01 X33.9114 Y17.6853 
G01 X33.7945 Y17.8022 
G01 X33.6973 Y17.9359 
G01 X33.6802 Y17.9696 
G01 X32.9709 Y17.9696 
G01 X32.9537 Y17.9359 
G01 X32.8566 Y17.8022 
G01 X32.7397 Y17.6853 
G01 X32.6059 Y17.5881 
G01 X32.4587 Y17.5131 
G01 X32.3014 Y17.4620 
G01 X32.1382 Y17.4362 
G01 X31.9729 Y17.4362 
G01 X31.8096 Y17.4620 
G01 X31.6524 Y17.5131 
G01 X31.5051 Y17.5881 
G01 X31.3714 Y17.6853 
G01 X31.2545 Y17.8022 
G01 X31.1573 Y17.9359 
G01 X31.1402 Y17.9696 
G01 X30.4309 Y17.9696 
G01 X30.4137 Y17.9359 
G01 X30.3166 Y17.8022 
G01 X30.1997 Y17.6853 
G01 X30.0659 Y17.5881 
G01 X29.9187 Y17.5131 
G01 X29.7614 Y17.4620 
G01 X29.5982 Y17.4362 
G01 X29.4329 Y17.4362 
G01 X29.2696 Y17.4620 
G01 X29.1124 Y17.5131 
G01 X28.9651 Y17.5881 
G01 X28.8314 Y17.6853 
G01 X28.7145 Y17.8022 
G01 X28.6173 Y17.9359 
G01 X28.6002 Y17.9696 
G01 X27.8909 Y17.9696 
G01 X27.8737 Y17.9359 
G01 X27.7766 Y17.8022 
G01 X27.6597 Y17.6853 
G01 X27.5259 Y17.5881 
G01 X27.3787 Y17.5131 
G01 X27.2214 Y17.4620 
G01 X27.0582 Y17.4362 
G01 X26.8929 Y17.4362 
G01 X26.7296 Y17.4620 
G01 X26.5724 Y17.5131 
G01 X26.4251 Y17.5881 
G01 X26.2914 Y17.6853 
G01 X26.1745 Y17.8022 
G01 X26.0773 Y17.9359 
G01 X26.0602 Y17.9696 
G01 X25.3509 Y17.9696 
G01 X25.3337 Y17.9359 
G01 X25.2366 Y17.8022 
G01 X25.1197 Y17.6853 
G01 X24.9859 Y17.5881 
G01 X24.8387 Y17.5131 
G01 X24.6814 Y17.4620 
G01 X24.5182 Y17.4362 
G01 X24.3529 Y17.4362 
G01 X24.1896 Y17.4620 
G01 X24.0324 Y17.5131 
G01 X23.8851 Y17.5881 
G01 X23.7514 Y17.6853 
G01 X23.6345 Y17.8022 
G01 X23.5373 Y17.9359 
G01 X23.4623 Y18.0832 
G01 X23.4123 Y18.2369 
G01 X22.8429 Y18.3323 
G01 X22.8228 Y18.3323 
G01 X22.7892 Y18.3413 
G01 X22.7549 Y18.3470 
G01 X22.7366 Y18.3554 
G01 X22.7172 Y18.3606 
G01 X22.6871 Y18.3780 
G01 X22.6555 Y18.3924 
G01 X22.6400 Y18.4052 
G01 X22.6225 Y18.4153 
G01 X22.5980 Y18.4398 
G01 X22.5711 Y18.4620 
G01 X22.5595 Y18.4783 
G01 X21.6877 Y19.3501 
G01 X21.6104 Y19.4274 
G01 X21.5557 Y19.5221 
G01 X21.5274 Y19.6277 
G01 X21.5274 Y23.2016 
G01 X21.5557 Y23.3072 
G01 X21.6104 Y23.4018 
G01 X22.5369 Y24.3284 
G01 X20.6849 Y26.1804 
G01 X20.6303 Y26.2751 
G01 X20.6020 Y26.3807 
G01 X20.6020 Y28.7853 
G01 X20.4452 Y28.7853 
G01 X20.4047 Y28.8021 
G01 X20.3736 Y28.8332 
G01 X20.3568 Y28.8738 
G01 X20.3568 Y29.9177 
G01 X20.3736 Y29.9583 
G01 X20.4047 Y29.9893 
G01 X20.4452 Y30.0061 
G01 X21.5892 Y30.0061 
G01 X21.6297 Y29.9893 
G01 X21.6608 Y29.9583 
G01 X21.6776 Y29.9177 
G01 X21.6776 Y28.8738 
G01 X21.6608 Y28.8332 
G01 X21.6297 Y28.8021 
G01 X21.5892 Y28.7853 
G01 X21.4324 Y28.7853 
G01 X21.4324 Y26.6073 
G01 X23.2961 Y24.7436 
G01 X23.6656 Y24.7436 
G01 X23.7514 Y24.8294 
G01 X23.8851 Y24.9265 
G01 X24.0324 Y25.0016 
G01 X24.1896 Y25.0527 
G01 X24.3529 Y25.0785 
G01 X24.5182 Y25.0785 
G01 X24.6814 Y25.0527 
G01 X24.7232 Y25.0391 
G01 X24.7232 Y26.2360 
G01 X24.4656 Y26.2360 
G01 X24.4251 Y26.2528 
G01 X24.3940 Y26.2839 
G01 X24.3772 Y26.3245 
G01 X24.3772 Y29.3684 
G01 X24.3940 Y29.4090 
G01 X24.4251 Y29.4400 
G01 X24.4656 Y29.4568 
G01 X25.7096 Y29.4568 
G01 X25.7501 Y29.4400 
G01 X25.7812 Y29.4090 
G01 X25.7980 Y29.3684 
G01 X25.7980 Y26.3245 
G01 X25.7812 Y26.2839 
G01 X25.7501 Y26.2528 
G01 X25.7096 Y26.2360 
G01 X25.4520 Y26.2360 
G01 X25.4520 Y24.6324 
G01 X25.4272 Y24.5398 
G01 X25.3881 Y24.4721 
G01 X25.4088 Y24.4315 
G01 X25.4599 Y24.2743 
G01 X25.4857 Y24.1110 
G01 X25.4857 Y23.9457 
G01 X25.4599 Y23.7824 
G01 X25.4088 Y23.6252 
G01 X25.3337 Y23.4779 
G01 X25.2366 Y23.3442 
G01 X25.1197 Y23.2273 
G01 X24.9859 Y23.1301 
G01 X24.8387 Y23.0551 
G01 X24.6814 Y23.0040 
G01 X24.5182 Y22.9781 
G01 X24.3529 Y22.9781 
G01 X24.1896 Y23.0040 
G01 X24.0324 Y23.0551 
G01 X23.8851 Y23.1301 
G01 X23.7514 Y23.2273 
G01 X23.6345 Y23.3442 
G01 X23.5373 Y23.4779 
G01 X23.4623 Y23.6252 
G01 X23.4112 Y23.7824 
G01 X23.3905 Y23.9132 
G01 X23.2961 Y23.9132 
G01 X22.3578 Y22.9749 
G01 X22.3578 Y19.8544 
G01 X23.0495 Y19.1627 
G01 X23.6288 Y19.1627 
G01 X23.6345 Y19.1705 
G01 X23.7514 Y19.2874 
G01 X23.8851 Y19.3846 
G01 X24.0324 Y19.4596 
G01 X24.1896 Y19.5107 
G01 X24.3529 Y19.5365 
G01 X24.5182 Y19.5365 
G01 X24.6814 Y19.5107 
G01 X24.8387 Y19.4596 
G01 X24.9859 Y19.3846 
G01 X25.1197 Y19.2874 
G01 X25.2366 Y19.1705 
G01 X25.3337 Y19.0368 
G01 X25.3509 Y19.0032 
G01 X26.0602 Y19.0032 
G01 X26.0773 Y19.0368 
G01 X26.1745 Y19.1705 
G01 X26.2914 Y19.2874 
G01 X26.4251 Y19.3846 
G01 X26.5724 Y19.4596 
G01 X26.7296 Y19.5107 
G01 X26.8929 Y19.5365 
G01 X27.0582 Y19.5365 
G01 X27.2214 Y19.5107 
G01 X27.3787 Y19.4596 
G01 X27.5259 Y19.3846 
G01 X27.6597 Y19.2874 
G01 X27.7766 Y19.1705 
G01 X27.8737 Y19.0368 
G01 X27.8909 Y19.0032 
G01 X28.6002 Y19.0032 
G01 X28.6173 Y19.0368 
G01 X28.7145 Y19.1705 
G01 X28.8314 Y19.2874 
G01 X28.9651 Y19.3846 
G01 X29.1124 Y19.4596 
G01 X29.2696 Y19.5107 
G01 X29.4329 Y19.5365 
G01 X29.5982 Y19.5365 
G01 X29.7614 Y19.5107 
G01 X29.9187 Y19.4596 
G01 X30.0659 Y19.3846 
G01 X30.1997 Y19.2874 
G01 X30.3166 Y19.1705 
G01 X30.4137 Y19.0368 
G01 X30.4309 Y19.0032 
G01 X31.1402 Y19.0032 
G01 X31.1573 Y19.0368 
G01 X31.2545 Y19.1705 
G01 X31.3714 Y19.2874 
G01 X31.5051 Y19.3846 
G01 X31.6524 Y19.4596 
G01 X31.8096 Y19.5107 
G01 X31.9729 Y19.5365 
G01 X32.1382 Y19.5365 
G01 X32.3014 Y19.5107 
G01 X32.4587 Y19.4596 
G01 X32.6059 Y19.3846 
G01 X32.7397 Y19.2874 
G01 X32.8566 Y19.1705 
G01 X32.9537 Y19.0368 
G01 X32.9709 Y19.0032 
G01 X33.6802 Y19.0032 
G01 X33.6973 Y19.0368 
G01 X33.7945 Y19.1705 
G01 X33.9114 Y19.2874 
G01 X34.0451 Y19.3846 
G01 X34.1924 Y19.4596 
G01 X34.3496 Y19.5107 
G01 X34.5129 Y19.5365 
G01 X34.6782 Y19.5365 
G01 X34.8414 Y19.5107 
G01 X34.9987 Y19.4596 
G01 X35.1459 Y19.3846 
G01 X35.2797 Y19.2874 
G01 X35.3966 Y19.1705 
G01 X35.4937 Y19.0368 
G01 X35.5109 Y19.0032 
G01 X36.2202 Y19.0032 
G01 X36.2373 Y19.0368 
G01 X36.3345 Y19.1705 
G01 X36.4514 Y19.2874 
G01 X36.5851 Y19.3846 
G01 X36.7324 Y19.4596 
G01 X36.8896 Y19.5107 
G01 X37.0529 Y19.5365 
G01 X37.2182 Y19.5365 
G01 X37.3814 Y19.5107 
G01 X37.5387 Y19.4596 
G01 X37.6859 Y19.3846 
G01 X37.8197 Y19.2874 
G01 X37.9366 Y19.1705 
G01 X38.0337 Y19.0368 
G01 X38.0509 Y19.0032 
G01 X38.7602 Y19.0032 
G01 X38.7773 Y19.0368 
G01 X38.8745 Y19.1705 
G01 X38.9914 Y19.2874 
G01 X39.1251 Y19.3846 
G01 X39.2724 Y19.4596 
G01 X39.4296 Y19.5107 
G01 X39.5929 Y19.5365 
G01 X39.7582 Y19.5365 
G01 X39.9214 Y19.5107 
G01 X40.0787 Y19.4596 
G01 X40.2259 Y19.3846 
G01 X40.3597 Y19.2874 
G01 X40.4766 Y19.1705 
G01 X40.5737 Y19.0368 
G01 X40.5909 Y19.0032 
G01 X41.3002 Y19.0032 
G01 X41.3173 Y19.0368 
G01 X41.4145 Y19.1705 
G01 X41.5314 Y19.2874 
G01 X41.6651 Y19.3846 
G01 X41.8124 Y19.4596 
G01 X41.9696 Y19.5107 
G01 X42.1329 Y19.5365 
G01 X42.2982 Y19.5365 
G01 X42.4614 Y19.5107 
G01 X42.6187 Y19.4596 
G01 X42.7659 Y19.3846 
G01 X42.8997 Y19.2874 
G01 X43.0166 Y19.1705 
G01 X43.1137 Y19.0368 
G01 X43.1826 Y18.9016 
G01 X44.1217 Y18.9016 
G01 X44.2296 Y19.0094 
G01 X44.2296 Y20.8352 
G01 X44.2578 Y20.9408 
G01 X44.3125 Y21.0355 
G01 X44.3898 Y21.1128 
G01 X45.3190 Y22.0420 
G01 X45.4137 Y22.0966 
G01 X45.5193 Y22.1249 
G01 X48.0173 Y22.1249 
G01 X49.2855 Y23.3931 
G01 X49.2855 Y23.5989 
G01 X49.3138 Y23.7045 
G01 X49.3353 Y23.7416 
G01 X49.3353 Y25.2316 
G01 X49.1176 Y25.8641 
G01 X49.1032 Y25.8957 
G01 X49.0998 Y25.9156 
G01 X49.0933 Y25.9347 
G01 X49.0909 Y25.9693 
G01 X48.9723 Y26.6779 
G01 X48.9634 Y26.7114 
G01 X48.9634 Y26.7316 
G01 X48.9600 Y26.7515 
G01 X48.9634 Y26.7860 
G01 X48.9634 Y27.5045 
G01 X48.9600 Y27.5390 
G01 X48.9634 Y27.5589 
G01 X48.9634 Y27.5791 
G01 X48.9723 Y27.6126 
G01 X49.0909 Y28.3213 
G01 X49.0933 Y28.3559 
G01 X49.0998 Y28.3749 
G01 X49.1032 Y28.3948 
G01 X49.1176 Y28.4264 
G01 X49.3514 Y29.1058 
G01 X49.3594 Y29.1395 
G01 X49.3691 Y29.1572 
G01 X49.3756 Y29.1763 
G01 X49.3950 Y29.2051 
G01 X49.7377 Y29.8366 
G01 X49.7512 Y29.8685 
G01 X49.7637 Y29.8844 
G01 X49.7733 Y29.9021 
G01 X49.7972 Y29.9273 
G01 X50.2393 Y30.4936 
G01 X50.2580 Y30.5229 
G01 X50.2728 Y30.5365 
G01 X50.2852 Y30.5524 
G01 X50.3130 Y30.5733 
G01 X50.7652 Y30.9880 
G01 X50.7652 Y41.9925 
G01 X45.8141 Y47.3562 
G01 X45.7812 Y47.3890 
G01 X45.7770 Y47.3963 
G01 X45.7713 Y47.4025 
G01 X43.9104 Y49.4185 
G01 X43.6233 Y49.7295 
G01 X41.0747 Y52.4905 
G01 X40.2269 Y52.4905 
G01 X40.1213 Y52.5188 
G01 X40.0267 Y52.5734 
G01 X39.9653 Y52.6348 
G01 X39.9271 Y52.6224 
G01 X39.7638 Y52.5965 
G01 X39.5985 Y52.5965 
G01 X39.4352 Y52.6224 
G01 X39.2780 Y52.6735 
G01 X39.1307 Y52.7485 
G01 X38.9970 Y52.8457 
G01 X38.8801 Y52.9626 
G01 X38.7829 Y53.0963 
G01 X38.7658 Y53.1299 
G01 X38.0565 Y53.1299 
G01 X38.0394 Y53.0963 
G01 X37.9422 Y52.9626 
G01 X37.8253 Y52.8457 
G01 X37.6916 Y52.7485 
G01 X37.5443 Y52.6735 
G01 X37.3871 Y52.6224 
G01 X37.2238 Y52.5965 
G01 X37.0585 Y52.5965 
G01 X36.8952 Y52.6224 
G01 X36.7380 Y52.6735 
G01 X36.5907 Y52.7485 
G01 X36.4570 Y52.8457 
G01 X36.3401 Y52.9626 
G01 X36.2429 Y53.0963 
G01 X36.2258 Y53.1299 
G01 X35.5165 Y53.1299 
G01 X35.4994 Y53.0963 
G01 X35.4022 Y52.9626 
G01 X35.2853 Y52.8457 
G01 X35.1516 Y52.7485 
G01 X35.0043 Y52.6735 
G01 X34.8471 Y52.6224 
G01 X34.6838 Y52.5965 
G01 X34.5185 Y52.5965 
G01 X34.3552 Y52.6224 
G01 X34.1980 Y52.6735 
G01 X34.0507 Y52.7485 
G01 X33.9170 Y52.8457 
G01 X33.8001 Y52.9626 
G01 X33.7029 Y53.0963 
G01 X33.6858 Y53.1299 
G01 X32.9765 Y53.1299 
G01 X32.9594 Y53.0963 
G01 X32.8622 Y52.9626 
G01 X32.7453 Y52.8457 
G01 X32.6116 Y52.7485 
G01 X32.4643 Y52.6735 
G01 X32.3071 Y52.6224 
G01 X32.1438 Y52.5965 
G01 X31.9785 Y52.5965 
G01 X31.8152 Y52.6224 
G01 X31.6580 Y52.6735 
G01 X31.5107 Y52.7485 
G01 X31.3770 Y52.8457 
G01 X31.2601 Y52.9626 
G01 X31.1629 Y53.0963 
G01 X31.1458 Y53.1299 
G01 X30.4365 Y53.1299 
G01 X30.4194 Y53.0963 
G01 X30.3222 Y52.9626 
G01 X30.2053 Y52.8457 
G01 X30.0716 Y52.7485 
G01 X29.9243 Y52.6735 
G01 X29.7671 Y52.6224 
G01 X29.6038 Y52.5965 
G01 X29.4385 Y52.5965 
G01 X29.2752 Y52.6224 
G01 X29.1180 Y52.6735 
G01 X28.9707 Y52.7485 
G01 X28.8370 Y52.8457 
G01 X28.7201 Y52.9626 
G01 X28.6229 Y53.0963 
G01 X28.6058 Y53.1299 
G01 X27.8965 Y53.1299 
G01 X27.8794 Y53.0963 
G01 X27.7822 Y52.9626 
G01 X27.6653 Y52.8457 
G01 X27.5316 Y52.7485 
G01 X27.3843 Y52.6735 
G01 X27.2271 Y52.6224 
G01 X27.0638 Y52.5965 
G01 X26.8985 Y52.5965 
G01 X26.7352 Y52.6224 
G01 X26.5780 Y52.6735 
G01 X26.4307 Y52.7485 
G01 X26.2970 Y52.8457 
G01 X26.1801 Y52.9626 
G01 X26.0829 Y53.0963 
G01 X26.0658 Y53.1299 
G01 X25.3565 Y53.1299 
G01 X25.3394 Y53.0963 
G01 X25.2422 Y52.9626 
G01 X25.1253 Y52.8457 
G01 X24.9916 Y52.7485 
G01 X24.8443 Y52.6735 
G01 X24.6871 Y52.6224 
G01 X24.5238 Y52.5965 
G01 X24.3585 Y52.5965 
G01 X24.1952 Y52.6224 
G01 X24.0380 Y52.6735 
G01 X23.8907 Y52.7485 
G01 X23.7570 Y52.8457 
G01 X23.6401 Y52.9626 
G01 X23.5429 Y53.0963 
G01 X23.5258 Y53.1299 
G01 X22.8165 Y53.1299 
G01 X22.7994 Y53.0963 
G01 X22.7022 Y52.9626 
G01 X22.5853 Y52.8457 
G01 X22.4516 Y52.7485 
G01 X22.3043 Y52.6735 
G01 X22.1471 Y52.6224 
G01 X21.9838 Y52.5965 
G01 X21.8185 Y52.5965 
G01 X21.6552 Y52.6224 
G01 X21.4980 Y52.6735 
G01 X21.3507 Y52.7485 
G01 X21.2170 Y52.8457 
G01 X21.1789 Y52.8837 
G01 X20.5667 Y52.8837 
G01 X20.5183 Y52.8354 
G01 X20.5183 Y44.1602 
G01 X22.5054 Y44.1602 
G01 X22.5459 Y44.1434 
G01 X22.5770 Y44.1123 
G01 X22.5938 Y44.0717 
G01 X22.5938 Y40.2178 
G01 X22.5770 Y40.1772 
G01 X22.5459 Y40.1462 
G01 X22.5054 Y40.1294 
G01 X18.6514 Y40.1294 
G01 X18.6109 Y40.1462 
G01 X18.5798 Y40.1772 
G01 X18.5630 Y40.2178 
G01 X18.5630 Y41.8593 
G01 X14.4059 Y41.8593 
G01 X14.4059 Y41.7017 
G01 X14.3891 Y41.6612 
G01 X14.3580 Y41.6301 
G01 X14.3174 Y41.6133 
G01 X13.1735 Y41.6133 
G01 X13.1329 Y41.6301 
G01 X13.1019 Y41.6612 
G01 X13.0851 Y41.7017 
G01 X13.0851 Y42.7457 
G01 X13.1019 Y42.7862 
G01 X13.1329 Y42.8173 
G01 X13.1735 Y42.8341 
G01 X14.3174 Y42.8341 
G01 X14.3580 Y42.8173 
G01 X14.3891 Y42.7862 
G01 X14.4059 Y42.7457 
G01 X14.4059 Y42.5881 
G01 X18.5630 Y42.5881 
G01 X18.5630 Y44.0717 
G01 X18.5798 Y44.1123 
G01 X18.6109 Y44.1434 
G01 X18.6514 Y44.1602 
G01 X19.4847 Y44.1602 
G01 X19.4847 Y53.1175 
G01 X19.5199 Y53.2490 
G01 X19.5880 Y53.3668 
G01 X19.6842 Y53.4630 
G01 X20.0353 Y53.8141 
G01 X20.1531 Y53.8821 
G01 X20.2845 Y53.9173 
G01 X20.8848 Y53.9173 
G01 X20.9279 Y54.0499 
G01 X21.0029 Y54.1972 
G01 X21.1001 Y54.3309 
G01 X21.2170 Y54.4478 
G01 X21.3507 Y54.5450 
G01 X21.4980 Y54.6200 
G01 X21.6552 Y54.6711 
G01 X21.8185 Y54.6969 
G01 X21.9838 Y54.6969 
G01 X22.1471 Y54.6711 
G01 X22.3043 Y54.6200 
G01 X22.4516 Y54.5450 
G01 X22.5853 Y54.4478 
G01 X22.7022 Y54.3309 
G01 X22.7994 Y54.1972 
G01 X22.8165 Y54.1635 
G01 X23.5258 Y54.1635 
G01 X23.5429 Y54.1972 
G01 X23.6401 Y54.3309 
G01 X23.7570 Y54.4478 
G01 X23.8907 Y54.5450 
G01 X24.0380 Y54.6200 
G01 X24.1952 Y54.6711 
G01 X24.3585 Y54.6969 
G01 X24.5238 Y54.6969 
G01 X24.6871 Y54.6711 
G01 X24.8443 Y54.6200 
G01 X24.9916 Y54.5450 
G01 X25.1253 Y54.4478 
G01 X25.2422 Y54.3309 
G01 X25.3394 Y54.1972 
G01 X25.3565 Y54.1635 
G01 X26.0658 Y54.1635 
G01 X26.0829 Y54.1972 
G01 X26.1801 Y54.3309 
G01 X26.2970 Y54.4478 
G01 X26.4307 Y54.5450 
G01 X26.5780 Y54.6200 
G01 X26.7352 Y54.6711 
G01 X26.8985 Y54.6969 
G01 X27.0638 Y54.6969 
G01 X27.2271 Y54.6711 
G01 X27.3843 Y54.6200 
G01 X27.5316 Y54.5450 
G01 X27.6653 Y54.4478 
G01 X27.7822 Y54.3309 
G01 X27.8794 Y54.1972 
G01 X27.8965 Y54.1635 
G01 X28.6058 Y54.1635 
G01 X28.6229 Y54.1972 
G01 X28.7201 Y54.3309 
G01 X28.8370 Y54.4478 
G01 X28.9707 Y54.5450 
G01 X29.1180 Y54.6200 
G01 X29.2752 Y54.6711 
G01 X29.4385 Y54.6969 
G01 X29.6038 Y54.6969 
G01 X29.7671 Y54.6711 
G01 X29.9243 Y54.6200 
G01 X30.0716 Y54.5450 
G01 X30.2053 Y54.4478 
G01 X30.3222 Y54.3309 
G01 X30.4194 Y54.1972 
G01 X30.4365 Y54.1635 
G01 X31.1458 Y54.1635 
G01 X31.1629 Y54.1972 
G01 X31.2601 Y54.3309 
G01 X31.3770 Y54.4478 
G01 X31.5107 Y54.5450 
G01 X31.6580 Y54.6200 
G01 X31.8152 Y54.6711 
G01 X31.9785 Y54.6969 
G01 X32.1438 Y54.6969 
G01 X32.3071 Y54.6711 
G01 X32.4643 Y54.6200 
G01 X32.6116 Y54.5450 
G01 X32.7453 Y54.4478 
G01 X32.8622 Y54.3309 
G01 X32.9594 Y54.1972 
G01 X32.9765 Y54.1635 
G01 X33.6858 Y54.1635 
G01 X33.7029 Y54.1972 
G01 X33.8001 Y54.3309 
G01 X33.9170 Y54.4478 
G01 X34.0507 Y54.5450 
G01 X34.1980 Y54.6200 
G01 X34.3552 Y54.6711 
G01 X34.5185 Y54.6969 
G01 X34.6838 Y54.6969 
G01 X34.8471 Y54.6711 
G01 X35.0043 Y54.6200 
G01 X35.1516 Y54.5450 
G01 X35.2853 Y54.4478 
G01 X35.4022 Y54.3309 
G01 X35.4994 Y54.1972 
G01 X35.5165 Y54.1635 
G01 X36.2258 Y54.1635 
G01 X36.2429 Y54.1972 
G01 X36.3401 Y54.3309 
G01 X36.4570 Y54.4478 
G01 X36.5907 Y54.5450 
G01 X36.7380 Y54.6200 
G01 X36.8952 Y54.6711 
G01 X37.0585 Y54.6969 
G01 X37.2238 Y54.6969 
G01 X37.3871 Y54.6711 
G01 X37.5443 Y54.6200 
G01 X37.6916 Y54.5450 
G01 X37.8253 Y54.4478 
G01 X37.9422 Y54.3309 
G01 X38.0394 Y54.1972 
G01 X38.0565 Y54.1635 
G01 X38.7658 Y54.1635 
G01 X38.7829 Y54.1972 
G01 X38.8801 Y54.3309 
G01 X38.9970 Y54.4478 
G01 X39.1307 Y54.5450 
G01 X39.2780 Y54.6200 
G01 X39.4352 Y54.6711 
G01 X39.5985 Y54.6969 
G01 X39.7638 Y54.6969 
G01 X39.9271 Y54.6711 
G01 X40.0843 Y54.6200 
G01 X40.2316 Y54.5450 
G01 X40.3653 Y54.4478 
G01 X40.4822 Y54.3309 
G01 X40.5794 Y54.1972 
G01 X40.6544 Y54.0499 
G01 X40.7055 Y53.8927 
G01 X40.7313 Y53.7294 
G01 X40.7313 Y53.5641 
G01 X40.7055 Y53.4008 
G01 X40.6795 Y53.3209 
G01 X41.2103 Y53.3209 
G01 X41.2185 Y53.3227 
G01 X41.2648 Y53.3209 
G01 X41.3112 Y53.3209 
G01 X41.3193 Y53.3187 
G01 X41.3277 Y53.3184 
G01 X41.3720 Y53.3046 
G01 X41.4168 Y53.2926 
G01 X41.4241 Y53.2884 
G01 X41.4321 Y53.2859 
G01 X41.4713 Y53.2611 
G01 X41.5114 Y53.2379 
G01 X41.5174 Y53.2320 
G01 X41.5245 Y53.2275 
G01 X41.5559 Y53.1934 
G01 X41.5887 Y53.1606 
G01 X41.5930 Y53.1533 
G01 X43.8360 Y50.7233 
G01 X44.2939 Y51.1813 
G01 X44.3345 Y51.1981 
G01 X44.3784 Y51.1981 
G01 X44.4190 Y51.1813 
G01 X45.6521 Y49.9481 
G01 X45.6690 Y49.9076 
G01 X45.6690 Y49.8636 
G01 X45.6521 Y49.8231 
G01 X45.1399 Y49.3108 
G01 X46.3815 Y47.9657 
G01 X46.4129 Y47.9317 
G01 X46.4457 Y47.8989 
G01 X46.4499 Y47.8916 
G01 X51.4798 Y42.4426 
G01 X51.5126 Y42.4098 
G01 X51.5168 Y42.4025 
G01 X51.5225 Y42.3963 
G01 X51.5441 Y42.3553 
G01 X51.5673 Y42.3151 
G01 X51.5695 Y42.3069 
G01 X51.5734 Y42.2995 
G01 X51.5836 Y42.2543 
G01 X51.5956 Y42.2095 
G01 X51.5956 Y42.2011 
G01 X51.5974 Y42.1929 
G01 X51.5956 Y42.1465 
G01 X51.5956 Y30.8050 
G01 X51.5979 Y30.7614 
G01 X51.5956 Y30.7505 
G01 X51.5956 Y30.7394 
G01 X51.5842 Y30.6972 
G01 X51.5752 Y30.6545 
G01 X51.5701 Y30.6446 
G01 X51.5673 Y30.6338 
G01 X51.5454 Y30.5960 
G01 X51.5256 Y30.5570 
G01 X51.5182 Y30.5488 
G01 X51.5126 Y30.5391 
G01 X51.4817 Y30.5082 
G01 X51.4525 Y30.4758 
G01 X51.4432 Y30.4697 
G01 X51.4353 Y30.4618 
G01 X51.3975 Y30.4400 
G01 X51.3930 Y30.4371 
G01 X50.8849 Y29.9711 
G01 X50.4606 Y29.4277 
G01 X50.1318 Y28.8218 
G01 X49.9075 Y28.1699 
G01 X49.7938 Y27.4900 
G01 X49.7938 Y26.8006 
G01 X49.9075 Y26.1206 
G01 X50.1300 Y25.4740 
G01 X50.1374 Y25.4613 
G01 X50.1478 Y25.4224 
G01 X50.1608 Y25.3844 
G01 X50.1619 Y25.3698 
G01 X50.1656 Y25.3557 
G01 X50.1656 Y25.3155 
G01 X50.1684 Y25.2754 
G01 X50.1656 Y25.2610 
G01 X50.1656 Y23.2162 
G01 X50.1374 Y23.1106 
G01 X50.1159 Y23.0735 
G01 X50.1159 Y10.6850 
G01 X50.0876 Y10.5794 
G01 X50.0330 Y10.4847 
G01 X49.9557 Y10.4074 
G01 X45.8794 Y6.3312 
G01 X40.8345 Y1.2862 
G01 X40.7398 Y1.2316 
G01 X40.6342 Y1.2033 
G01 X33.5666 Y1.2033 
G01 X33.4610 Y1.2316 
G01 X33.3663 Y1.2862 
G01 X33.2890 Y1.3635 
G01 X33.1400 Y1.5126 
G01 X33.0853 Y1.6072 
G01 X33.0571 Y1.7128 
G01 X33.0571 Y6.8095 
G01 X33.0853 Y6.9151 
G00 Z2.5400 
G00 X32.5716 Y3.9249 
G01 Z-0.1778 F254.00 
G01 X32.5884 Y3.8843 F508.00 
G01 X32.5884 Y2.8404 
G01 X32.5716 Y2.7998 
G01 X32.5406 Y2.7688 
G01 X32.5000 Y2.7520 
G01 X32.4095 Y2.7520 
G01 X32.4095 Y2.3994 
G01 X32.4432 Y2.3822 
G01 X32.5769 Y2.2851 
G01 X32.6938 Y2.1682 
G01 X32.7909 Y2.0345 
G01 X32.8660 Y1.8872 
G01 X32.9171 Y1.7300 
G01 X32.9429 Y1.5667 
G01 X32.9429 Y1.4014 
G01 X32.9171 Y1.2381 
G01 X32.8660 Y1.0809 
G01 X32.7909 Y0.9336 
G01 X32.6938 Y0.7999 
G01 X32.5769 Y0.6830 
G01 X32.4432 Y0.5858 
G01 X32.2959 Y0.5108 
G01 X32.1387 Y0.4597 
G01 X31.9754 Y0.4338 
G01 X31.8101 Y0.4338 
G01 X31.6468 Y0.4597 
G01 X31.4896 Y0.5108 
G01 X31.3423 Y0.5858 
G01 X31.2086 Y0.6830 
G01 X31.0917 Y0.7999 
G01 X30.9945 Y0.9336 
G01 X30.9195 Y1.0809 
G01 X30.8684 Y1.2381 
G01 X30.8425 Y1.4014 
G01 X30.8425 Y1.5667 
G01 X30.8684 Y1.7300 
G01 X30.9195 Y1.8872 
G01 X30.9945 Y2.0345 
G01 X31.0917 Y2.1682 
G01 X31.2086 Y2.2851 
G01 X31.3423 Y2.3822 
G01 X31.3759 Y2.3994 
G01 X31.3759 Y2.7520 
G01 X31.3561 Y2.7520 
G01 X31.3155 Y2.7688 
G01 X31.2844 Y2.7998 
G01 X31.2676 Y2.8404 
G01 X31.2676 Y3.8843 
G01 X31.2844 Y3.9249 
G01 X31.3155 Y3.9560 
G01 X31.3561 Y3.9728 
G01 X32.5000 Y3.9728 
G01 X32.5406 Y3.9560 
G01 X32.5716 Y3.9249 
G00 Z2.5400 
G00 X34.3263 Y3.8213 
G01 Z-0.1778 F254.00 
G01 X34.4013 Y3.9686 F508.00 
G01 X34.4985 Y4.1023 
G01 X34.6154 Y4.2192 
G01 X34.7491 Y4.3163 
G01 X34.8964 Y4.3914 
G01 X35.0536 Y4.4425 
G01 X35.2169 Y4.4683 
G01 X35.3822 Y4.4683 
G01 X35.5455 Y4.4425 
G01 X35.7027 Y4.3914 
G01 X35.8500 Y4.3163 
G01 X35.9837 Y4.2192 
G01 X36.1006 Y4.1023 
G01 X36.1978 Y3.9686 
G01 X36.2149 Y3.9349 
G01 X37.5771 Y3.9349 
G01 X37.7085 Y3.8997 
G01 X37.8264 Y3.8317 
G01 X37.9226 Y3.7355 
G01 X37.9438 Y3.6988 
G01 X38.0310 Y3.6988 
G01 X38.0716 Y3.6820 
G01 X38.1026 Y3.6509 
G01 X38.1195 Y3.6104 
G01 X38.1195 Y2.4664 
G01 X38.1026 Y2.4259 
G01 X38.0716 Y2.3948 
G01 X38.0310 Y2.3780 
G01 X36.9871 Y2.3780 
G01 X36.9465 Y2.3948 
G01 X36.9155 Y2.4259 
G01 X36.8987 Y2.4664 
G01 X36.8987 Y2.9013 
G01 X36.2149 Y2.9013 
G01 X36.1978 Y2.8677 
G01 X36.1006 Y2.7340 
G01 X35.9837 Y2.6171 
G01 X35.8500 Y2.5199 
G01 X35.7027 Y2.4449 
G01 X35.5455 Y2.3938 
G01 X35.3822 Y2.3679 
G01 X35.2169 Y2.3679 
G01 X35.0536 Y2.3938 
G01 X34.8964 Y2.4449 
G01 X34.7491 Y2.5199 
G01 X34.6154 Y2.6171 
G01 X34.4985 Y2.7340 
G01 X34.4013 Y2.8677 
G01 X34.3263 Y3.0150 
G01 X34.2752 Y3.1722 
G01 X34.2493 Y3.3355 
G01 X34.2493 Y3.5008 
G01 X34.2752 Y3.6641 
G01 X34.3263 Y3.8213 
G00 Z2.5400 
G00 X36.4359 Y5.0736 
G01 Z-0.1778 F254.00 
G01 X36.4191 Y5.1142 F508.00 
G01 X36.4191 Y6.1581 
G01 X36.4359 Y6.1987 
G01 X36.4670 Y6.2297 
G01 X36.5076 Y6.2465 
G01 X36.8143 Y6.2465 
G01 X36.8143 Y7.3839 
G01 X36.8426 Y7.4895 
G01 X36.8973 Y7.5842 
G01 X37.8937 Y8.5806 
G01 X37.9710 Y8.6579 
G01 X38.0657 Y8.7126 
G01 X38.1713 Y8.7409 
G01 X41.8559 Y8.7409 
G01 X41.9615 Y8.7126 
G01 X42.0562 Y8.6579 
G01 X42.6016 Y8.1125 
G01 X42.9682 Y8.1125 
G01 X44.2861 Y9.4305 
G01 X44.2543 Y9.5907 
G01 X44.2543 Y9.7610 
G01 X44.2875 Y9.9280 
G01 X44.3526 Y10.0853 
G01 X44.4472 Y10.2269 
G01 X44.5676 Y10.3473 
G01 X44.7092 Y10.4419 
G01 X44.8665 Y10.5070 
G01 X45.0335 Y10.5402 
G01 X45.2038 Y10.5402 
G01 X45.3708 Y10.5070 
G01 X45.5281 Y10.4419 
G01 X45.6697 Y10.3473 
G01 X45.7901 Y10.2269 
G01 X45.8847 Y10.0853 
G01 X45.9498 Y9.9280 
G01 X45.9831 Y9.7610 
G01 X45.9831 Y9.5907 
G01 X45.9498 Y9.4237 
G01 X45.8847 Y9.2664 
G01 X45.7901 Y9.1248 
G01 X45.6697 Y9.0044 
G01 X45.5281 Y8.9098 
G01 X45.3708 Y8.8447 
G01 X45.2038 Y8.8115 
G01 X45.0335 Y8.8115 
G01 X44.8733 Y8.8433 
G01 X43.3951 Y7.3651 
G01 X43.3004 Y7.3104 
G01 X43.1948 Y7.2821 
G01 X42.3750 Y7.2821 
G01 X42.2694 Y7.3104 
G01 X42.1747 Y7.3651 
G01 X42.0974 Y7.4424 
G01 X41.6293 Y7.9105 
G01 X38.3979 Y7.9105 
G01 X37.6447 Y7.1573 
G01 X37.6447 Y6.2465 
G01 X37.9515 Y6.2465 
G01 X37.9920 Y6.2297 
G01 X38.0231 Y6.1987 
G01 X38.0399 Y6.1581 
G01 X38.0399 Y5.1142 
G01 X38.0231 Y5.0736 
G01 X37.9920 Y5.0425 
G01 X37.9515 Y5.0257 
G01 X36.5076 Y5.0257 
G01 X36.4670 Y5.0425 
G01 X36.4359 Y5.0736 
G00 Z2.5400 
G00 X38.6191 Y5.2081 
G01 Z-0.1778 F254.00 
G01 X38.6359 Y5.2487 F508.00 
G01 X38.6670 Y5.2797 
G01 X38.7075 Y5.2965 
G01 X40.1515 Y5.2965 
G01 X40.1920 Y5.2797 
G01 X40.2231 Y5.2487 
G01 X40.2399 Y5.2081 
G01 X40.2399 Y4.1642 
G01 X40.2231 Y4.1236 
G01 X40.1920 Y4.0925 
G01 X40.1515 Y4.0757 
G01 X39.8447 Y4.0757 
G01 X39.8447 Y3.2042 
G01 X39.8195 Y3.1099 
G01 X39.8195 Y2.4664 
G01 X39.8026 Y2.4259 
G01 X39.7716 Y2.3948 
G01 X39.7310 Y2.3780 
G01 X38.6871 Y2.3780 
G01 X38.6465 Y2.3948 
G01 X38.6155 Y2.4259 
G01 X38.5987 Y2.4664 
G01 X38.5987 Y3.6104 
G01 X38.6155 Y3.6509 
G01 X38.6465 Y3.6820 
G01 X38.6871 Y3.6988 
G01 X39.0143 Y3.6988 
G01 X39.0143 Y4.0757 
G01 X38.7075 Y4.0757 
G01 X38.6670 Y4.0925 
G01 X38.6359 Y4.1236 
G01 X38.6191 Y4.1642 
G01 X38.6191 Y5.2081 
G00 Z2.5400 
G00 X41.9072 Y9.1248 
G01 Z-0.1778 F254.00 
G01 X41.8126 Y9.2664 F508.00 
G01 X41.7475 Y9.4237 
G01 X41.7143 Y9.5907 
G01 X41.7143 Y9.7610 
G01 X41.7475 Y9.9280 
G01 X41.8126 Y10.0853 
G01 X41.9072 Y10.2269 
G01 X42.0276 Y10.3473 
G01 X42.1692 Y10.4419 
G01 X42.3265 Y10.5070 
G01 X42.4935 Y10.5402 
G01 X42.6217 Y10.5402 
G01 X43.9736 Y11.8922 
G01 X44.0509 Y11.9695 
G01 X44.1456 Y12.0242 
G01 X44.2512 Y12.0525 
G01 X47.7399 Y12.0525 
G01 X47.7399 Y18.3856 
G01 X47.2993 Y18.8263 
G01 X46.4814 Y18.8263 
G01 X44.5429 Y16.8878 
G01 X44.4482 Y16.8331 
G01 X44.3426 Y16.8048 
G01 X44.3207 Y16.8048 
G01 X43.3152 Y15.7992 
G01 X43.3387 Y15.7640 
G01 X43.4039 Y15.6067 
G01 X43.4371 Y15.4397 
G01 X43.4371 Y15.2695 
G01 X43.4039 Y15.1025 
G01 X43.3387 Y14.9451 
G01 X43.2441 Y14.8036 
G01 X43.1237 Y14.6832 
G01 X42.9821 Y14.5886 
G01 X42.8248 Y14.5234 
G01 X42.6578 Y14.4902 
G01 X42.4875 Y14.4902 
G01 X42.3205 Y14.5234 
G01 X42.1632 Y14.5886 
G01 X42.0217 Y14.6832 
G01 X41.9013 Y14.8036 
G01 X41.8067 Y14.9451 
G01 X41.7415 Y15.1025 
G01 X41.7083 Y15.2695 
G01 X41.7083 Y15.4397 
G01 X41.7415 Y15.6067 
G01 X41.8067 Y15.7640 
G01 X41.9013 Y15.9056 
G01 X42.0217 Y16.0260 
G01 X42.1632 Y16.1206 
G01 X42.3205 Y16.1858 
G01 X42.4875 Y16.2190 
G01 X42.5606 Y16.2190 
G01 X43.8165 Y17.4749 
G01 X43.8938 Y17.5522 
G01 X43.9885 Y17.6069 
G01 X44.0941 Y17.6352 
G01 X44.1159 Y17.6352 
G01 X45.9092 Y19.4285 
G01 X45.9092 Y20.7586 
G01 X45.9260 Y20.7992 
G01 X45.9571 Y20.8303 
G01 X45.9977 Y20.8471 
G01 X47.8116 Y20.8471 
G01 X47.8522 Y20.8303 
G01 X47.8832 Y20.7992 
G01 X47.9000 Y20.7586 
G01 X47.9000 Y19.3999 
G01 X48.4874 Y18.8125 
G01 X48.5420 Y18.7178 
G01 X48.5703 Y18.6123 
G01 X48.5703 Y11.8185 
G01 X48.5420 Y11.7129 
G01 X48.4874 Y11.6182 
G01 X48.4101 Y11.5409 
G01 X48.1742 Y11.3050 
G01 X48.0795 Y11.2504 
G01 X47.9739 Y11.2221 
G01 X44.4779 Y11.2221 
G01 X43.3432 Y10.0874 
G01 X43.4098 Y9.9280 
G01 X43.4431 Y9.7610 
G01 X43.4431 Y9.5907 
G01 X43.4098 Y9.4237 
G01 X43.3447 Y9.2664 
G01 X43.2501 Y9.1248 
G01 X43.1297 Y9.0044 
G01 X42.9881 Y8.9098 
G01 X42.8308 Y8.8447 
G01 X42.6638 Y8.8115 
G01 X42.4935 Y8.8115 
G01 X42.3265 Y8.8447 
G01 X42.1692 Y8.9098 
G01 X42.0276 Y9.0044 
G01 X41.9072 Y9.1248 
G00 Z2.5400 
G00 X41.8997 Y13.1774 
G01 Z-0.1778 F254.00 
G01 X41.8224 Y13.2547 F508.00 
G01 X41.2757 Y13.8013 
G01 X41.0785 Y13.8013 
G01 X40.9729 Y13.8296 
G01 X40.8782 Y13.8843 
G01 X40.8009 Y13.9616 
G01 X38.7619 Y16.0005 
G01 X36.0407 Y16.0005 
G01 X35.9308 Y15.8906 
G01 X35.9308 Y13.8074 
G01 X36.2375 Y13.8074 
G01 X36.2781 Y13.7906 
G01 X36.3091 Y13.7595 
G01 X36.3260 Y13.7190 
G01 X36.3260 Y12.6751 
G01 X36.3091 Y12.6345 
G01 X36.2781 Y12.6034 
G01 X36.2375 Y12.5866 
G01 X34.7936 Y12.5866 
G01 X34.7530 Y12.6034 
G01 X34.7220 Y12.6345 
G01 X34.7052 Y12.6751 
G01 X34.7052 Y13.7190 
G01 X34.7220 Y13.7595 
G01 X34.7530 Y13.7906 
G01 X34.7936 Y13.8074 
G01 X35.1004 Y13.8074 
G01 X35.1004 Y16.1172 
G01 X35.1287 Y16.2228 
G01 X35.1833 Y16.3175 
G01 X35.5365 Y16.6707 
G01 X35.6138 Y16.7480 
G01 X35.7085 Y16.8026 
G01 X35.8141 Y16.8309 
G01 X38.9886 Y16.8309 
G01 X39.0942 Y16.8026 
G01 X39.1889 Y16.7480 
G01 X41.3051 Y14.6317 
G01 X41.5024 Y14.6317 
G01 X41.6080 Y14.6034 
G01 X41.7027 Y14.5487 
G01 X42.3266 Y13.9248 
G01 X43.0957 Y13.9248 
G01 X44.2801 Y15.1092 
G01 X44.2483 Y15.2695 
G01 X44.2483 Y15.4397 
G01 X44.2815 Y15.6067 
G01 X44.3467 Y15.7640 
G01 X44.4413 Y15.9056 
G01 X44.5617 Y16.0260 
G01 X44.7032 Y16.1206 
G01 X44.8605 Y16.1858 
G01 X45.0275 Y16.2190 
G01 X45.1978 Y16.2190 
G01 X45.3648 Y16.1858 
G01 X45.5221 Y16.1206 
G01 X45.6637 Y16.0260 
G01 X45.7841 Y15.9056 
G01 X45.8787 Y15.7640 
G01 X45.9439 Y15.6067 
G01 X45.9771 Y15.4397 
G01 X45.9771 Y15.2695 
G01 X45.9439 Y15.1025 
G01 X45.8787 Y14.9451 
G01 X45.7841 Y14.8036 
G01 X45.6637 Y14.6832 
G01 X45.5221 Y14.5886 
G01 X45.3648 Y14.5234 
G01 X45.1978 Y14.4902 
G01 X45.0275 Y14.4902 
G01 X44.8673 Y14.5221 
G01 X43.5226 Y13.1774 
G01 X43.4279 Y13.1227 
G01 X43.3223 Y13.0944 
G01 X42.0999 Y13.0944 
G01 X41.9943 Y13.1227 
G01 X41.8997 Y13.1774 
G00 Z2.5400 
G00 X41.9696 Y20.2345 
G01 Z-0.1778 F254.00 
G01 X41.8124 Y20.2856 F508.00 
G01 X41.6651 Y20.3606 
G01 X41.5314 Y20.4578 
G01 X41.4145 Y20.5747 
G01 X41.3173 Y20.7084 
G01 X41.2484 Y20.8437 
G01 X40.6426 Y20.8437 
G01 X40.5737 Y20.7084 
G01 X40.4766 Y20.5747 
G01 X40.3597 Y20.4578 
G01 X40.2259 Y20.3606 
G01 X40.0787 Y20.2856 
G01 X39.9214 Y20.2345 
G01 X39.7582 Y20.2086 
G01 X39.5929 Y20.2086 
G01 X39.4296 Y20.2345 
G01 X39.2724 Y20.2856 
G01 X39.1251 Y20.3606 
G01 X38.9914 Y20.4578 
G01 X38.8745 Y20.5747 
G01 X38.7773 Y20.7084 
G01 X38.7084 Y20.8437 
G01 X38.1026 Y20.8437 
G01 X38.0337 Y20.7084 
G01 X37.9366 Y20.5747 
G01 X37.8197 Y20.4578 
G01 X37.6859 Y20.3606 
G01 X37.5387 Y20.2856 
G01 X37.3814 Y20.2345 
G01 X37.2182 Y20.2086 
G01 X37.0529 Y20.2086 
G01 X36.8896 Y20.2345 
G01 X36.7324 Y20.2856 
G01 X36.5851 Y20.3606 
G01 X36.4514 Y20.4578 
G01 X36.3345 Y20.5747 
G01 X36.2373 Y20.7084 
G01 X36.1684 Y20.8437 
G01 X35.5626 Y20.8437 
G01 X35.4937 Y20.7084 
G01 X35.3966 Y20.5747 
G01 X35.2797 Y20.4578 
G01 X35.1459 Y20.3606 
G01 X34.9987 Y20.2856 
G01 X34.8414 Y20.2345 
G01 X34.6782 Y20.2086 
G01 X34.5129 Y20.2086 
G01 X34.3496 Y20.2345 
G01 X34.1924 Y20.2856 
G01 X34.0451 Y20.3606 
G01 X33.9114 Y20.4578 
G01 X33.7945 Y20.5747 
G01 X33.6973 Y20.7084 
G01 X33.6284 Y20.8437 
G01 X33.0226 Y20.8437 
G01 X32.9537 Y20.7084 
G01 X32.8566 Y20.5747 
G01 X32.7397 Y20.4578 
G01 X32.6059 Y20.3606 
G01 X32.4587 Y20.2856 
G01 X32.3014 Y20.2345 
G01 X32.1382 Y20.2086 
G01 X31.9729 Y20.2086 
G01 X31.8096 Y20.2345 
G01 X31.6524 Y20.2856 
G01 X31.5051 Y20.3606 
G01 X31.3714 Y20.4578 
G01 X31.2545 Y20.5747 
G01 X31.1573 Y20.7084 
G01 X31.0884 Y20.8437 
G01 X30.4826 Y20.8437 
G01 X30.4137 Y20.7084 
G01 X30.3166 Y20.5747 
G01 X30.1997 Y20.4578 
G01 X30.0659 Y20.3606 
G01 X29.9187 Y20.2856 
G01 X29.7614 Y20.2345 
G01 X29.5982 Y20.2086 
G01 X29.4329 Y20.2086 
G01 X29.2696 Y20.2345 
G01 X29.1124 Y20.2856 
G01 X28.9651 Y20.3606 
G01 X28.8314 Y20.4578 
G01 X28.7145 Y20.5747 
G01 X28.6173 Y20.7084 
G01 X28.5484 Y20.8437 
G01 X27.9426 Y20.8437 
G01 X27.8737 Y20.7084 
G01 X27.7766 Y20.5747 
G01 X27.6597 Y20.4578 
G01 X27.5259 Y20.3606 
G01 X27.3787 Y20.2856 
G01 X27.2214 Y20.2345 
G01 X27.0582 Y20.2086 
G01 X26.8929 Y20.2086 
G01 X26.7296 Y20.2345 
G01 X26.5724 Y20.2856 
G01 X26.4251 Y20.3606 
G01 X26.2914 Y20.4578 
G01 X26.1745 Y20.5747 
G01 X26.0773 Y20.7084 
G01 X26.0084 Y20.8437 
G01 X25.4026 Y20.8437 
G01 X25.3337 Y20.7084 
G01 X25.2366 Y20.5747 
G01 X25.1197 Y20.4578 
G01 X24.9859 Y20.3606 
G01 X24.8387 Y20.2856 
G01 X24.6814 Y20.2345 
G01 X24.5182 Y20.2086 
G01 X24.3529 Y20.2086 
G01 X24.1896 Y20.2345 
G01 X24.0324 Y20.2856 
G01 X23.8851 Y20.3606 
G01 X23.7514 Y20.4578 
G01 X23.6345 Y20.5747 
G01 X23.5373 Y20.7084 
G01 X23.4623 Y20.8557 
G01 X23.4112 Y21.0129 
G01 X23.3853 Y21.1762 
G01 X23.3853 Y21.3415 
G01 X23.4112 Y21.5048 
G01 X23.4623 Y21.6620 
G01 X23.5373 Y21.8093 
G01 X23.6345 Y21.9430 
G01 X23.7514 Y22.0599 
G01 X23.8851 Y22.1571 
G01 X24.0324 Y22.2321 
G01 X24.1896 Y22.2832 
G01 X24.3529 Y22.3090 
G01 X24.5182 Y22.3090 
G01 X24.6814 Y22.2832 
G01 X24.8387 Y22.2321 
G01 X24.9859 Y22.1571 
G01 X25.1197 Y22.0599 
G01 X25.2366 Y21.9430 
G01 X25.3337 Y21.8093 
G01 X25.4026 Y21.6740 
G01 X26.0084 Y21.6740 
G01 X26.0773 Y21.8093 
G01 X26.1745 Y21.9430 
G01 X26.2914 Y22.0599 
G01 X26.4251 Y22.1571 
G01 X26.5724 Y22.2321 
G01 X26.7296 Y22.2832 
G01 X26.8929 Y22.3090 
G01 X27.0582 Y22.3090 
G01 X27.2214 Y22.2832 
G01 X27.3787 Y22.2321 
G01 X27.5259 Y22.1571 
G01 X27.6597 Y22.0599 
G01 X27.7766 Y21.9430 
G01 X27.8737 Y21.8093 
G01 X27.9426 Y21.6740 
G01 X28.5484 Y21.6740 
G01 X28.6173 Y21.8093 
G01 X28.7145 Y21.9430 
G01 X28.8314 Y22.0599 
G01 X28.9651 Y22.1571 
G01 X29.1124 Y22.2321 
G01 X29.2696 Y22.2832 
G01 X29.4329 Y22.3090 
G01 X29.5982 Y22.3090 
G01 X29.7614 Y22.2832 
G01 X29.9187 Y22.2321 
G01 X30.0659 Y22.1571 
G01 X30.1997 Y22.0599 
G01 X30.3166 Y21.9430 
G01 X30.4137 Y21.8093 
G01 X30.4826 Y21.6740 
G01 X31.0884 Y21.6740 
G01 X31.1573 Y21.8093 
G01 X31.2545 Y21.9430 
G01 X31.3714 Y22.0599 
G01 X31.5051 Y22.1571 
G01 X31.6524 Y22.2321 
G01 X31.8096 Y22.2832 
G01 X31.9729 Y22.3090 
G01 X32.1382 Y22.3090 
G01 X32.3014 Y22.2832 
G01 X32.4587 Y22.2321 
G01 X32.6059 Y22.1571 
G01 X32.7397 Y22.0599 
G01 X32.8566 Y21.9430 
G01 X32.9537 Y21.8093 
G01 X33.0226 Y21.6740 
G01 X33.6284 Y21.6740 
G01 X33.6973 Y21.8093 
G01 X33.7945 Y21.9430 
G01 X33.9114 Y22.0599 
G01 X34.0451 Y22.1571 
G01 X34.1924 Y22.2321 
G01 X34.3496 Y22.2832 
G01 X34.5129 Y22.3090 
G01 X34.6782 Y22.3090 
G01 X34.8414 Y22.2832 
G01 X34.9987 Y22.2321 
G01 X35.1459 Y22.1571 
G01 X35.2797 Y22.0599 
G01 X35.3966 Y21.9430 
G01 X35.4937 Y21.8093 
G01 X35.5626 Y21.6740 
G01 X36.1684 Y21.6740 
G01 X36.2373 Y21.8093 
G01 X36.3345 Y21.9430 
G01 X36.4514 Y22.0599 
G01 X36.5851 Y22.1571 
G01 X36.7324 Y22.2321 
G01 X36.8896 Y22.2832 
G01 X37.0529 Y22.3090 
G01 X37.2182 Y22.3090 
G01 X37.3814 Y22.2832 
G01 X37.5387 Y22.2321 
G01 X37.6859 Y22.1571 
G01 X37.8197 Y22.0599 
G01 X37.9366 Y21.9430 
G01 X38.0337 Y21.8093 
G01 X38.1026 Y21.6740 
G01 X38.7084 Y21.6740 
G01 X38.7773 Y21.8093 
G01 X38.8745 Y21.9430 
G01 X38.9914 Y22.0599 
G01 X39.1251 Y22.1571 
G01 X39.2724 Y22.2321 
G01 X39.4296 Y22.2832 
G01 X39.5929 Y22.3090 
G01 X39.7582 Y22.3090 
G01 X39.9214 Y22.2832 
G01 X40.0787 Y22.2321 
G01 X40.2259 Y22.1571 
G01 X40.3597 Y22.0599 
G01 X40.4766 Y21.9430 
G01 X40.5737 Y21.8093 
G01 X40.6426 Y21.6740 
G01 X41.2484 Y21.6740 
G01 X41.3173 Y21.8093 
G01 X41.4145 Y21.9430 
G01 X41.5314 Y22.0599 
G01 X41.6651 Y22.1571 
G01 X41.8124 Y22.2321 
G01 X41.9696 Y22.2832 
G01 X42.1329 Y22.3090 
G01 X42.2982 Y22.3090 
G01 X42.4614 Y22.2832 
G01 X42.6187 Y22.2321 
G01 X42.7623 Y22.1589 
G01 X44.0041 Y23.4007 
G01 X44.0814 Y23.4780 
G01 X44.1761 Y23.5327 
G01 X44.2817 Y23.5610 
G01 X44.3522 Y23.5610 
G01 X44.3522 Y24.9654 
G01 X44.1954 Y24.9654 
G01 X44.1548 Y24.9822 
G01 X44.1238 Y25.0132 
G01 X44.1069 Y25.0538 
G01 X44.1069 Y26.0977 
G01 X44.1238 Y26.1383 
G01 X44.1548 Y26.1694 
G01 X44.1954 Y26.1862 
G01 X45.3393 Y26.1862 
G01 X45.3799 Y26.1694 
G01 X45.4109 Y26.1383 
G01 X45.4277 Y26.0977 
G01 X45.4277 Y25.0538 
G01 X45.4109 Y25.0132 
G01 X45.3799 Y24.9822 
G01 X45.3393 Y24.9654 
G01 X45.1825 Y24.9654 
G01 X45.1825 Y23.5610 
G01 X45.9092 Y23.5610 
G01 X45.9092 Y24.8426 
G01 X45.9260 Y24.8832 
G01 X45.9571 Y24.9143 
G01 X45.9977 Y24.9311 
G01 X46.4894 Y24.9311 
G01 X46.4894 Y27.8284 
G01 X46.5177 Y27.9340 
G01 X46.5724 Y28.0287 
G01 X47.2678 Y28.7241 
G01 X47.2678 Y28.7771 
G01 X47.2961 Y28.8827 
G01 X47.3507 Y28.9774 
G01 X48.7869 Y30.4136 
G01 X48.7869 Y41.7285 
G01 X47.3436 Y43.1717 
G01 X47.2663 Y43.2490 
G01 X47.2117 Y43.3437 
G01 X47.1834 Y43.4493 
G01 X47.1834 Y43.9289 
G01 X45.9400 Y45.1723 
G01 X45.9164 Y45.1586 
G01 X45.8108 Y45.1303 
G01 X43.9028 Y45.1303 
G01 X43.9028 Y44.9736 
G01 X43.8860 Y44.9330 
G01 X43.8549 Y44.9019 
G01 X43.8144 Y44.8851 
G01 X42.7704 Y44.8851 
G01 X42.7299 Y44.9019 
G01 X42.6988 Y44.9330 
G01 X42.6820 Y44.9736 
G01 X42.6820 Y46.1175 
G01 X42.6988 Y46.1581 
G01 X42.7299 Y46.1891 
G01 X42.7704 Y46.2059 
G01 X43.8144 Y46.2059 
G01 X43.8549 Y46.1891 
G01 X43.8860 Y46.1581 
G01 X43.9028 Y46.1175 
G01 X43.9028 Y45.9607 
G01 X45.1515 Y45.9607 
G01 X41.4346 Y49.6777 
G01 X40.4161 Y49.6777 
G01 X40.3105 Y49.7060 
G01 X40.2158 Y49.7607 
G01 X40.0714 Y49.9051 
G01 X39.9271 Y49.8582 
G01 X39.7638 Y49.8323 
G01 X39.5985 Y49.8323 
G01 X39.4352 Y49.8582 
G01 X39.2780 Y49.9093 
G01 X39.1307 Y49.9843 
G01 X38.9970 Y50.0815 
G01 X38.8801 Y50.1984 
G01 X38.7829 Y50.3321 
G01 X38.7716 Y50.3545 
G01 X38.0462 Y50.3455 
G01 X38.0394 Y50.3321 
G01 X37.9422 Y50.1984 
G01 X37.8253 Y50.0815 
G01 X37.6916 Y49.9843 
G01 X37.5443 Y49.9093 
G01 X37.3871 Y49.8582 
G01 X37.2238 Y49.8323 
G01 X37.0585 Y49.8323 
G01 X36.8952 Y49.8582 
G01 X36.7380 Y49.9093 
G01 X36.5907 Y49.9843 
G01 X36.4570 Y50.0815 
G01 X36.3401 Y50.1984 
G01 X36.2494 Y50.3233 
G01 X35.4861 Y50.3138 
G01 X35.4022 Y50.1984 
G01 X35.2853 Y50.0815 
G01 X35.1516 Y49.9843 
G01 X35.0043 Y49.9093 
G01 X34.8471 Y49.8582 
G01 X34.6838 Y49.8323 
G01 X34.5185 Y49.8323 
G01 X34.3552 Y49.8582 
G01 X34.1980 Y49.9093 
G01 X34.0507 Y49.9843 
G01 X33.9170 Y50.0815 
G01 X33.8001 Y50.1984 
G01 X33.7320 Y50.2922 
G01 X32.9231 Y50.2822 
G01 X32.8622 Y50.1984 
G01 X32.7453 Y50.0815 
G01 X32.6116 Y49.9843 
G01 X32.4643 Y49.9093 
G01 X32.3071 Y49.8582 
G01 X32.1438 Y49.8323 
G01 X31.9785 Y49.8323 
G01 X31.8152 Y49.8582 
G01 X31.6580 Y49.9093 
G01 X31.5107 Y49.9843 
G01 X31.3770 Y50.0815 
G01 X31.2601 Y50.1984 
G01 X31.2146 Y50.2610 
G01 X30.3600 Y50.2505 
G01 X30.3222 Y50.1984 
G01 X30.2053 Y50.0815 
G01 X30.0716 Y49.9843 
G01 X29.9243 Y49.9093 
G01 X29.7671 Y49.8582 
G01 X29.6038 Y49.8323 
G01 X29.4385 Y49.8323 
G01 X29.2752 Y49.8582 
G01 X29.1180 Y49.9093 
G01 X28.9707 Y49.9843 
G01 X28.8370 Y50.0815 
G01 X28.7201 Y50.1984 
G01 X28.6972 Y50.2299 
G01 X27.7970 Y50.2188 
G01 X27.7822 Y50.1984 
G01 X27.6653 Y50.0815 
G01 X27.5316 Y49.9843 
G01 X27.3843 Y49.9093 
G01 X27.2271 Y49.8582 
G01 X27.0638 Y49.8323 
G01 X26.8985 Y49.8323 
G01 X26.7352 Y49.8582 
G01 X26.5780 Y49.9093 
G01 X26.4307 Y49.9843 
G01 X26.2970 Y50.0815 
G01 X26.1801 Y50.1984 
G01 X25.2309 Y50.1871 
G01 X25.1253 Y50.0815 
G01 X24.9916 Y49.9843 
G01 X24.8443 Y49.9093 
G01 X24.6871 Y49.8582 
G01 X24.5238 Y49.8323 
G01 X24.3585 Y49.8323 
G01 X24.1952 Y49.8582 
G01 X24.0380 Y49.9093 
G01 X23.8907 Y49.9843 
G01 X23.7570 Y50.0815 
G01 X23.6707 Y50.1678 
G01 X22.6591 Y50.1553 
G01 X22.5853 Y50.0815 
G01 X22.4516 Y49.9843 
G01 X22.3163 Y49.9154 
G01 X22.3163 Y49.1135 
G01 X22.4516 Y49.0446 
G01 X22.5853 Y48.9475 
G01 X22.7022 Y48.8306 
G01 X22.7994 Y48.6968 
G01 X22.8744 Y48.5495 
G01 X22.9255 Y48.3923 
G01 X22.9513 Y48.2291 
G01 X22.9513 Y48.0637 
G01 X22.9255 Y47.9005 
G01 X22.8744 Y47.7433 
G01 X22.7994 Y47.5960 
G01 X22.7970 Y47.5927 
G01 X22.7970 Y46.5901 
G01 X24.3772 Y45.0099 
G01 X24.3772 Y45.7684 
G01 X24.3940 Y45.8090 
G01 X24.4251 Y45.8400 
G01 X24.4656 Y45.8568 
G01 X25.7096 Y45.8568 
G01 X25.7501 Y45.8400 
G01 X25.7812 Y45.8090 
G01 X25.7980 Y45.7684 
G01 X25.7980 Y42.7245 
G01 X25.7812 Y42.6839 
G01 X25.7501 Y42.6528 
G01 X25.7096 Y42.6360 
G01 X25.5028 Y42.6360 
G01 X25.5028 Y39.7542 
G01 X25.4745 Y39.6486 
G01 X25.4198 Y39.5539 
G01 X24.7223 Y38.8564 
G01 X24.6450 Y38.7791 
G01 X24.5503 Y38.7244 
G01 X24.4447 Y38.6961 
G01 X13.6620 Y38.6961 
G01 X16.8730 Y35.4850 
G01 X19.9637 Y35.4850 
G01 X19.9637 Y35.5918 
G01 X19.9805 Y35.6324 
G01 X20.0116 Y35.6634 
G01 X20.0522 Y35.6802 
G01 X21.1961 Y35.6802 
G01 X21.2367 Y35.6634 
G01 X21.2677 Y35.6324 
G01 X21.2845 Y35.5918 
G01 X21.2845 Y34.5479 
G01 X21.2677 Y34.5073 
G01 X21.2367 Y34.4763 
G01 X21.1961 Y34.4594 
G01 X20.0522 Y34.4594 
G01 X20.0116 Y34.4763 
G01 X19.9805 Y34.5073 
G01 X19.9637 Y34.5479 
G01 X19.9637 Y34.6546 
G01 X16.6464 Y34.6546 
G01 X16.5408 Y34.6829 
G01 X16.4461 Y34.7376 
G01 X12.4047 Y38.7791 
G01 X11.9823 Y39.2015 
G01 X11.9050 Y39.2788 
G01 X11.8503 Y39.3734 
G01 X11.8220 Y39.4790 
G01 X11.8220 Y41.6133 
G01 X11.4735 Y41.6133 
G01 X11.4329 Y41.6301 
G01 X11.4019 Y41.6612 
G01 X11.3851 Y41.7017 
G01 X11.3851 Y41.8593 
G01 X7.1938 Y41.8593 
G01 X7.1938 Y40.2178 
G01 X7.1770 Y40.1772 
G01 X7.1459 Y40.1462 
G01 X7.1054 Y40.1294 
G01 X3.2514 Y40.1294 
G01 X3.2109 Y40.1462 
G01 X3.1798 Y40.1772 
G01 X3.1630 Y40.2178 
G01 X3.1630 Y44.0717 
G01 X3.1798 Y44.1123 
G01 X3.2109 Y44.1434 
G01 X3.2514 Y44.1602 
G01 X7.1054 Y44.1602 
G01 X7.1459 Y44.1434 
G01 X7.1770 Y44.1123 
G01 X7.1938 Y44.0717 
G01 X7.1938 Y42.5881 
G01 X11.3851 Y42.5881 
G01 X11.3851 Y42.7457 
G01 X11.4019 Y42.7862 
G01 X11.4329 Y42.8173 
G01 X11.4735 Y42.8341 
G01 X12.6174 Y42.8341 
G01 X12.6580 Y42.8173 
G01 X12.6891 Y42.7862 
G01 X12.7059 Y42.7457 
G01 X12.7059 Y41.7017 
G01 X12.6891 Y41.6612 
G01 X12.6580 Y41.6301 
G01 X12.6524 Y41.6278 
G01 X12.6524 Y39.7057 
G01 X12.8316 Y39.5265 
G01 X24.2181 Y39.5265 
G01 X24.6724 Y39.9809 
G01 X24.6724 Y42.6360 
G01 X24.4656 Y42.6360 
G01 X24.4251 Y42.6528 
G01 X24.3940 Y42.6839 
G01 X24.3772 Y42.7245 
G01 X24.3772 Y43.7296 
G01 X24.3418 Y43.7296 
G01 X24.2103 Y43.7649 
G01 X24.0925 Y43.8329 
G01 X21.9629 Y45.9625 
G01 X21.8666 Y46.0587 
G01 X21.7986 Y46.1766 
G01 X21.7634 Y46.3080 
G01 X21.7634 Y47.1049 
G01 X21.6552 Y47.1221 
G01 X21.4980 Y47.1731 
G01 X21.3507 Y47.2482 
G01 X21.2170 Y47.3454 
G01 X21.1001 Y47.4622 
G01 X21.0029 Y47.5960 
G01 X20.9279 Y47.7433 
G01 X20.8768 Y47.9005 
G01 X20.8510 Y48.0637 
G01 X20.8510 Y48.2291 
G01 X20.8768 Y48.3923 
G01 X20.9279 Y48.5495 
G01 X21.0029 Y48.6968 
G01 X21.1001 Y48.8306 
G01 X21.2170 Y48.9475 
G01 X21.3507 Y49.0446 
G01 X21.4859 Y49.1135 
G01 X21.4859 Y49.9154 
G01 X21.3507 Y49.9843 
G01 X21.2170 Y50.0815 
G01 X21.1001 Y50.1984 
G01 X21.0029 Y50.3321 
G01 X20.9279 Y50.4794 
G01 X20.8768 Y50.6366 
G01 X20.8510 Y50.7999 
G01 X20.8510 Y50.9652 
G01 X20.8768 Y51.1285 
G01 X20.9279 Y51.2857 
G01 X21.0029 Y51.4330 
G01 X21.1001 Y51.5667 
G01 X21.2170 Y51.6836 
G01 X21.3507 Y51.7808 
G01 X21.4980 Y51.8558 
G01 X21.6552 Y51.9069 
G01 X21.8185 Y51.9327 
G01 X21.9838 Y51.9327 
G01 X22.1471 Y51.9069 
G01 X22.3043 Y51.8558 
G01 X22.4516 Y51.7808 
G01 X22.5853 Y51.6836 
G01 X22.7022 Y51.5667 
G01 X22.7994 Y51.4330 
G01 X22.8683 Y51.2977 
G01 X23.4740 Y51.2977 
G01 X23.5429 Y51.4330 
G01 X23.6401 Y51.5667 
G01 X23.7570 Y51.6836 
G01 X23.8907 Y51.7808 
G01 X24.0380 Y51.8558 
G01 X24.1952 Y51.9069 
G01 X24.3585 Y51.9327 
G01 X24.5238 Y51.9327 
G01 X24.6871 Y51.9069 
G01 X24.8443 Y51.8558 
G01 X24.9916 Y51.7808 
G01 X25.1253 Y51.6836 
G01 X25.2422 Y51.5667 
G01 X25.3394 Y51.4330 
G01 X25.3565 Y51.3993 
G01 X26.0658 Y51.3993 
G01 X26.0829 Y51.4330 
G01 X26.1801 Y51.5667 
G01 X26.2970 Y51.6836 
G01 X26.4307 Y51.7808 
G01 X26.5780 Y51.8558 
G01 X26.7352 Y51.9069 
G01 X26.8985 Y51.9327 
G01 X27.0638 Y51.9327 
G01 X27.2271 Y51.9069 
G01 X27.3843 Y51.8558 
G01 X27.5316 Y51.7808 
G01 X27.6653 Y51.6836 
G01 X27.7822 Y51.5667 
G01 X27.8794 Y51.4330 
G01 X27.8965 Y51.3993 
G01 X28.6058 Y51.3993 
G01 X28.6229 Y51.4330 
G01 X28.7201 Y51.5667 
G01 X28.8370 Y51.6836 
G01 X28.9707 Y51.7808 
G01 X29.1180 Y51.8558 
G01 X29.2752 Y51.9069 
G01 X29.4385 Y51.9327 
G01 X29.6038 Y51.9327 
G01 X29.7671 Y51.9069 
G01 X29.9243 Y51.8558 
G01 X30.0716 Y51.7808 
G01 X30.2053 Y51.6836 
G01 X30.3222 Y51.5667 
G01 X30.4194 Y51.4330 
G01 X30.4365 Y51.3993 
G01 X31.1458 Y51.3993 
G01 X31.1629 Y51.4330 
G01 X31.2601 Y51.5667 
G01 X31.3770 Y51.6836 
G01 X31.5107 Y51.7808 
G01 X31.6580 Y51.8558 
G01 X31.8152 Y51.9069 
G01 X31.9785 Y51.9327 
G01 X32.1438 Y51.9327 
G01 X32.3071 Y51.9069 
G01 X32.4643 Y51.8558 
G01 X32.6116 Y51.7808 
G01 X32.7453 Y51.6836 
G01 X32.8622 Y51.5667 
G01 X32.9594 Y51.4330 
G01 X32.9765 Y51.3993 
G01 X33.6858 Y51.3993 
G01 X33.7029 Y51.4330 
G01 X33.8001 Y51.5667 
G01 X33.9170 Y51.6836 
G01 X34.0507 Y51.7808 
G01 X34.1980 Y51.8558 
G01 X34.3552 Y51.9069 
G01 X34.5185 Y51.9327 
G01 X34.6838 Y51.9327 
G01 X34.8471 Y51.9069 
G01 X35.0043 Y51.8558 
G01 X35.1516 Y51.7808 
G01 X35.2853 Y51.6836 
G01 X35.4022 Y51.5667 
G01 X35.4994 Y51.4330 
G01 X35.5165 Y51.3993 
G01 X36.2258 Y51.3993 
G01 X36.2429 Y51.4330 
G01 X36.3401 Y51.5667 
G01 X36.4570 Y51.6836 
G01 X36.5907 Y51.7808 
G01 X36.7380 Y51.8558 
G01 X36.8952 Y51.9069 
G01 X37.0585 Y51.9327 
G01 X37.2238 Y51.9327 
G01 X37.3871 Y51.9069 
G01 X37.5443 Y51.8558 
G01 X37.6916 Y51.7808 
G01 X37.8253 Y51.6836 
G01 X37.9422 Y51.5667 
G01 X38.0394 Y51.4330 
G01 X38.0565 Y51.3993 
G01 X38.7658 Y51.3993 
G01 X38.7829 Y51.4330 
G01 X38.8801 Y51.5667 
G01 X38.9970 Y51.6836 
G01 X39.1307 Y51.7808 
G01 X39.2780 Y51.8558 
G01 X39.4352 Y51.9069 
G01 X39.5985 Y51.9327 
G01 X39.7638 Y51.9327 
G01 X39.9271 Y51.9069 
G01 X40.0843 Y51.8558 
G01 X40.2316 Y51.7808 
G01 X40.3653 Y51.6836 
G01 X40.4822 Y51.5667 
G01 X40.5794 Y51.4330 
G01 X40.6544 Y51.2857 
G01 X40.7055 Y51.1285 
G01 X40.7313 Y50.9652 
G01 X40.7313 Y50.7999 
G01 X40.7055 Y50.6366 
G01 X40.6637 Y50.5081 
G01 X41.6612 Y50.5081 
G01 X41.7668 Y50.4798 
G01 X41.8615 Y50.4251 
G01 X46.2873 Y45.9994 
G01 X47.9308 Y44.3558 
G01 X47.9855 Y44.2611 
G01 X48.0138 Y44.1555 
G01 X48.0138 Y43.6759 
G01 X49.5343 Y42.1554 
G01 X49.5890 Y42.0607 
G01 X49.6173 Y41.9551 
G01 X49.6173 Y30.1869 
G01 X49.5890 Y30.0813 
G01 X49.5343 Y29.9866 
G01 X49.4570 Y29.9093 
G01 X48.0982 Y28.5505 
G01 X48.0982 Y28.4974 
G01 X48.0699 Y28.3919 
G01 X48.0152 Y28.2972 
G01 X47.9379 Y28.2199 
G01 X47.3198 Y27.6018 
G01 X47.3198 Y24.9311 
G01 X47.8116 Y24.9311 
G01 X47.8522 Y24.9143 
G01 X47.8832 Y24.8832 
G01 X47.9000 Y24.8426 
G01 X47.9000 Y22.9987 
G01 X47.8832 Y22.9582 
G01 X47.8522 Y22.9271 
G01 X47.8116 Y22.9103 
G01 X46.4814 Y22.9103 
G01 X46.3847 Y22.8135 
G01 X46.2900 Y22.7589 
G01 X46.1844 Y22.7306 
G01 X44.5084 Y22.7306 
G01 X43.2877 Y21.5099 
G01 X43.2877 Y21.4017 
G01 X43.2657 Y21.3197 
G01 X43.2657 Y21.1762 
G01 X43.2399 Y21.0129 
G01 X43.1888 Y20.8557 
G01 X43.1137 Y20.7084 
G01 X43.0166 Y20.5747 
G01 X42.8997 Y20.4578 
G01 X42.7659 Y20.3606 
G01 X42.6187 Y20.2856 
G01 X42.4614 Y20.2345 
G01 X42.2982 Y20.2086 
G01 X42.1329 Y20.2086 
G01 X41.9696 Y20.2345 
G00 Z2.5400 
G00 X41.9696 Y23.0040 
G01 Z-0.1778 F254.00 
G01 X41.8124 Y23.0551 F508.00 
G01 X41.6651 Y23.1301 
G01 X41.5314 Y23.2273 
G01 X41.4145 Y23.3442 
G01 X41.3173 Y23.4779 
G01 X41.2423 Y23.6252 
G01 X41.1912 Y23.7824 
G01 X41.1653 Y23.9457 
G01 X41.1653 Y24.1110 
G01 X41.1912 Y24.2743 
G01 X41.2423 Y24.4315 
G01 X41.3173 Y24.5788 
G01 X41.4145 Y24.7125 
G01 X41.5314 Y24.8294 
G01 X41.6651 Y24.9265 
G01 X41.8124 Y25.0016 
G01 X41.9696 Y25.0527 
G01 X42.1329 Y25.0785 
G01 X42.2982 Y25.0785 
G01 X42.4614 Y25.0527 
G01 X42.6187 Y25.0016 
G01 X42.7613 Y24.9289 
G01 X42.7613 Y26.7117 
G01 X41.9909 Y27.4820 
G01 X39.7980 Y27.4820 
G01 X39.7980 Y26.3245 
G01 X39.7812 Y26.2839 
G01 X39.7501 Y26.2528 
G01 X39.7096 Y26.2360 
G01 X38.4656 Y26.2360 
G01 X38.4251 Y26.2528 
G01 X38.3940 Y26.2839 
G01 X38.3772 Y26.3245 
G01 X38.3772 Y29.3684 
G01 X38.3940 Y29.4090 
G01 X38.4251 Y29.4400 
G01 X38.4656 Y29.4568 
G01 X39.7096 Y29.4568 
G01 X39.7501 Y29.4400 
G01 X39.7812 Y29.4090 
G01 X39.7980 Y29.3684 
G01 X39.7980 Y28.2108 
G01 X42.1898 Y28.2108 
G01 X42.2825 Y28.1860 
G01 X42.3656 Y28.1380 
G01 X43.3494 Y27.1542 
G01 X43.4172 Y27.0864 
G01 X43.4652 Y27.0033 
G01 X43.4900 Y26.9106 
G01 X43.4900 Y24.3096 
G01 X43.4900 Y24.2617 
G01 X43.4900 Y24.2153 
G01 X43.4896 Y24.2120 
G01 X43.4772 Y24.1672 
G01 X43.4652 Y24.1227 
G01 X43.4639 Y24.1196 
G01 X43.4403 Y24.0795 
G01 X43.4172 Y24.0396 
G01 X43.4152 Y24.0369 
G01 X43.3821 Y24.0044 
G01 X43.3494 Y23.9717 
G01 X43.3467 Y23.9697 
G01 X43.3064 Y23.9469 
G01 X43.2663 Y23.9237 
G01 X43.2632 Y23.9225 
G01 X43.2399 Y23.7824 
G01 X43.1888 Y23.6252 
G01 X43.1137 Y23.4779 
G01 X43.0166 Y23.3442 
G01 X42.8997 Y23.2273 
G01 X42.7659 Y23.1301 
G01 X42.6187 Y23.0551 
G01 X42.4614 Y23.0040 
G01 X42.2982 Y22.9781 
G01 X42.1329 Y22.9781 
G01 X41.9696 Y23.0040 
G00 Z2.5400 
G00 X40.3597 Y23.2273 
G01 Z-0.1778 F254.00 
G01 X40.2259 Y23.1301 F508.00 
G01 X40.0787 Y23.0551 
G01 X39.9214 Y23.0040 
G01 X39.7582 Y22.9781 
G01 X39.5929 Y22.9781 
G01 X39.4296 Y23.0040 
G01 X39.2724 Y23.0551 
G01 X39.1251 Y23.1301 
G01 X38.9914 Y23.2273 
G01 X38.8745 Y23.3442 
G01 X38.7773 Y23.4779 
G01 X38.7023 Y23.6252 
G01 X38.6512 Y23.7824 
G01 X38.6253 Y23.9457 
G01 X38.6253 Y24.1110 
G01 X38.6512 Y24.2743 
G01 X38.7023 Y24.4315 
G01 X38.7208 Y24.4678 
G01 X36.9525 Y26.2360 
G01 X36.4656 Y26.2360 
G01 X36.4251 Y26.2528 
G01 X36.3940 Y26.2839 
G01 X36.3772 Y26.3245 
G01 X36.3772 Y29.3684 
G01 X36.3940 Y29.4090 
G01 X36.4251 Y29.4400 
G01 X36.4656 Y29.4568 
G01 X37.7096 Y29.4568 
G01 X37.7501 Y29.4400 
G01 X37.7812 Y29.4090 
G01 X37.7980 Y29.3684 
G01 X37.7980 Y26.4212 
G01 X39.2361 Y24.9831 
G01 X39.2724 Y25.0016 
G01 X39.4296 Y25.0527 
G01 X39.5929 Y25.0785 
G01 X39.7582 Y25.0785 
G01 X39.9214 Y25.0527 
G01 X40.0787 Y25.0016 
G01 X40.2259 Y24.9265 
G01 X40.3597 Y24.8294 
G01 X40.4766 Y24.7125 
G01 X40.5737 Y24.5788 
G01 X40.6488 Y24.4315 
G01 X40.6999 Y24.2743 
G01 X40.7257 Y24.1110 
G01 X40.7257 Y23.9457 
G01 X40.6999 Y23.7824 
G01 X40.6488 Y23.6252 
G01 X40.5737 Y23.4779 
G01 X40.4766 Y23.3442 
G01 X40.3597 Y23.2273 
G00 Z2.5400 
G00 X37.8197 Y23.2273 
G01 Z-0.1778 F254.00 
G01 X37.6859 Y23.1301 F508.00 
G01 X37.5387 Y23.0551 
G01 X37.3814 Y23.0040 
G01 X37.2182 Y22.9781 
G01 X37.0529 Y22.9781 
G01 X36.8896 Y23.0040 
G01 X36.7324 Y23.0551 
G01 X36.5851 Y23.1301 
G01 X36.4514 Y23.2273 
G01 X36.3345 Y23.3442 
G01 X36.2373 Y23.4779 
G01 X36.1623 Y23.6252 
G01 X36.1112 Y23.7824 
G01 X36.0853 Y23.9457 
G01 X36.0853 Y24.1110 
G01 X36.1112 Y24.2743 
G01 X36.1623 Y24.4315 
G01 X36.1808 Y24.4678 
G01 X34.7960 Y25.8525 
G01 X34.7480 Y25.9356 
G01 X34.7232 Y26.0283 
G01 X34.7232 Y26.2360 
G01 X34.4656 Y26.2360 
G01 X34.4251 Y26.2528 
G01 X34.3940 Y26.2839 
G01 X34.3772 Y26.3245 
G01 X34.3772 Y29.3684 
G01 X34.3940 Y29.4090 
G01 X34.4251 Y29.4400 
G01 X34.4656 Y29.4568 
G01 X35.7096 Y29.4568 
G01 X35.7501 Y29.4400 
G01 X35.7812 Y29.4090 
G01 X35.7980 Y29.3684 
G01 X35.7980 Y26.3245 
G01 X35.7812 Y26.2839 
G01 X35.7501 Y26.2528 
G01 X35.7096 Y26.2360 
G01 X35.4520 Y26.2360 
G01 X35.4520 Y26.2272 
G01 X36.6961 Y24.9831 
G01 X36.7324 Y25.0016 
G01 X36.8896 Y25.0527 
G01 X37.0529 Y25.0785 
G01 X37.2182 Y25.0785 
G01 X37.3814 Y25.0527 
G01 X37.5387 Y25.0016 
G01 X37.6859 Y24.9265 
G01 X37.8197 Y24.8294 
G01 X37.9366 Y24.7125 
G01 X38.0337 Y24.5788 
G01 X38.1088 Y24.4315 
G01 X38.1599 Y24.2743 
G01 X38.1857 Y24.1110 
G01 X38.1857 Y23.9457 
G01 X38.1599 Y23.7824 
G01 X38.1088 Y23.6252 
G01 X38.0337 Y23.4779 
G01 X37.9366 Y23.3442 
G01 X37.8197 Y23.2273 
G00 Z2.5400 
G00 X35.2797 Y23.2273 
G01 Z-0.1778 F254.00 
G01 X35.1459 Y23.1301 F508.00 
G01 X34.9987 Y23.0551 
G01 X34.8414 Y23.0040 
G01 X34.6782 Y22.9781 
G01 X34.5129 Y22.9781 
G01 X34.3496 Y23.0040 
G01 X34.1924 Y23.0551 
G01 X34.0451 Y23.1301 
G01 X33.9114 Y23.2273 
G01 X33.7945 Y23.3442 
G01 X33.6973 Y23.4779 
G01 X33.6223 Y23.6252 
G01 X33.5712 Y23.7824 
G01 X33.5453 Y23.9457 
G01 X33.5453 Y24.1110 
G01 X33.5712 Y24.2743 
G01 X33.6223 Y24.4315 
G01 X33.6408 Y24.4678 
G01 X32.7960 Y25.3125 
G01 X32.7480 Y25.3956 
G01 X32.7232 Y25.4883 
G01 X32.7232 Y26.2360 
G01 X32.4656 Y26.2360 
G01 X32.4251 Y26.2528 
G01 X32.3940 Y26.2839 
G01 X32.3772 Y26.3245 
G01 X32.3772 Y29.3684 
G01 X32.3940 Y29.4090 
G01 X32.4251 Y29.4400 
G01 X32.4656 Y29.4568 
G01 X33.7096 Y29.4568 
G01 X33.7501 Y29.4400 
G01 X33.7812 Y29.4090 
G01 X33.7980 Y29.3684 
G01 X33.7980 Y26.3245 
G01 X33.7812 Y26.2839 
G01 X33.7501 Y26.2528 
G01 X33.7096 Y26.2360 
G01 X33.4520 Y26.2360 
G01 X33.4520 Y25.6872 
G01 X34.1561 Y24.9831 
G01 X34.1924 Y25.0016 
G01 X34.3496 Y25.0527 
G01 X34.5129 Y25.0785 
G01 X34.6782 Y25.0785 
G01 X34.8414 Y25.0527 
G01 X34.9987 Y25.0016 
G01 X35.1459 Y24.9265 
G01 X35.2797 Y24.8294 
G01 X35.3966 Y24.7125 
G01 X35.4937 Y24.5788 
G01 X35.5688 Y24.4315 
G01 X35.6199 Y24.2743 
G01 X35.6457 Y24.1110 
G01 X35.6457 Y23.9457 
G01 X35.6199 Y23.7824 
G01 X35.5688 Y23.6252 
G01 X35.4937 Y23.4779 
G01 X35.3966 Y23.3442 
G01 X35.2797 Y23.2273 
G00 Z2.5400 
G00 X32.7397 Y23.2273 
G01 Z-0.1778 F254.00 
G01 X32.6059 Y23.1301 F508.00 
G01 X32.4587 Y23.0551 
G01 X32.3014 Y23.0040 
G01 X32.1382 Y22.9781 
G01 X31.9729 Y22.9781 
G01 X31.8096 Y23.0040 
G01 X31.6524 Y23.0551 
G01 X31.5051 Y23.1301 
G01 X31.3714 Y23.2273 
G01 X31.2545 Y23.3442 
G01 X31.1573 Y23.4779 
G01 X31.0823 Y23.6252 
G01 X31.0312 Y23.7824 
G01 X31.0053 Y23.9457 
G01 X31.0053 Y24.1110 
G01 X31.0312 Y24.2743 
G01 X31.0823 Y24.4315 
G01 X31.1008 Y24.4678 
G01 X30.7960 Y24.7725 
G01 X30.7480 Y24.8556 
G01 X30.7232 Y24.9483 
G01 X30.7232 Y26.2360 
G01 X30.4656 Y26.2360 
G01 X30.4251 Y26.2528 
G01 X30.3940 Y26.2839 
G01 X30.3772 Y26.3245 
G01 X30.3772 Y29.3684 
G01 X30.3940 Y29.4090 
G01 X30.4251 Y29.4400 
G01 X30.4656 Y29.4568 
G01 X30.8108 Y29.4568 
G01 X30.8108 Y30.9143 
G01 X30.1342 Y31.5909 
G01 X30.0796 Y31.6856 
G01 X30.0513 Y31.7912 
G01 X30.0513 Y35.3914 
G01 X29.0881 Y36.3546 
G01 X21.2845 Y36.3546 
G01 X21.2845 Y36.2479 
G01 X21.2677 Y36.2073 
G01 X21.2367 Y36.1763 
G01 X21.1961 Y36.1594 
G01 X20.0522 Y36.1594 
G01 X20.0116 Y36.1763 
G01 X19.9805 Y36.2073 
G01 X19.9637 Y36.2479 
G01 X19.9637 Y37.2918 
G01 X19.9805 Y37.3324 
G01 X20.0116 Y37.3634 
G01 X20.0522 Y37.3802 
G01 X21.1961 Y37.3802 
G01 X21.2367 Y37.3634 
G01 X21.2677 Y37.3324 
G01 X21.2845 Y37.2918 
G01 X21.2845 Y37.1850 
G01 X29.3147 Y37.1850 
G01 X29.4203 Y37.1568 
G01 X29.5150 Y37.1021 
G01 X30.7214 Y35.8957 
G01 X30.7987 Y35.8184 
G01 X30.8534 Y35.7237 
G01 X30.8817 Y35.6181 
G01 X30.8817 Y32.0179 
G01 X31.4809 Y31.4186 
G01 X31.5583 Y31.3413 
G01 X31.6129 Y31.2466 
G01 X31.6412 Y31.1410 
G01 X31.6412 Y29.4568 
G01 X31.7096 Y29.4568 
G01 X31.7501 Y29.4400 
G01 X31.7812 Y29.4090 
G01 X31.7980 Y29.3684 
G01 X31.7980 Y26.3245 
G01 X31.7812 Y26.2839 
G01 X31.7501 Y26.2528 
G01 X31.7096 Y26.2360 
G01 X31.4520 Y26.2360 
G01 X31.4520 Y25.1472 
G01 X31.6161 Y24.9831 
G01 X31.6524 Y25.0016 
G01 X31.8096 Y25.0527 
G01 X31.9729 Y25.0785 
G01 X32.1382 Y25.0785 
G01 X32.3014 Y25.0527 
G01 X32.4587 Y25.0016 
G01 X32.6059 Y24.9265 
G01 X32.7397 Y24.8294 
G01 X32.8566 Y24.7125 
G01 X32.9537 Y24.5788 
G01 X33.0288 Y24.4315 
G01 X33.0799 Y24.2743 
G01 X33.1057 Y24.1110 
G01 X33.1057 Y23.9457 
G01 X33.0799 Y23.7824 
G01 X33.0288 Y23.6252 
G01 X32.9537 Y23.4779 
G01 X32.8566 Y23.3442 
G01 X32.7397 Y23.2273 
G00 Z2.5400 
G00 X30.1997 Y23.2273 
G01 Z-0.1778 F254.00 
G01 X30.0659 Y23.1301 F508.00 
G01 X29.9187 Y23.0551 
G01 X29.7614 Y23.0040 
G01 X29.5982 Y22.9781 
G01 X29.4329 Y22.9781 
G01 X29.2696 Y23.0040 
G01 X29.1124 Y23.0551 
G01 X28.9651 Y23.1301 
G01 X28.8314 Y23.2273 
G01 X28.7145 Y23.3442 
G01 X28.6173 Y23.4779 
G01 X28.5423 Y23.6252 
G01 X28.4912 Y23.7824 
G01 X28.4653 Y23.9457 
G01 X28.4653 Y24.1110 
G01 X28.4912 Y24.2743 
G01 X28.5423 Y24.4315 
G01 X28.6173 Y24.5788 
G01 X28.7145 Y24.7125 
G01 X28.7232 Y24.7212 
G01 X28.7232 Y26.2360 
G01 X28.4656 Y26.2360 
G01 X28.4251 Y26.2528 
G01 X28.3940 Y26.2839 
G01 X28.3772 Y26.3245 
G01 X28.3772 Y29.3684 
G01 X28.3940 Y29.4090 
G01 X28.4251 Y29.4400 
G01 X28.4656 Y29.4568 
G01 X29.7096 Y29.4568 
G01 X29.7501 Y29.4400 
G01 X29.7812 Y29.4090 
G01 X29.7980 Y29.3684 
G01 X29.7980 Y26.3245 
G01 X29.7812 Y26.2839 
G01 X29.7501 Y26.2528 
G01 X29.7096 Y26.2360 
G01 X29.4520 Y26.2360 
G01 X29.4520 Y25.0785 
G01 X29.5982 Y25.0785 
G01 X29.7614 Y25.0527 
G01 X29.9187 Y25.0016 
G01 X30.0659 Y24.9265 
G01 X30.1997 Y24.8294 
G01 X30.3166 Y24.7125 
G01 X30.4137 Y24.5788 
G01 X30.4888 Y24.4315 
G01 X30.5399 Y24.2743 
G01 X30.5657 Y24.1110 
G01 X30.5657 Y23.9457 
G01 X30.5399 Y23.7824 
G01 X30.4888 Y23.6252 
G01 X30.4137 Y23.4779 
G01 X30.3166 Y23.3442 
G01 X30.1997 Y23.2273 
G00 Z2.5400 
G00 X27.6597 Y23.2273 
G01 Z-0.1778 F254.00 
G01 X27.5259 Y23.1301 F508.00 
G01 X27.3787 Y23.0551 
G01 X27.2214 Y23.0040 
G01 X27.0582 Y22.9781 
G01 X26.8929 Y22.9781 
G01 X26.7296 Y23.0040 
G01 X26.5724 Y23.0551 
G01 X26.4251 Y23.1301 
G01 X26.2914 Y23.2273 
G01 X26.1745 Y23.3442 
G01 X26.0773 Y23.4779 
G01 X26.0023 Y23.6252 
G01 X25.9512 Y23.7824 
G01 X25.9253 Y23.9457 
G01 X25.9253 Y24.1110 
G01 X25.9512 Y24.2743 
G01 X26.0023 Y24.4315 
G01 X26.0773 Y24.5788 
G01 X26.1745 Y24.7125 
G01 X26.2914 Y24.8294 
G01 X26.4251 Y24.9265 
G01 X26.5724 Y25.0016 
G01 X26.7232 Y25.0506 
G01 X26.7232 Y26.2360 
G01 X26.4656 Y26.2360 
G01 X26.4251 Y26.2528 
G01 X26.3940 Y26.2839 
G01 X26.3772 Y26.3245 
G01 X26.3772 Y29.2591 
G01 X24.9558 Y30.6805 
G01 X21.6776 Y30.6805 
G01 X21.6776 Y30.5738 
G01 X21.6608 Y30.5332 
G01 X21.6297 Y30.5021 
G01 X21.5892 Y30.4853 
G01 X20.4452 Y30.4853 
G01 X20.4047 Y30.5021 
G01 X20.3736 Y30.5332 
G01 X20.3568 Y30.5738 
G01 X20.3568 Y31.6177 
G01 X20.3736 Y31.6583 
G01 X20.4047 Y31.6893 
G01 X20.4452 Y31.7061 
G01 X21.5892 Y31.7061 
G01 X21.6297 Y31.6893 
G01 X21.6608 Y31.6583 
G01 X21.6776 Y31.6177 
G01 X21.6776 Y31.5109 
G01 X25.1825 Y31.5109 
G01 X25.2881 Y31.4826 
G01 X25.3827 Y31.4280 
G01 X27.3539 Y29.4568 
G01 X27.7096 Y29.4568 
G01 X27.7501 Y29.4400 
G01 X27.7812 Y29.4090 
G01 X27.7980 Y29.3684 
G01 X27.7980 Y26.3245 
G01 X27.7812 Y26.2839 
G01 X27.7501 Y26.2528 
G01 X27.7096 Y26.2360 
G01 X27.4520 Y26.2360 
G01 X27.4520 Y24.9642 
G01 X27.5259 Y24.9265 
G01 X27.6597 Y24.8294 
G01 X27.7766 Y24.7125 
G01 X27.8737 Y24.5788 
G01 X27.9488 Y24.4315 
G01 X27.9999 Y24.2743 
G01 X28.0257 Y24.1110 
G01 X28.0257 Y23.9457 
G01 X27.9999 Y23.7824 
G01 X27.9488 Y23.6252 
G01 X27.8737 Y23.4779 
G01 X27.7766 Y23.3442 
G01 X27.6597 Y23.2273 
G00 Z2.5400 
G00 X11.8054 Y22.8255 
G01 Z-0.1778 F254.00 
G01 X11.8123 Y22.8117 F508.00 
G01 X11.8224 Y22.8000 
G01 X11.8310 Y22.7743 
G01 X11.8431 Y22.7501 
G01 X11.8442 Y22.7347 
G01 X11.8491 Y22.7200 
G01 X11.8472 Y22.6930 
G01 X11.8491 Y22.6660 
G01 X11.8442 Y22.6513 
G01 X11.8431 Y22.6359 
G01 X11.8310 Y22.6117 
G01 X11.8224 Y22.5859 
G01 X11.8123 Y22.5743 
G01 X11.8054 Y22.5605 
G01 X11.7849 Y22.5427 
G01 X11.7672 Y22.5222 
G01 X11.7534 Y22.5153 
G01 X11.7417 Y22.5052 
G01 X11.7160 Y22.4966 
G01 X11.6917 Y22.4845 
G01 X11.6763 Y22.4834 
G01 X10.1038 Y21.9593 
G01 X10.0197 Y21.9652 
G01 X9.9443 Y22.0029 
G01 X9.8890 Y22.0667 
G01 X9.8623 Y22.1467 
G01 X9.8683 Y22.2308 
G01 X9.9060 Y22.3062 
G01 X9.9697 Y22.3615 
G01 X10.9643 Y22.6930 
G01 X9.9697 Y23.0245 
G01 X9.9060 Y23.0798 
G01 X9.8683 Y23.1552 
G01 X9.8623 Y23.2393 
G01 X9.8890 Y23.3193 
G01 X9.9443 Y23.3830 
G01 X10.0197 Y23.4208 
G01 X10.1038 Y23.4267 
G01 X11.6763 Y22.9026 
G01 X11.6917 Y22.9015 
G01 X11.7160 Y22.8894 
G01 X11.7417 Y22.8808 
G01 X11.7534 Y22.8707 
G01 X11.7672 Y22.8637 
G01 X11.7849 Y22.8433 
G01 X11.8054 Y22.8255 
G00 Z2.5400 
G00 X11.7547 Y21.6521 
G01 Z-0.1778 F254.00 
G01 X11.8144 Y21.5925 F508.00 
G01 X11.8467 Y21.5146 
G01 X11.8467 Y20.7555 
G01 X11.8165 Y20.6234 
G01 X11.7577 Y20.5013 
G01 X11.6732 Y20.3953 
G01 X11.5672 Y20.3108 
G01 X11.4451 Y20.2520 
G01 X11.3130 Y20.2218 
G01 X11.2030 Y20.2218 
G01 X10.5137 Y20.2218 
G01 X10.3530 Y20.2585 
G01 X10.2046 Y20.3300 
G01 X10.0757 Y20.4327 
G01 X9.9730 Y20.5616 
G01 X9.9015 Y20.7100 
G01 X9.8648 Y20.8707 
G01 X9.8648 Y21.0355 
G01 X9.9015 Y21.1961 
G01 X9.9730 Y21.3446 
G01 X10.0757 Y21.4735 
G01 X10.2046 Y21.5762 
G01 X10.3530 Y21.6477 
G01 X10.5137 Y21.6844 
G01 X10.6382 Y21.6844 
G01 X10.8979 Y21.6844 
G01 X10.9758 Y21.6521 
G01 X11.0354 Y21.5925 
G01 X11.0677 Y21.5146 
G01 X11.0677 Y20.6458 
G01 X11.2453 Y20.6458 
G01 X11.2651 Y20.6469 
G01 X11.3038 Y20.6558 
G01 X11.3396 Y20.6730 
G01 X11.3707 Y20.6978 
G01 X11.3955 Y20.7289 
G01 X11.4127 Y20.7647 
G01 X11.4215 Y20.8034 
G01 X11.4227 Y20.8233 
G01 X11.4227 Y21.5146 
G01 X11.4549 Y21.5925 
G01 X11.5146 Y21.6521 
G01 X11.5925 Y21.6844 
G01 X11.6768 Y21.6844 
G01 X11.7547 Y21.6521 
G00 Z2.5400 
G00 X10.6437 Y21.2604 
G01 Z-0.1778 F254.00 
G01 X10.5961 Y21.2604 F508.00 
G01 X10.5617 Y21.2585 
G01 X10.4946 Y21.2431 
G01 X10.4326 Y21.2133 
G01 X10.3788 Y21.1704 
G01 X10.3359 Y21.1166 
G01 X10.3060 Y21.0546 
G01 X10.2907 Y20.9875 
G01 X10.2907 Y20.9187 
G01 X10.3060 Y20.8516 
G01 X10.3359 Y20.7896 
G01 X10.3788 Y20.7358 
G01 X10.4326 Y20.6929 
G01 X10.4946 Y20.6630 
G01 X10.5617 Y20.6477 
G01 X10.5961 Y20.6458 
G01 X10.6437 Y20.6458 
G01 X10.6437 Y21.2604 
G00 Z2.5400 
G00 X11.0704 Y19.7959 
G01 Z-0.1778 F254.00 
G01 X11.2367 Y19.7628 F508.00 
G01 X11.3934 Y19.6979 
G01 X11.5345 Y19.6037 
G01 X11.6544 Y19.4837 
G01 X11.7486 Y19.3427 
G01 X11.8136 Y19.1860 
G01 X11.8467 Y19.0196 
G01 X11.8467 Y18.9770 
G01 X11.8467 Y18.2435 
G01 X11.8144 Y18.1656 
G01 X11.7547 Y18.1060 
G01 X11.6768 Y18.0737 
G01 X9.2557 Y18.0737 
G01 X9.1778 Y18.1060 
G01 X9.1181 Y18.1656 
G01 X9.0859 Y18.2435 
G01 X9.0859 Y19.0196 
G01 X9.1189 Y19.1860 
G01 X9.1839 Y19.3427 
G01 X9.2781 Y19.4837 
G01 X9.3980 Y19.6037 
G01 X9.5391 Y19.6979 
G01 X9.6958 Y19.7628 
G01 X9.8622 Y19.7959 
G01 X11.0704 Y19.7959 
G00 Z2.5400 
G00 X11.0284 Y19.3698 
G01 Z-0.1778 F254.00 
G01 X10.9855 Y19.3719 F508.00 
G01 X9.9470 Y19.3719 
G01 X9.9041 Y19.3698 
G01 X9.8201 Y19.3531 
G01 X9.7409 Y19.3203 
G01 X9.6697 Y19.2727 
G01 X9.6091 Y19.2121 
G01 X9.5615 Y19.1409 
G01 X9.5287 Y19.0617 
G01 X9.5120 Y18.9777 
G01 X9.5099 Y18.9348 
G01 X9.5099 Y18.4977 
G01 X11.4227 Y18.4977 
G01 X11.4227 Y18.9348 
G01 X11.4206 Y18.9777 
G01 X11.4038 Y19.0617 
G01 X11.3710 Y19.1409 
G01 X11.3234 Y19.2121 
G01 X11.2628 Y19.2727 
G01 X11.1916 Y19.3203 
G01 X11.1124 Y19.3531 
G01 X11.0284 Y19.3698 
G00 Z2.5400 
G00 X7.0716 Y19.3647 
G01 Z-0.1778 F254.00 
G01 X7.0119 Y19.3051 F508.00 
G01 X6.9340 Y19.2728 
G01 X5.8056 Y19.2728 
G01 X5.8056 Y18.3986 
G01 X6.9340 Y18.3986 
G01 X7.0119 Y18.3663 
G01 X7.0716 Y18.3067 
G01 X7.1038 Y18.2288 
G01 X7.1038 Y18.1444 
G01 X7.0716 Y18.0665 
G01 X7.0119 Y18.0069 
G01 X6.9340 Y17.9746 
G01 X4.5129 Y17.9746 
G01 X4.4350 Y18.0069 
G01 X4.3753 Y18.0665 
G01 X4.3430 Y18.1444 
G01 X4.3430 Y18.2288 
G01 X4.3753 Y18.3067 
G01 X4.4350 Y18.3663 
G01 X4.5129 Y18.3986 
G01 X5.3816 Y18.3986 
G01 X5.3816 Y19.2728 
G01 X4.5129 Y19.2728 
G01 X4.4350 Y19.3051 
G01 X4.3753 Y19.3647 
G01 X4.3430 Y19.4427 
G01 X4.3430 Y19.5270 
G01 X4.3753 Y19.6049 
G01 X4.4350 Y19.6646 
G01 X4.5129 Y19.6968 
G01 X6.9340 Y19.6968 
G01 X7.0119 Y19.6646 
G01 X7.0716 Y19.6049 
G01 X7.1038 Y19.5270 
G01 X7.1038 Y19.4427 
G01 X7.0716 Y19.3647 
G00 Z2.5400 
G00 X6.8862 Y17.3420 
G01 Z-0.1778 F254.00 
G01 X6.8862 Y17.3420 F508.00 
G01 X6.9926 Y17.1955 
G01 X7.0662 Y17.0302 
G01 X7.1038 Y16.8531 
G01 X7.1038 Y16.8048 
G01 X7.1038 Y16.1557 
G01 X7.1038 Y16.0713 
G01 X7.0716 Y15.9934 
G01 X7.0119 Y15.9338 
G01 X6.9340 Y15.9015 
G01 X4.5129 Y15.9015 
G01 X4.4350 Y15.9338 
G01 X4.3753 Y15.9934 
G01 X4.3430 Y16.0713 
G01 X4.3430 Y16.8450 
G01 X4.3797 Y17.0057 
G01 X4.4512 Y17.1541 
G01 X4.5540 Y17.2830 
G01 X4.6828 Y17.3857 
G01 X4.8313 Y17.4572 
G01 X4.9919 Y17.4939 
G01 X5.1567 Y17.4939 
G01 X5.3174 Y17.4572 
G01 X5.4659 Y17.3857 
G01 X5.5705 Y17.3023 
G01 X5.5993 Y17.3420 
G01 X5.7338 Y17.4631 
G01 X5.8906 Y17.5536 
G01 X6.0627 Y17.6095 
G01 X6.2427 Y17.6285 
G01 X6.4227 Y17.6095 
G01 X6.5949 Y17.5536 
G01 X6.7517 Y17.4631 
G01 X6.8862 Y17.3420 
G00 Z2.5400 
G00 X6.5676 Y17.0551 
G01 Z-0.1778 F254.00 
G01 X6.4997 Y17.1162 F508.00 
G01 X6.4205 Y17.1619 
G01 X6.3336 Y17.1902 
G01 X6.2427 Y17.1997 
G01 X6.1518 Y17.1902 
G01 X6.0649 Y17.1619 
G01 X5.9858 Y17.1162 
G01 X5.9179 Y17.0551 
G01 X5.8642 Y16.9812 
G01 X5.8270 Y16.8977 
G01 X5.8080 Y16.8083 
G01 X5.8056 Y16.7626 
G01 X5.8056 Y16.7204 
G01 X5.8056 Y16.3255 
G01 X6.6798 Y16.3255 
G01 X6.6798 Y16.7204 
G01 X6.6798 Y16.7626 
G01 X6.6774 Y16.8083 
G01 X6.6584 Y16.8977 
G01 X6.6213 Y16.9812 
G01 X6.5676 Y17.0551 
G00 Z2.5400 
G00 X5.2916 Y16.9799 
G01 Z-0.1778 F254.00 
G01 X5.2378 Y17.0228 F508.00 
G01 X5.1758 Y17.0526 
G01 X5.1087 Y17.0680 
G01 X5.0399 Y17.0680 
G01 X4.9728 Y17.0526 
G01 X4.9108 Y17.0228 
G01 X4.8570 Y16.9799 
G01 X4.8141 Y16.9261 
G01 X4.7843 Y16.8641 
G01 X4.7690 Y16.7970 
G01 X4.7670 Y16.7626 
G01 X4.7670 Y16.3255 
G01 X5.3816 Y16.3255 
G01 X5.3816 Y16.7204 
G01 X5.3816 Y16.7626 
G01 X5.3797 Y16.7970 
G01 X5.3644 Y16.8641 
G01 X5.3345 Y16.9261 
G01 X5.2916 Y16.9799 
G00 Z2.5400 
G00 X5.1136 Y21.2456 
G01 Z-0.1778 F254.00 
G01 X4.9366 Y21.2833 F508.00 
G01 X4.7712 Y21.3569 
G01 X4.6248 Y21.4633 
G01 X4.5037 Y21.5978 
G01 X4.4132 Y21.7546 
G01 X4.3572 Y21.9267 
G01 X4.3383 Y22.1067 
G01 X4.3572 Y22.2867 
G01 X4.4132 Y22.4589 
G01 X4.5037 Y22.6157 
G01 X4.6248 Y22.7502 
G01 X4.7712 Y22.8566 
G01 X4.9366 Y22.9302 
G01 X5.1136 Y22.9678 
G01 X5.1620 Y22.9678 
G01 X6.2849 Y22.9678 
G01 X6.3332 Y22.9678 
G01 X6.5103 Y22.9302 
G01 X6.6757 Y22.8566 
G01 X6.8221 Y22.7502 
G01 X6.9432 Y22.6157 
G01 X7.0337 Y22.4589 
G01 X7.0897 Y22.2868 
G01 X7.1086 Y22.1067 
G01 X7.0897 Y21.9267 
G01 X7.0337 Y21.7546 
G01 X6.9432 Y21.5978 
G01 X6.8221 Y21.4633 
G01 X6.6757 Y21.3569 
G01 X6.5103 Y21.2832 
G01 X6.3332 Y21.2456 
G01 X6.2006 Y21.2456 
G01 X5.1136 Y21.2456 
G00 Z2.5400 
G00 X5.1585 Y21.6720 
G01 Z-0.1778 F254.00 
G01 X5.2042 Y21.6696 F508.00 
G01 X6.2428 Y21.6696 
G01 X6.2884 Y21.6720 
G01 X6.3778 Y21.6910 
G01 X6.4613 Y21.7282 
G01 X6.5352 Y21.7819 
G01 X6.5964 Y21.8498 
G01 X6.6421 Y21.9289 
G01 X6.6703 Y22.0158 
G01 X6.6798 Y22.1067 
G01 X6.6703 Y22.1976 
G01 X6.6421 Y22.2845 
G01 X6.5964 Y22.3637 
G01 X6.5352 Y22.4316 
G01 X6.4613 Y22.4853 
G01 X6.3778 Y22.5224 
G01 X6.2884 Y22.5414 
G01 X6.2427 Y22.5438 
G01 X5.2463 Y22.5438 
G01 X5.2042 Y22.5438 
G01 X5.1585 Y22.5414 
G01 X5.0691 Y22.5224 
G01 X4.9856 Y22.4853 
G01 X4.9117 Y22.4316 
G01 X4.8505 Y22.3637 
G01 X4.8048 Y22.2845 
G01 X4.7766 Y22.1976 
G01 X4.7670 Y22.1067 
G01 X4.7766 Y22.0158 
G01 X4.8048 Y21.9289 
G01 X4.8505 Y21.8498 
G01 X4.9117 Y21.7819 
G01 X4.9856 Y21.7282 
G01 X5.0691 Y21.6910 
G01 X5.1585 Y21.6720 
G00 Z2.5400 
G00 X5.2139 Y23.4260 
G01 Z-0.1778 F254.00 
G01 X5.1543 Y23.4856 F508.00 
G01 X5.1220 Y23.5635 
G01 X5.1220 Y24.3226 
G01 X5.1521 Y24.4547 
G01 X5.2109 Y24.5769 
G01 X5.2955 Y24.6828 
G01 X5.4014 Y24.7673 
G01 X5.5235 Y24.8261 
G01 X5.6557 Y24.8563 
G01 X5.6813 Y24.8563 
G01 X6.9340 Y24.8563 
G01 X7.0119 Y24.8240 
G01 X7.0716 Y24.7644 
G01 X7.1038 Y24.6865 
G01 X7.1038 Y24.6021 
G01 X7.0716 Y24.5242 
G01 X7.0119 Y24.4646 
G01 X6.9340 Y24.4323 
G01 X5.7656 Y24.4323 
G01 X5.7234 Y24.4323 
G01 X5.7036 Y24.4312 
G01 X5.6648 Y24.4223 
G01 X5.6290 Y24.4051 
G01 X5.5980 Y24.3803 
G01 X5.5732 Y24.3492 
G01 X5.5559 Y24.3134 
G01 X5.5471 Y24.2747 
G01 X5.5460 Y24.2548 
G01 X5.5460 Y23.8177 
G01 X6.9340 Y23.8177 
G01 X7.0119 Y23.7854 
G01 X7.0716 Y23.7258 
G01 X7.1038 Y23.6479 
G01 X7.1038 Y23.5635 
G01 X7.0716 Y23.4856 
G01 X7.0119 Y23.4260 
G01 X6.9340 Y23.3937 
G01 X5.2918 Y23.3937 
G01 X5.2139 Y23.4260 
G00 Z2.5400 
G00 X5.1620 Y25.2822 
G01 Z-0.1778 F254.00 
G01 X5.1136 Y25.2822 F508.00 
G01 X4.9366 Y25.3198 
G01 X4.7712 Y25.3934 
G01 X4.6248 Y25.4998 
G01 X4.5037 Y25.6344 
G01 X4.4132 Y25.7911 
G01 X4.3572 Y25.9633 
G01 X4.3383 Y26.1433 
G01 X4.3572 Y26.3233 
G01 X4.4132 Y26.4955 
G01 X4.5037 Y26.6522 
G01 X4.6248 Y26.7867 
G01 X4.7712 Y26.8931 
G01 X4.9366 Y26.9668 
G01 X5.1136 Y27.0044 
G01 X5.1620 Y27.0044 
G01 X6.3332 Y27.0044 
G01 X6.5103 Y26.9668 
G01 X6.6757 Y26.8931 
G01 X6.8221 Y26.7867 
G01 X6.9432 Y26.6522 
G01 X7.0337 Y26.4955 
G01 X7.0897 Y26.3233 
G01 X7.1086 Y26.1433 
G01 X7.0897 Y25.9633 
G01 X7.0337 Y25.7911 
G01 X6.9432 Y25.6344 
G01 X6.8221 Y25.4998 
G01 X6.6757 Y25.3934 
G01 X6.5103 Y25.3198 
G01 X6.3332 Y25.2822 
G01 X6.2006 Y25.2822 
G01 X5.1620 Y25.2822 
G00 Z2.5400 
G00 X5.1585 Y25.7086 
G01 Z-0.1778 F254.00 
G01 X5.2041 Y25.7062 F508.00 
G01 X6.2428 Y25.7062 
G01 X6.2884 Y25.7086 
G01 X6.3778 Y25.7276 
G01 X6.4613 Y25.7647 
G01 X6.5352 Y25.8184 
G01 X6.5964 Y25.8864 
G01 X6.6421 Y25.9655 
G01 X6.6703 Y26.0524 
G01 X6.6798 Y26.1433 
G01 X6.6703 Y26.2342 
G01 X6.6421 Y26.3211 
G01 X6.5964 Y26.4002 
G01 X6.5352 Y26.4681 
G01 X6.4613 Y26.5218 
G01 X6.3778 Y26.5590 
G01 X6.2884 Y26.5780 
G01 X6.2427 Y26.5804 
G01 X5.2463 Y26.5804 
G01 X5.2042 Y26.5804 
G01 X5.1585 Y26.5780 
G01 X5.0691 Y26.5590 
G01 X4.9856 Y26.5218 
G01 X4.9117 Y26.4681 
G01 X4.8505 Y26.4002 
G01 X4.8048 Y26.3211 
G01 X4.7766 Y26.2342 
G01 X4.7670 Y26.1433 
G01 X4.7766 Y26.0524 
G01 X4.8048 Y25.9655 
G01 X4.8505 Y25.8864 
G01 X4.9117 Y25.8184 
G01 X4.9856 Y25.7647 
G01 X5.0691 Y25.7276 
G01 X5.1585 Y25.7086 
G00 Z2.5400 
G00 X5.2139 Y27.2652 
G01 Z-0.1778 F254.00 
G01 X5.1543 Y27.3249 F508.00 
G01 X5.1220 Y27.4028 
G01 X5.1220 Y27.4926 
G01 X4.8767 Y27.4926 
G01 X4.7446 Y27.5227 
G01 X4.6225 Y27.5816 
G01 X4.5165 Y27.6661 
G01 X4.4320 Y27.7720 
G01 X4.3732 Y27.8941 
G01 X4.3430 Y28.0263 
G01 X4.3430 Y28.0519 
G01 X4.3430 Y28.2660 
G01 X4.3753 Y28.3440 
G01 X4.4350 Y28.4036 
G01 X4.5129 Y28.4359 
G01 X4.5972 Y28.4359 
G01 X4.6751 Y28.4036 
G01 X4.7348 Y28.3440 
G01 X4.7670 Y28.2660 
G01 X4.7670 Y28.0940 
G01 X4.7682 Y28.0742 
G01 X4.7770 Y28.0354 
G01 X4.7942 Y27.9996 
G01 X4.8190 Y27.9686 
G01 X4.8501 Y27.9438 
G01 X4.8859 Y27.9265 
G01 X4.9246 Y27.9177 
G01 X4.9445 Y27.9166 
G01 X5.1220 Y27.9166 
G01 X5.1220 Y28.2660 
G01 X5.1543 Y28.3440 
G01 X5.2139 Y28.4036 
G01 X5.2918 Y28.4359 
G01 X5.3761 Y28.4359 
G01 X5.4541 Y28.4036 
G01 X5.5137 Y28.3440 
G01 X5.5460 Y28.2660 
G01 X5.5460 Y27.9166 
G01 X6.9340 Y27.9166 
G01 X7.0119 Y27.8843 
G01 X7.0716 Y27.8247 
G01 X7.1038 Y27.7468 
G01 X7.1038 Y27.6624 
G01 X7.0716 Y27.5845 
G01 X7.0119 Y27.5249 
G01 X6.9340 Y27.4926 
G01 X5.5460 Y27.4926 
G01 X5.5460 Y27.4028 
G01 X5.5137 Y27.3249 
G01 X5.4541 Y27.2652 
G01 X5.3761 Y27.2329 
G01 X5.2918 Y27.2329 
G01 X5.2139 Y27.2652 
G00 Z2.5400 
G00 X5.2139 Y28.6521 
G01 Z-0.1778 F254.00 
G01 X5.1543 Y28.7117 F508.00 
G01 X5.1220 Y28.7896 
G01 X5.1220 Y29.6529 
G01 X5.1543 Y29.7308 
G01 X5.2139 Y29.7905 
G01 X5.2918 Y29.8227 
G01 X5.6358 Y29.8227 
G01 X5.7137 Y29.7905 
G01 X5.7733 Y29.7308 
G01 X5.8056 Y29.6529 
G01 X5.8056 Y29.5686 
G01 X5.7733 Y29.4906 
G01 X5.7137 Y29.4310 
G01 X5.6358 Y29.3987 
G01 X5.5460 Y29.3987 
G01 X5.5460 Y29.0438 
G01 X6.9340 Y29.0438 
G01 X7.0119 Y29.0115 
G01 X7.0716 Y28.9519 
G01 X7.1038 Y28.8740 
G01 X7.1038 Y28.7896 
G01 X7.0716 Y28.7117 
G01 X7.0119 Y28.6521 
G01 X6.9340 Y28.6198 
G01 X5.2918 Y28.6198 
G01 X5.2139 Y28.6521 
G00 Z2.5400 
G00 X5.3329 Y30.2162 
G01 Z-0.1778 F254.00 
G01 X5.3329 Y30.2162 F508.00 
G01 X5.2302 Y30.3451 
G01 X5.1586 Y30.4936 
G01 X5.1220 Y30.6542 
G01 X5.1220 Y30.8190 
G01 X5.1586 Y30.9797 
G01 X5.2302 Y31.1281 
G01 X5.3329 Y31.2570 
G01 X5.4617 Y31.3597 
G01 X5.6102 Y31.4312 
G01 X5.7709 Y31.4679 
G01 X5.8111 Y31.4679 
G01 X6.1551 Y31.4679 
G01 X6.2330 Y31.4356 
G01 X6.2926 Y31.3760 
G01 X6.3249 Y31.2981 
G01 X6.3249 Y30.4293 
G01 X6.5024 Y30.4293 
G01 X6.5222 Y30.4304 
G01 X6.5610 Y30.4393 
G01 X6.5968 Y30.4565 
G01 X6.6279 Y30.4813 
G01 X6.6526 Y30.5124 
G01 X6.6699 Y30.5482 
G01 X6.6787 Y30.5869 
G01 X6.6798 Y30.6068 
G01 X6.6798 Y31.2981 
G01 X6.7121 Y31.3760 
G01 X6.7718 Y31.4356 
G01 X6.8497 Y31.4679 
G01 X6.9340 Y31.4679 
G01 X7.0119 Y31.4356 
G01 X7.0716 Y31.3760 
G01 X7.1038 Y31.2981 
G01 X7.1038 Y30.5390 
G01 X7.0737 Y30.4069 
G01 X7.0149 Y30.2848 
G01 X6.9304 Y30.1788 
G01 X6.8244 Y30.0943 
G01 X6.7023 Y30.0355 
G01 X6.5701 Y30.0053 
G01 X6.4602 Y30.0053 
G01 X5.7709 Y30.0053 
G01 X5.6102 Y30.0420 
G01 X5.4617 Y30.1135 
G01 X5.3329 Y30.2162 
G00 Z2.5400 
G00 X5.6360 Y30.5193 
G01 Z-0.1778 F254.00 
G01 X5.6898 Y30.4764 F508.00 
G01 X5.7518 Y30.4466 
G01 X5.8189 Y30.4313 
G01 X5.8533 Y30.4293 
G01 X5.8954 Y30.4293 
G01 X5.9009 Y30.4293 
G01 X5.9009 Y31.0439 
G01 X5.8533 Y31.0439 
G01 X5.8189 Y31.0420 
G01 X5.7518 Y31.0267 
G01 X5.6898 Y30.9968 
G01 X5.6360 Y30.9539 
G01 X5.5931 Y30.9001 
G01 X5.5632 Y30.8381 
G01 X5.5479 Y30.7710 
G01 X5.5479 Y30.7022 
G01 X5.5632 Y30.6351 
G01 X5.5931 Y30.5731 
G01 X5.6360 Y30.5193 
G00 Z2.5400 
G00 X9.8971 Y30.7595 
G01 Z-0.1778 F254.00 
G01 X9.8648 Y30.8374 F508.00 
G01 X9.8648 Y31.7007 
G01 X9.8971 Y31.7786 
G01 X9.9567 Y31.8382 
G01 X10.0346 Y31.8705 
G01 X10.3786 Y31.8705 
G01 X10.4565 Y31.8382 
G01 X10.5162 Y31.7786 
G01 X10.5484 Y31.7007 
G01 X10.5484 Y31.6163 
G01 X10.5162 Y31.5384 
G01 X10.4565 Y31.4788 
G01 X10.3786 Y31.4465 
G01 X10.2888 Y31.4465 
G01 X10.2888 Y31.0916 
G01 X11.6768 Y31.0916 
G01 X11.7547 Y31.0593 
G01 X11.8144 Y30.9997 
G01 X11.8467 Y30.9217 
G01 X11.8467 Y30.8374 
G01 X11.8144 Y30.7595 
G01 X11.7547 Y30.6999 
G01 X11.6768 Y30.6676 
G01 X10.1190 Y30.6676 
G01 X10.0346 Y30.6676 
G01 X9.9567 Y30.6999 
G01 X9.8971 Y30.7595 
G00 Z2.5400 
G00 X10.0383 Y29.9965 
G01 Z-0.1778 F254.00 
G01 X10.0383 Y29.9965 F508.00 
G01 X10.1442 Y30.0810 
G01 X10.2663 Y30.1398 
G01 X10.3985 Y30.1700 
G01 X10.7681 Y30.1700 
G01 X11.6768 Y30.1700 
G01 X11.7547 Y30.1377 
G01 X11.8144 Y30.0781 
G01 X11.8467 Y30.0001 
G01 X11.8467 Y29.3316 
G01 X11.8467 Y29.2987 
G01 X11.8132 Y29.1523 
G01 X11.7481 Y29.0170 
G01 X11.6545 Y28.8996 
G01 X11.5371 Y28.8060 
G01 X11.4018 Y28.7408 
G01 X11.2554 Y28.7074 
G01 X11.1052 Y28.7074 
G01 X10.9588 Y28.7408 
G01 X10.8235 Y28.8060 
G01 X10.7061 Y28.8996 
G01 X10.6125 Y29.0170 
G01 X10.5473 Y29.1523 
G01 X10.5139 Y29.2987 
G01 X10.5139 Y29.7460 
G01 X10.4663 Y29.7460 
G01 X10.4464 Y29.7449 
G01 X10.4076 Y29.7360 
G01 X10.3718 Y29.7188 
G01 X10.3408 Y29.6940 
G01 X10.3160 Y29.6629 
G01 X10.2987 Y29.6271 
G01 X10.2899 Y29.5884 
G01 X10.2888 Y29.5686 
G01 X10.2888 Y29.0071 
G01 X10.2565 Y28.9291 
G01 X10.1969 Y28.8695 
G01 X10.1190 Y28.8372 
G01 X10.0346 Y28.8372 
G01 X9.9567 Y28.8695 
G01 X9.8971 Y28.9291 
G01 X9.8648 Y29.0071 
G01 X9.8648 Y29.5263 
G01 X9.8648 Y29.6363 
G01 X9.8949 Y29.7684 
G01 X9.9538 Y29.8905 
G01 X10.0383 Y29.9965 
G00 Z2.5400 
G00 X10.9379 Y29.7460 
G01 Z-0.1778 F254.00 
G01 X10.9379 Y29.3738 F508.00 
G01 X10.9394 Y29.3466 
G01 X10.9515 Y29.2937 
G01 X10.9750 Y29.2448 
G01 X11.0089 Y29.2024 
G01 X11.0513 Y29.1685 
G01 X11.1002 Y29.1450 
G01 X11.1531 Y29.1329 
G01 X11.2074 Y29.1329 
G01 X11.2603 Y29.1450 
G01 X11.3092 Y29.1685 
G01 X11.3517 Y29.2024 
G01 X11.3855 Y29.2448 
G01 X11.4091 Y29.2937 
G01 X11.4211 Y29.3466 
G01 X11.4227 Y29.3738 
G01 X11.4227 Y29.4159 
G01 X11.4227 Y29.7460 
G01 X10.9379 Y29.7460 
G00 Z2.5400 
G00 X11.1978 Y28.3656 
G01 Z-0.1778 F254.00 
G01 X11.3584 Y28.3289 F508.00 
G01 X11.5069 Y28.2574 
G01 X11.6357 Y28.1547 
G01 X11.7385 Y28.0258 
G01 X11.8100 Y27.8774 
G01 X11.8467 Y27.7167 
G01 X11.8467 Y27.5519 
G01 X11.8100 Y27.3912 
G01 X11.7385 Y27.2428 
G01 X11.6357 Y27.1139 
G01 X11.5069 Y27.0112 
G01 X11.3584 Y26.9397 
G01 X11.1978 Y26.9030 
G01 X10.5137 Y26.9030 
G01 X10.3530 Y26.9397 
G01 X10.2045 Y27.0112 
G01 X10.0757 Y27.1139 
G01 X9.9730 Y27.2428 
G01 X9.9015 Y27.3912 
G01 X9.8648 Y27.5519 
G01 X9.8648 Y27.7167 
G01 X9.9015 Y27.8773 
G01 X9.9730 Y28.0258 
G01 X10.0757 Y28.1547 
G01 X10.2045 Y28.2574 
G01 X10.3530 Y28.3289 
G01 X10.5137 Y28.3656 
G01 X10.6382 Y28.3656 
G01 X11.1978 Y28.3656 
G00 Z2.5400 
G00 X11.2169 Y27.9243 
G01 Z-0.1778 F254.00 
G01 X11.1498 Y27.9397 F508.00 
G01 X11.1154 Y27.9416 
G01 X10.5961 Y27.9416 
G01 X10.5617 Y27.9397 
G01 X10.4946 Y27.9243 
G01 X10.4326 Y27.8945 
G01 X10.3788 Y27.8516 
G01 X10.3359 Y27.7978 
G01 X10.3060 Y27.7358 
G01 X10.2907 Y27.6687 
G01 X10.2907 Y27.5999 
G01 X10.3060 Y27.5328 
G01 X10.3359 Y27.4708 
G01 X10.3788 Y27.4170 
G01 X10.4326 Y27.3741 
G01 X10.4946 Y27.3442 
G01 X10.5617 Y27.3289 
G01 X10.5961 Y27.3270 
G01 X11.1154 Y27.3270 
G01 X11.1498 Y27.3289 
G01 X11.2169 Y27.3442 
G01 X11.2789 Y27.3741 
G01 X11.3327 Y27.4170 
G01 X11.3756 Y27.4708 
G01 X11.4054 Y27.5328 
G01 X11.4207 Y27.5999 
G01 X11.4207 Y27.6687 
G01 X11.4054 Y27.7358 
G01 X11.3756 Y27.7978 
G01 X11.3327 Y27.8516 
G01 X11.2789 Y27.8945 
G01 X11.2169 Y27.9243 
G00 Z2.5400 
G00 X11.1656 Y26.6169 
G01 Z-0.1778 F254.00 
G01 X11.3377 Y26.5610 F508.00 
G01 X11.4945 Y26.4704 
G01 X11.6290 Y26.3493 
G01 X11.7354 Y26.2029 
G01 X11.8090 Y26.0375 
G01 X11.8467 Y25.8605 
G01 X11.8467 Y25.8121 
G01 X11.8467 Y25.0787 
G01 X11.8144 Y25.0008 
G01 X11.7547 Y24.9411 
G01 X11.6768 Y24.9089 
G01 X9.2557 Y24.9089 
G01 X9.1778 Y24.9411 
G01 X9.1181 Y25.0008 
G01 X9.0859 Y25.0787 
G01 X9.0859 Y25.7278 
G01 X9.0859 Y25.8524 
G01 X9.1225 Y26.0130 
G01 X9.1940 Y26.1615 
G01 X9.2968 Y26.2903 
G01 X9.4256 Y26.3931 
G01 X9.5741 Y26.4646 
G01 X9.7347 Y26.5012 
G01 X9.8995 Y26.5012 
G01 X10.0602 Y26.4646 
G01 X10.2087 Y26.3931 
G01 X10.3133 Y26.3097 
G01 X10.3421 Y26.3493 
G01 X10.4766 Y26.4704 
G01 X10.6334 Y26.5610 
G01 X10.8055 Y26.6169 
G01 X10.9855 Y26.6358 
G01 X11.1656 Y26.6169 
G00 Z2.5400 
G00 X11.1633 Y26.1693 
G01 Z-0.1778 F254.00 
G01 X11.0764 Y26.1975 F508.00 
G01 X10.9855 Y26.2071 
G01 X10.8947 Y26.1975 
G01 X10.8078 Y26.1693 
G01 X10.7286 Y26.1236 
G01 X10.6607 Y26.0624 
G01 X10.6070 Y25.9885 
G01 X10.5698 Y25.9050 
G01 X10.5508 Y25.8157 
G01 X10.5484 Y25.7700 
G01 X10.5484 Y25.3329 
G01 X11.4227 Y25.3329 
G01 X11.4227 Y25.7278 
G01 X11.4227 Y25.7700 
G01 X11.4203 Y25.8157 
G01 X11.4013 Y25.9050 
G01 X11.3641 Y25.9885 
G01 X11.3104 Y26.0624 
G01 X11.2425 Y26.1236 
G01 X11.1633 Y26.1693 
G00 Z2.5400 
G00 X10.0344 Y25.9872 
G01 Z-0.1778 F254.00 
G01 X9.9806 Y26.0301 F508.00 
G01 X9.9186 Y26.0600 
G01 X9.8515 Y26.0753 
G01 X9.7827 Y26.0753 
G01 X9.7157 Y26.0600 
G01 X9.6537 Y26.0301 
G01 X9.5999 Y25.9872 
G01 X9.5570 Y25.9334 
G01 X9.5271 Y25.8714 
G01 X9.5118 Y25.8044 
G01 X9.5099 Y25.7700 
G01 X9.5099 Y25.3329 
G01 X10.1244 Y25.3329 
G01 X10.1244 Y25.7278 
G01 X10.1244 Y25.7700 
G01 X10.1225 Y25.8044 
G01 X10.1072 Y25.8714 
G01 X10.0773 Y25.9334 
G01 X10.0344 Y25.9872 
G00 Z2.5400 
G00 X10.0383 Y32.2215 
G01 Z-0.1778 F254.00 
G01 X10.0383 Y32.2215 F508.00 
G01 X9.9538 Y32.3274 
G01 X9.8949 Y32.4496 
G01 X9.8648 Y32.5817 
G01 X9.8648 Y32.6916 
G01 X9.8648 Y33.0866 
G01 X9.2557 Y33.0866 
G01 X9.1778 Y33.1189 
G01 X9.1181 Y33.1785 
G01 X9.0859 Y33.2564 
G01 X9.0859 Y33.3407 
G01 X9.1181 Y33.4187 
G01 X9.1778 Y33.4783 
G01 X9.2557 Y33.5106 
G01 X11.6768 Y33.5106 
G01 X11.7547 Y33.4783 
G01 X11.8144 Y33.4187 
G01 X11.8467 Y33.3407 
G01 X11.8467 Y32.5817 
G01 X11.8165 Y32.4496 
G01 X11.7577 Y32.3274 
G01 X11.6732 Y32.2215 
G01 X11.5672 Y32.1370 
G01 X11.4451 Y32.0782 
G01 X11.3130 Y32.0480 
G01 X11.2030 Y32.0480 
G01 X10.3985 Y32.0480 
G01 X10.2663 Y32.0782 
G01 X10.1442 Y32.1370 
G01 X10.0383 Y32.2215 
G00 Z2.5400 
G00 X10.3408 Y32.5240 
G01 Z-0.1778 F254.00 
G01 X10.3718 Y32.4992 F508.00 
G01 X10.4076 Y32.4820 
G01 X10.4464 Y32.4731 
G01 X10.4662 Y32.4720 
G01 X11.2453 Y32.4720 
G01 X11.2651 Y32.4731 
G01 X11.3038 Y32.4820 
G01 X11.3396 Y32.4992 
G01 X11.3707 Y32.5240 
G01 X11.3955 Y32.5550 
G01 X11.4127 Y32.5909 
G01 X11.4215 Y32.6296 
G01 X11.4227 Y32.6495 
G01 X11.4227 Y33.0866 
G01 X10.2888 Y33.0866 
G01 X10.2888 Y32.6495 
G01 X10.2899 Y32.6296 
G01 X10.2987 Y32.5909 
G01 X10.3160 Y32.5550 
G01 X10.3408 Y32.5240 
G00 Z2.5400 
G00 X35.4511 Y33.1122 
G01 Z-0.1778 F254.00 
G01 X35.3964 Y33.2069 F508.00 
G01 X35.3681 Y33.3124 
G01 X35.3681 Y40.7140 
G01 X34.7688 Y41.3133 
G01 X34.6915 Y41.3906 
G01 X34.6369 Y41.4853 
G01 X34.6086 Y41.5909 
G01 X34.6086 Y42.6360 
G01 X34.4656 Y42.6360 
G01 X34.4251 Y42.6528 
G01 X34.3940 Y42.6839 
G01 X34.3772 Y42.7245 
G01 X34.3772 Y45.7684 
G01 X34.3940 Y45.8090 
G01 X34.4251 Y45.8400 
G01 X34.4656 Y45.8568 
G01 X34.7232 Y45.8568 
G01 X34.7232 Y47.1024 
G01 X34.6838 Y47.0962 
G01 X34.5185 Y47.0962 
G01 X34.3552 Y47.1221 
G01 X34.1980 Y47.1731 
G01 X34.0507 Y47.2482 
G01 X33.9170 Y47.3454 
G01 X33.8001 Y47.4622 
G01 X33.7029 Y47.5960 
G01 X33.6279 Y47.7433 
G01 X33.5768 Y47.9005 
G01 X33.5510 Y48.0637 
G01 X33.5510 Y48.2291 
G01 X33.5768 Y48.3923 
G01 X33.6279 Y48.5495 
G01 X33.7029 Y48.6968 
G01 X33.8001 Y48.8306 
G01 X33.9170 Y48.9475 
G01 X34.0507 Y49.0446 
G01 X34.1980 Y49.1197 
G01 X34.3552 Y49.1707 
G01 X34.5185 Y49.1966 
G01 X34.6838 Y49.1966 
G01 X34.8471 Y49.1707 
G01 X35.0043 Y49.1197 
G01 X35.1516 Y49.0446 
G01 X35.2853 Y48.9475 
G01 X35.4022 Y48.8306 
G01 X35.4994 Y48.6968 
G01 X35.5744 Y48.5495 
G01 X35.6255 Y48.3923 
G01 X35.6513 Y48.2291 
G01 X35.6513 Y48.0637 
G01 X35.6255 Y47.9005 
G01 X35.5744 Y47.7433 
G01 X35.4994 Y47.5960 
G01 X35.4520 Y47.5308 
G01 X35.4520 Y45.8568 
G01 X35.7096 Y45.8568 
G01 X35.7501 Y45.8400 
G01 X35.7812 Y45.8090 
G01 X35.7980 Y45.7684 
G01 X35.7980 Y42.7245 
G01 X35.7812 Y42.6839 
G01 X35.7501 Y42.6528 
G01 X35.7096 Y42.6360 
G01 X35.4390 Y42.6360 
G01 X35.4390 Y41.8175 
G01 X36.1156 Y41.1409 
G01 X36.1702 Y41.0462 
G01 X36.1985 Y40.9406 
G01 X36.1985 Y33.5391 
G01 X36.7156 Y33.0220 
G01 X39.9733 Y33.0220 
G01 X40.0789 Y32.9938 
G01 X40.1736 Y32.9391 
G01 X40.2509 Y32.8618 
G01 X45.0996 Y28.0131 
G01 X45.1543 Y27.9184 
G01 X45.1629 Y27.8862 
G01 X45.3393 Y27.8862 
G01 X45.3799 Y27.8694 
G01 X45.4109 Y27.8383 
G01 X45.4277 Y27.7977 
G01 X45.4277 Y26.7538 
G01 X45.4109 Y26.7132 
G01 X45.3799 Y26.6822 
G01 X45.3393 Y26.6654 
G01 X44.1954 Y26.6654 
G01 X44.1548 Y26.6822 
G01 X44.1238 Y26.7132 
G01 X44.1069 Y26.7538 
G01 X44.1069 Y27.7977 
G01 X44.1168 Y27.8215 
G01 X39.7467 Y32.1917 
G01 X36.4889 Y32.1917 
G01 X36.3833 Y32.2199 
G01 X36.2886 Y32.2746 
G01 X35.5284 Y33.0349 
G01 X35.4511 Y33.1122 
G00 Z2.5400 
G00 X36.3940 Y42.6839 
G01 Z-0.1778 F254.00 
G01 X36.3772 Y42.7245 F508.00 
G01 X36.3772 Y45.7684 
G01 X36.3940 Y45.8090 
G01 X36.4251 Y45.8400 
G01 X36.4656 Y45.8568 
G01 X36.7232 Y45.8568 
G01 X36.7232 Y47.1807 
G01 X36.5907 Y47.2482 
G01 X36.4570 Y47.3454 
G01 X36.3401 Y47.4622 
G01 X36.2429 Y47.5960 
G01 X36.1679 Y47.7433 
G01 X36.1168 Y47.9005 
G01 X36.0909 Y48.0637 
G01 X36.0909 Y48.2291 
G01 X36.1168 Y48.3923 
G01 X36.1679 Y48.5495 
G01 X36.2429 Y48.6968 
G01 X36.3401 Y48.8306 
G01 X36.4570 Y48.9475 
G01 X36.5907 Y49.0446 
G01 X36.7380 Y49.1197 
G01 X36.8952 Y49.1707 
G01 X37.0585 Y49.1966 
G01 X37.2238 Y49.1966 
G01 X37.3871 Y49.1707 
G01 X37.5443 Y49.1197 
G01 X37.6916 Y49.0446 
G01 X37.8253 Y48.9475 
G01 X37.9422 Y48.8306 
G01 X38.0394 Y48.6968 
G01 X38.1144 Y48.5495 
G01 X38.1655 Y48.3923 
G01 X38.1913 Y48.2291 
G01 X38.1913 Y48.0637 
G01 X38.1655 Y47.9005 
G01 X38.1144 Y47.7433 
G01 X38.0394 Y47.5960 
G01 X37.9422 Y47.4622 
G01 X37.8253 Y47.3454 
G01 X37.6916 Y47.2482 
G01 X37.5443 Y47.1731 
G01 X37.4520 Y47.1432 
G01 X37.4520 Y45.8568 
G01 X37.7096 Y45.8568 
G01 X37.7501 Y45.8400 
G01 X37.7812 Y45.8090 
G01 X37.7980 Y45.7684 
G01 X37.7980 Y42.7245 
G01 X37.7812 Y42.6839 
G01 X37.7501 Y42.6528 
G01 X37.7096 Y42.6360 
G01 X36.4656 Y42.6360 
G01 X36.4251 Y42.6528 
G01 X36.3940 Y42.6839 
G00 Z2.5400 
G00 X38.3940 Y42.6839 
G01 Z-0.1778 F254.00 
G01 X38.3772 Y42.7245 F508.00 
G01 X38.3772 Y45.7684 
G01 X38.3940 Y45.8090 
G01 X38.4251 Y45.8400 
G01 X38.4656 Y45.8568 
G01 X38.7232 Y45.8568 
G01 X38.7232 Y47.6008 
G01 X38.7429 Y47.6745 
G01 X38.7079 Y47.7433 
G01 X38.6568 Y47.9005 
G01 X38.6309 Y48.0637 
G01 X38.6309 Y48.2291 
G01 X38.6568 Y48.3923 
G01 X38.7079 Y48.5495 
G01 X38.7829 Y48.6968 
G01 X38.8801 Y48.8306 
G01 X38.9970 Y48.9475 
G01 X39.1307 Y49.0446 
G01 X39.2780 Y49.1197 
G01 X39.4352 Y49.1707 
G01 X39.5985 Y49.1966 
G01 X39.7638 Y49.1966 
G01 X39.9271 Y49.1707 
G01 X40.0843 Y49.1197 
G01 X40.2316 Y49.0446 
G01 X40.3653 Y48.9475 
G01 X40.4822 Y48.8306 
G01 X40.5794 Y48.6968 
G01 X40.6483 Y48.5616 
G01 X41.2713 Y48.5616 
G01 X41.3769 Y48.5333 
G01 X41.4716 Y48.4786 
G01 X41.5314 Y48.4188 
G01 X41.6069 Y48.4943 
G01 X41.6475 Y48.5111 
G01 X41.6914 Y48.5111 
G01 X41.7320 Y48.4943 
G01 X42.9651 Y47.2611 
G01 X42.9820 Y47.2206 
G01 X42.9820 Y47.1766 
G01 X42.9651 Y47.1361 
G01 X42.3322 Y46.5031 
G01 X42.3322 Y46.2072 
G01 X42.3039 Y46.1016 
G01 X42.2492 Y46.0070 
G01 X42.2028 Y45.9605 
G01 X42.2028 Y44.9736 
G01 X42.1860 Y44.9330 
G01 X42.1549 Y44.9019 
G01 X42.1144 Y44.8851 
G01 X41.1274 Y44.8851 
G01 X39.7980 Y43.5558 
G01 X39.7980 Y42.7245 
G01 X39.7812 Y42.6839 
G01 X39.7501 Y42.6528 
G01 X39.7096 Y42.6360 
G01 X38.4656 Y42.6360 
G01 X38.4251 Y42.6528 
G01 X38.3940 Y42.6839 
G00 Z2.5400 
G00 X39.7980 Y44.7301 
G01 Z-0.1778 F254.00 
G01 X40.8684 Y45.8005 F508.00 
G01 X40.9820 Y45.9141 
G01 X40.9820 Y46.1175 
G01 X40.9988 Y46.1581 
G01 X41.0299 Y46.1891 
G01 X41.0704 Y46.2059 
G01 X41.2738 Y46.2059 
G01 X41.5018 Y46.4339 
G01 X41.5018 Y46.9981 
G01 X40.8688 Y47.6310 
G01 X40.8520 Y47.6716 
G01 X40.8520 Y47.7155 
G01 X40.8585 Y47.7312 
G01 X40.6483 Y47.7312 
G01 X40.5794 Y47.5960 
G01 X40.4822 Y47.4622 
G01 X40.3653 Y47.3454 
G01 X40.2316 Y47.2482 
G01 X40.0843 Y47.1731 
G01 X39.9271 Y47.1221 
G01 X39.7638 Y47.0962 
G01 X39.5985 Y47.0962 
G01 X39.4520 Y47.1194 
G01 X39.4520 Y45.8568 
G01 X39.7096 Y45.8568 
G01 X39.7501 Y45.8400 
G01 X39.7812 Y45.8090 
G01 X39.7980 Y45.7684 
G01 X39.7980 Y44.7301 
G00 Z2.5400 
G00 X33.7980 Y45.7684 
G01 Z-0.1778 F254.00 
G01 X33.7980 Y42.7245 F508.00 
G01 X33.7812 Y42.6839 
G01 X33.7501 Y42.6528 
G01 X33.7096 Y42.6360 
G01 X32.4656 Y42.6360 
G01 X32.4251 Y42.6528 
G01 X32.3940 Y42.6839 
G01 X32.3772 Y42.7245 
G01 X32.3772 Y45.7684 
G01 X32.3940 Y45.8090 
G01 X32.4251 Y45.8400 
G01 X32.4656 Y45.8568 
G01 X32.7232 Y45.8568 
G01 X32.7232 Y46.9690 
G01 X32.5006 Y47.1916 
G01 X32.4643 Y47.1731 
G01 X32.3071 Y47.1221 
G01 X32.1438 Y47.0962 
G01 X31.9785 Y47.0962 
G01 X31.8152 Y47.1221 
G01 X31.6580 Y47.1731 
G01 X31.5107 Y47.2482 
G01 X31.3770 Y47.3454 
G01 X31.2601 Y47.4622 
G01 X31.1629 Y47.5960 
G01 X31.0879 Y47.7433 
G01 X31.0368 Y47.9005 
G01 X31.0110 Y48.0637 
G01 X31.0110 Y48.2291 
G01 X31.0368 Y48.3923 
G01 X31.0879 Y48.5495 
G01 X31.1629 Y48.6968 
G01 X31.2601 Y48.8306 
G01 X31.3770 Y48.9475 
G01 X31.5107 Y49.0446 
G01 X31.6580 Y49.1197 
G01 X31.8152 Y49.1707 
G01 X31.9785 Y49.1966 
G01 X32.1438 Y49.1966 
G01 X32.3071 Y49.1707 
G01 X32.4643 Y49.1197 
G01 X32.6116 Y49.0446 
G01 X32.7453 Y48.9475 
G01 X32.8622 Y48.8306 
G01 X32.9594 Y48.6968 
G01 X33.0344 Y48.5495 
G01 X33.0855 Y48.3923 
G01 X33.1113 Y48.2291 
G01 X33.1113 Y48.0637 
G01 X33.0855 Y47.9005 
G01 X33.0344 Y47.7433 
G01 X33.0159 Y47.7070 
G01 X33.3792 Y47.3437 
G01 X33.4272 Y47.2606 
G01 X33.4520 Y47.1679 
G01 X33.4520 Y45.8568 
G01 X33.7096 Y45.8568 
G01 X33.7501 Y45.8400 
G01 X33.7812 Y45.8090 
G01 X33.7980 Y45.7684 
G00 Z2.5400 
G00 X31.7980 Y45.7684 
G01 Z-0.1778 F254.00 
G01 X31.7980 Y42.7245 F508.00 
G01 X31.7812 Y42.6839 
G01 X31.7501 Y42.6528 
G01 X31.7096 Y42.6360 
G01 X30.4656 Y42.6360 
G01 X30.4251 Y42.6528 
G01 X30.3940 Y42.6839 
G01 X30.3772 Y42.7245 
G01 X30.3772 Y45.7684 
G01 X30.3940 Y45.8090 
G01 X30.4251 Y45.8400 
G01 X30.4656 Y45.8568 
G01 X30.7232 Y45.8568 
G01 X30.7232 Y46.4290 
G01 X29.9606 Y47.1916 
G01 X29.9243 Y47.1731 
G01 X29.7671 Y47.1221 
G01 X29.6038 Y47.0962 
G01 X29.4385 Y47.0962 
G01 X29.2752 Y47.1221 
G01 X29.1180 Y47.1731 
G01 X28.9707 Y47.2482 
G01 X28.8370 Y47.3454 
G01 X28.7201 Y47.4622 
G01 X28.6229 Y47.5960 
G01 X28.5479 Y47.7433 
G01 X28.4968 Y47.9005 
G01 X28.4709 Y48.0637 
G01 X28.4709 Y48.2291 
G01 X28.4968 Y48.3923 
G01 X28.5479 Y48.5495 
G01 X28.6229 Y48.6968 
G01 X28.7201 Y48.8306 
G01 X28.8370 Y48.9475 
G01 X28.9707 Y49.0446 
G01 X29.1180 Y49.1197 
G01 X29.2752 Y49.1707 
G01 X29.4385 Y49.1966 
G01 X29.6038 Y49.1966 
G01 X29.7671 Y49.1707 
G01 X29.9243 Y49.1197 
G01 X30.0716 Y49.0446 
G01 X30.2053 Y48.9475 
G01 X30.3222 Y48.8306 
G01 X30.4194 Y48.6968 
G01 X30.4944 Y48.5495 
G01 X30.5455 Y48.3923 
G01 X30.5713 Y48.2291 
G01 X30.5713 Y48.0637 
G01 X30.5455 Y47.9005 
G01 X30.4944 Y47.7433 
G01 X30.4759 Y47.7070 
G01 X31.3792 Y46.8037 
G01 X31.4272 Y46.7206 
G01 X31.4520 Y46.6279 
G01 X31.4520 Y45.8568 
G01 X31.7096 Y45.8568 
G01 X31.7501 Y45.8400 
G01 X31.7812 Y45.8090 
G01 X31.7980 Y45.7684 
G00 Z2.5400 
G00 X29.7980 Y45.7684 
G01 Z-0.1778 F254.00 
G01 X29.7980 Y42.7245 F508.00 
G01 X29.7812 Y42.6839 
G01 X29.7501 Y42.6528 
G01 X29.7096 Y42.6360 
G01 X28.4656 Y42.6360 
G01 X28.4251 Y42.6528 
G01 X28.3940 Y42.6839 
G01 X28.3772 Y42.7245 
G01 X28.3772 Y45.7684 
G01 X28.3940 Y45.8090 
G01 X28.4251 Y45.8400 
G01 X28.4656 Y45.8568 
G01 X28.7232 Y45.8568 
G01 X28.7232 Y45.8890 
G01 X27.4206 Y47.1916 
G01 X27.3843 Y47.1731 
G01 X27.2271 Y47.1221 
G01 X27.0638 Y47.0962 
G01 X26.8985 Y47.0962 
G01 X26.7352 Y47.1221 
G01 X26.5780 Y47.1731 
G01 X26.4307 Y47.2482 
G01 X26.2970 Y47.3454 
G01 X26.1801 Y47.4622 
G01 X26.0829 Y47.5960 
G01 X26.0079 Y47.7433 
G01 X25.9568 Y47.9005 
G01 X25.9309 Y48.0637 
G01 X25.9309 Y48.2291 
G01 X25.9568 Y48.3923 
G01 X26.0079 Y48.5495 
G01 X26.0829 Y48.6968 
G01 X26.1801 Y48.8306 
G01 X26.2970 Y48.9475 
G01 X26.4307 Y49.0446 
G01 X26.5780 Y49.1197 
G01 X26.7352 Y49.1707 
G01 X26.8985 Y49.1966 
G01 X27.0638 Y49.1966 
G01 X27.2271 Y49.1707 
G01 X27.3843 Y49.1197 
G01 X27.5316 Y49.0446 
G01 X27.6653 Y48.9475 
G01 X27.7822 Y48.8306 
G01 X27.8794 Y48.6968 
G01 X27.9544 Y48.5495 
G01 X28.0055 Y48.3923 
G01 X28.0313 Y48.2291 
G01 X28.0313 Y48.0637 
G01 X28.0055 Y47.9005 
G01 X27.9544 Y47.7433 
G01 X27.9359 Y47.7070 
G01 X29.3792 Y46.2637 
G01 X29.4272 Y46.1806 
G01 X29.4520 Y46.0879 
G01 X29.4520 Y45.8568 
G01 X29.7096 Y45.8568 
G01 X29.7501 Y45.8400 
G01 X29.7812 Y45.8090 
G01 X29.7980 Y45.7684 
G00 Z2.5400 
G00 X27.7980 Y45.7684 
G01 Z-0.1778 F254.00 
G01 X27.7980 Y42.7245 F508.00 
G01 X27.7812 Y42.6839 
G01 X27.7501 Y42.6528 
G01 X27.7096 Y42.6360 
G01 X26.4656 Y42.6360 
G01 X26.4251 Y42.6528 
G01 X26.3940 Y42.6839 
G01 X26.3772 Y42.7245 
G01 X26.3772 Y45.6950 
G01 X24.8806 Y47.1916 
G01 X24.8443 Y47.1731 
G01 X24.6871 Y47.1221 
G01 X24.5238 Y47.0962 
G01 X24.3585 Y47.0962 
G01 X24.1952 Y47.1221 
