(.../EAGLE-8.3.2/ulp/pcb-gcode-3/pcb-gcode.ulp)
(Copyright 2005 - 2012 by John Johnson)
(See readme.txt for licensing terms.)
(This file generated from the board:)
(.../PCB_DEV_BOARD-ESP12/BHOnOfreDevBoard.brd)
(Current profile is .../pcb-gcode-3/profiles/generic.pp  )
(This file generated 29/12/2017 19:18)
(Settings from pcb-machine.h)
(spindle on time = 3.0000)
(spindle speed = 20000.0000)
(tool change at 0.0000 0.0000 3.4000 )
(feed rate xy = F0.00  )
(feed rate z  = F508.00 )
(Z Axis Settings)
(  High     Up        Down     Drill)
(8.7000 	2.5400 	-0.1778 	-0.2794 )
(Settings from pcb-defaults.h)
(isolate min = 0.0254)
(isolate max = 1.1000)
(isolate step = 0.1270)
(Generated top outlines, top drill, )
(Unit of measure: mm)
( Tool|       Size       |  Min Sub |  Max Sub |   Count )
( T01  0.800mm 0.0315in 0.0000in 0.0000in )
( T02  1.000mm 0.0394in 0.0000in 0.0000in )
( T03  1.016mm 0.0400in 0.0000in 0.0000in )
( T04  1.200mm 0.0472in 0.0000in 0.0000in )
( T05  1.400mm 0.0551in 0.0000in 0.0000in )
(Metric Mode)
G21
(Absolute Coordinates)
G90
S20000
G00 Z8.7000 
G00 X0.0000 Y0.0000 
M03
G04 P3.000000
M05
G00 Z3.4000 
M06 T01  ; 0.8000 
G01 Z0.0000 F508.00 
M06 
G00 Z2.5400 
M03
G04 P3.000000
G00 Z2.540000
G00 X24.9594 Y12.4715 
G01 Z-0.2794 F508.00 
G01 Z2.540000
(R2.5400  P1.000000)
G00 X24.9594 Y17.5515 
G01 Z-0.279400
G01 Z2.540000
M05
G00 Z3.4000 
G00 X0.0000 Y0.0000 
M06 T02  ; 1.0000 
G01 Z0.0000 F508.00 
M06 
G00 Z2.5400 
M03
G04 P3.000000
G00 Z2.540000
G00 X29.7256 Y2.8372 
G01 Z-0.2794 F508.00 
G01 Z2.540000
(R2.5400  P1.000000)
G00 X35.4791 Y2.8433 
G01 Z-0.279400
G01 Z2.540000
G00 X35.4791 Y10.4633 
G01 Z-0.279400
G01 Z2.540000
G00 X29.7256 Y10.4572 
G01 Z-0.279400
G01 Z2.540000
G00 X29.7256 Y20.6172 
G01 Z-0.279400
G01 Z2.540000
G00 X29.7256 Y23.1572 
G01 Z-0.279400
G01 Z2.540000
G00 X35.4791 Y23.1633 
G01 Z-0.279400
G01 Z2.540000
G00 X35.4791 Y20.6233 
G01 Z-0.279400
G01 Z2.540000
M05
G00 Z3.4000 
G00 X0.0000 Y0.0000 
M06 T03  ; 1.0160 
G01 Z0.0000 F508.00 
M06 
G00 Z2.5400 
M03
G04 P3.000000
G00 Z2.540000
G00 X21.1953 Y52.0093 
G01 Z-0.2794 F508.00 
G01 Z2.540000
(R2.5400  P1.000000)
G00 X23.7353 Y52.0093 
G01 Z-0.279400
G01 Z2.540000
G00 X26.2753 Y52.0093 
G01 Z-0.279400
G01 Z2.540000
G00 X28.8153 Y52.0093 
G01 Z-0.279400
G01 Z2.540000
G00 X31.3553 Y52.0093 
G01 Z-0.279400
G01 Z2.540000
G00 X33.8953 Y52.0093 
G01 Z-0.279400
G01 Z2.540000
G00 X36.4353 Y52.0093 
G01 Z-0.279400
G01 Z2.540000
G00 X38.9753 Y52.0093 
G01 Z-0.279400
G01 Z2.540000
G00 X39.7498 Y28.5598 
G01 Z-0.279400
G01 Z2.540000
G00 X37.2098 Y28.5598 
G01 Z-0.279400
G01 Z2.540000
G00 X34.6698 Y28.5598 
G01 Z-0.279400
G01 Z2.540000
G00 X32.1298 Y28.5598 
G01 Z-0.279400
G01 Z2.540000
G00 X29.5898 Y28.5598 
G01 Z-0.279400
G01 Z2.540000
G00 X27.0498 Y28.5598 
G01 Z-0.279400
G01 Z2.540000
G00 X24.5098 Y28.5598 
G01 Z-0.279400
G01 Z2.540000
G00 X42.2898 Y28.5598 
G01 Z-0.279400
G01 Z2.540000
G00 X47.4685 Y16.3884 
G01 Z-0.279400
G01 Z2.540000
G00 X41.4437 Y3.9309 
G01 Z-0.279400
G01 Z2.540000
M05
G00 Z3.4000 
G00 X0.0000 Y0.0000 
M06 T04  ; 1.2000 
G01 Z0.0000 F508.00 
M06 
G00 Z2.5400 
M03
G04 P3.000000
G00 Z2.540000
G00 X13.7266 Y5.8692 
G01 Z-0.2794 F508.00 
G01 Z2.540000
(R2.5400  P1.000000)
G00 X17.2266 Y5.8692 
G01 Z-0.279400
G01 Z2.540000
G00 X20.7266 Y5.8692 
G01 Z-0.279400
G01 Z2.540000
G00 X24.2266 Y5.8692 
G01 Z-0.279400
G01 Z2.540000
M05
G00 Z3.4000 
G00 X0.0000 Y0.0000 
M06 T05  ; 1.4000 
G01 Z0.0000 F508.00 
M06 
G00 Z2.5400 
M03
G04 P3.000000
G00 Z2.540000
G00 X5.1784 Y42.1448 
G01 Z-0.2794 F508.00 
G01 Z2.540000
(R2.5400  P1.000000)
G00 X20.5784 Y42.1448 
G01 Z-0.279400
G01 Z2.540000
G00 X15.3784 Y12.7448 
G01 Z-0.279400
G01 Z2.540000
G00 X10.2984 Y12.7448 
G01 Z-0.279400
G01 Z2.540000
T01 
G00 Z8.7000 
M05
M02
