(.../EAGLE-8.3.2/ulp/pcb-gcode-3/pcb-gcode.ulp)
(Copyright 2005 - 2012 by John Johnson)
(See readme.txt for licensing terms.)
(This file generated from the board:)
(.../PCB_DEV_BOARD-ESP12/BHOnOfreDevBoard.brd)
(Current profile is .../pcb-gcode-3/profiles/generic.pp  )
(This file generated 29/12/2017 17:46)
(Settings from pcb-machine.h)
(spindle on time = 3.0000)
(  Tool Size)
(0.1700 )
(spindle speed = 30000.0000)
(tool change at 0.0000 0.0000 3.4000 )
(feed rate xy = F508.00 )
(feed rate z  = F254.00 )
(Z Axis Settings)
(  High     Up        Down     Drill)
(8.7000 	2.5400 	-0.1778 	-0.2794 )
(Settings from pcb-defaults.h)
(isolate min = 0.0254)
(isolate max = 1.1000)
(isolate step = 0.1270)
(Generated top outlines, top drill, )
(Unit of measure: mm)
(Metric Mode)
G21
(Absolute Coordinates)
G90
S30000
G00 Z8.7000 
G00 X0.0000 Y0.0000 
M03
G04 P3.000000
G00 Z2.5400 
G00 X0.1854 Y0.0369 
G01 Z-0.1778 F254.00 
G01 X0.1854 Y-0.1084 F508.00 
G01 X0.1572 Y-0.1766 
G01 X0.1050 Y-0.2287 
G01 X0.0369 Y-0.2570 
G01 X-0.0369 Y-0.2570 
G01 X-0.1050 Y-0.2287 
G01 X-0.1572 Y-0.1766 
G01 X-0.1825 Y-0.1155 
G01 X-0.1930 Y-0.1050 
G01 X-0.2212 Y-0.0369 
G01 X-0.2212 Y0.0369 
G01 X-0.1930 Y0.1050 
G01 X-0.1408 Y0.1572 
G01 X-0.0727 Y0.1854 
G01 X-0.0369 Y0.1854 
G01 X0.0369 Y0.1854 
G01 X0.1050 Y0.1572 
G01 X0.1572 Y0.1050 
G01 X0.1854 Y0.0369 
G00 Z2.5400 
G00 X9.2455 Y8.3981 
G01 Z-0.1778 F254.00 
G01 X9.1178 Y8.5739 F508.00 
G01 X9.0191 Y8.7675 
G01 X8.9520 Y8.9741 
G01 X8.9180 Y9.1887 
G01 X8.9180 Y10.7294 
G01 X8.3714 Y10.7294 
G01 X8.3309 Y10.7462 
G01 X8.2998 Y10.7772 
G01 X8.2830 Y10.8178 
G01 X8.2830 Y14.6717 
G01 X8.2998 Y14.7123 
G01 X8.3309 Y14.7434 
G01 X8.3714 Y14.7602 
G01 X9.0528 Y14.7602 
G01 X9.0528 Y16.1614 
G01 X9.0868 Y16.3760 
G01 X9.1540 Y16.5827 
G01 X9.2526 Y16.7763 
G01 X9.3803 Y16.9520 
G01 X9.5340 Y17.1057 
G01 X11.0327 Y18.6044 
G01 X11.2085 Y18.7321 
G01 X11.4021 Y18.8308 
G01 X11.6087 Y18.8979 
G01 X11.8233 Y18.9319 
G01 X25.0681 Y18.9319 
G01 X25.2827 Y18.8979 
G01 X25.4893 Y18.8308 
G01 X25.6829 Y18.7321 
G01 X25.8587 Y18.6044 
G01 X26.0123 Y18.4508 
G01 X26.1401 Y18.2750 
G01 X26.2387 Y18.0814 
G01 X26.3058 Y17.8748 
G01 X26.3398 Y17.6602 
G01 X26.3398 Y17.4429 
G01 X26.3058 Y17.2283 
G01 X26.2387 Y17.0216 
G01 X26.1401 Y16.8280 
G01 X26.0123 Y16.6522 
G01 X25.8587 Y16.4986 
G01 X25.6829 Y16.3709 
G01 X25.4893 Y16.2722 
G01 X25.2827 Y16.2051 
G01 X25.0681 Y16.1711 
G01 X12.5037 Y16.1711 
G01 X11.8136 Y15.4810 
G01 X11.8136 Y14.7602 
G01 X12.2254 Y14.7602 
G01 X12.2659 Y14.7434 
G01 X12.2970 Y14.7123 
G01 X12.3138 Y14.6717 
G01 X12.3138 Y10.8178 
G01 X12.2970 Y10.7772 
G01 X12.2659 Y10.7462 
G01 X12.2254 Y10.7294 
G01 X11.6788 Y10.7294 
G01 X11.6788 Y9.8691 
G01 X14.7795 Y6.7684 
G01 X14.9072 Y6.5927 
G01 X15.0059 Y6.3991 
G01 X15.0730 Y6.1924 
G01 X15.1070 Y5.9778 
G01 X15.1070 Y5.7605 
G01 X15.0730 Y5.5459 
G01 X15.0059 Y5.3393 
G01 X14.9072 Y5.1457 
G01 X14.7795 Y4.9699 
G01 X14.6259 Y4.8163 
G01 X14.4501 Y4.6886 
G01 X14.2565 Y4.5899 
G01 X14.0498 Y4.5228 
G01 X13.8352 Y4.4888 
G01 X13.6179 Y4.4888 
G01 X13.4033 Y4.5228 
G01 X13.1967 Y4.5899 
G01 X13.0031 Y4.6886 
G01 X12.8273 Y4.8163 
G01 X9.2455 Y8.3981 
G00 Z2.5400 
G00 X13.3798 Y10.7772 
G01 Z-0.1778 F254.00 
G01 X13.3630 Y10.8178 F508.00 
G01 X13.3630 Y14.6717 
G01 X13.3798 Y14.7123 
G01 X13.4109 Y14.7434 
G01 X13.4514 Y14.7602 
G01 X17.3054 Y14.7602 
G01 X17.3459 Y14.7434 
G01 X17.3770 Y14.7123 
G01 X17.3938 Y14.6717 
G01 X17.3938 Y12.2598 
G01 X17.9718 Y11.6818 
G01 X18.1255 Y11.5282 
G01 X18.2532 Y11.3524 
G01 X18.3518 Y11.1588 
G01 X18.4190 Y10.9521 
G01 X18.4530 Y10.7375 
G01 X18.4530 Y6.5029 
G01 X18.5058 Y6.3991 
G01 X18.5730 Y6.1924 
G01 X18.6070 Y5.9778 
G01 X18.6070 Y5.7605 
G01 X18.5730 Y5.5459 
G01 X18.5058 Y5.3393 
G01 X18.4072 Y5.1457 
G01 X18.2795 Y4.9699 
G01 X18.1259 Y4.8163 
G01 X17.9501 Y4.6886 
G01 X17.7565 Y4.5899 
G01 X17.5498 Y4.5228 
G01 X17.3352 Y4.4888 
G01 X17.1179 Y4.4888 
G01 X16.9033 Y4.5228 
G01 X16.6967 Y4.5899 
G01 X16.5031 Y4.6886 
G01 X16.3273 Y4.8163 
G01 X16.0197 Y5.1239 
G01 X15.8919 Y5.2997 
G01 X15.7933 Y5.4933 
G01 X15.7262 Y5.7000 
G01 X15.6922 Y5.9146 
G01 X15.6922 Y10.0571 
G01 X15.0199 Y10.7294 
G01 X13.4514 Y10.7294 
G01 X13.4109 Y10.7462 
G01 X13.3798 Y10.7772 
G00 Z2.5400 
G00 X19.8273 Y6.9221 
G01 Z-0.1778 F254.00 
G01 X20.0031 Y7.0498 F508.00 
G01 X20.1967 Y7.1484 
G01 X20.4033 Y7.2156 
G01 X20.6179 Y7.2496 
G01 X20.8352 Y7.2496 
G01 X21.0498 Y7.2156 
G01 X21.2565 Y7.1484 
G01 X21.4501 Y7.0498 
G01 X21.6259 Y6.9221 
G01 X21.7795 Y6.7684 
G01 X21.9072 Y6.5927 
G01 X22.0058 Y6.3991 
G01 X22.0730 Y6.1924 
G01 X22.1070 Y5.9778 
G01 X22.1070 Y3.9641 
G01 X28.9281 Y3.9641 
G01 X29.0021 Y4.0179 
G01 X29.1957 Y4.1165 
G01 X29.4023 Y4.1836 
G01 X29.6169 Y4.2176 
G01 X29.8342 Y4.2176 
G01 X30.0488 Y4.1836 
G01 X30.2555 Y4.1165 
G01 X30.4491 Y4.0179 
G01 X30.6249 Y3.8901 
G01 X30.7785 Y3.7365 
G01 X30.9062 Y3.5607 
G01 X31.0049 Y3.3671 
G01 X31.0720 Y3.1605 
G01 X31.1060 Y2.9459 
G01 X31.1060 Y2.7286 
G01 X31.0720 Y2.5140 
G01 X31.0049 Y2.3073 
G01 X30.9062 Y2.1137 
G01 X30.7785 Y1.9380 
G01 X30.3713 Y1.5308 
G01 X30.1955 Y1.4031 
G01 X30.0019 Y1.3044 
G01 X29.7953 Y1.2373 
G01 X29.5807 Y1.2033 
G01 X21.3603 Y1.2033 
G01 X21.1457 Y1.2373 
G01 X20.9390 Y1.3044 
G01 X20.7454 Y1.4031 
G01 X20.5696 Y1.5308 
G01 X20.4160 Y1.6844 
G01 X19.6737 Y2.4267 
G01 X19.5460 Y2.6025 
G01 X19.4473 Y2.7961 
G01 X19.3802 Y3.0027 
G01 X19.3462 Y3.2174 
G01 X19.3462 Y5.9778 
G01 X19.3802 Y6.1924 
G01 X19.4473 Y6.3991 
G01 X19.5460 Y6.5927 
G01 X19.6737 Y6.7684 
G01 X19.8273 Y6.9221 
G00 Z2.5400 
G00 X23.1002 Y6.9071 
G01 Z-0.1778 F254.00 
G01 X23.1170 Y6.9477 F508.00 
G01 X23.1481 Y6.9788 
G01 X23.1886 Y6.9956 
G01 X23.4285 Y6.9956 
G01 X23.5031 Y7.0498 
G01 X23.6967 Y7.1484 
G01 X23.9033 Y7.2156 
G01 X24.1179 Y7.2496 
G01 X25.6038 Y7.2496 
G01 X26.4529 Y8.0987 
G01 X26.6065 Y8.2523 
G01 X26.7823 Y8.3801 
G01 X26.9759 Y8.4787 
G01 X27.1825 Y8.5458 
G01 X27.3972 Y8.5798 
G01 X31.2316 Y8.5798 
G01 X31.4462 Y8.5458 
G01 X31.6528 Y8.4787 
G01 X31.8464 Y8.3801 
G01 X32.0222 Y8.2523 
G01 X36.5320 Y3.7425 
G01 X36.6597 Y3.5668 
G01 X36.7584 Y3.3732 
G01 X36.8255 Y3.1665 
G01 X36.8595 Y2.9519 
G01 X36.8595 Y2.7346 
G01 X36.8255 Y2.5200 
G01 X36.7584 Y2.3134 
G01 X36.6597 Y2.1198 
G01 X36.5320 Y1.9440 
G01 X36.3784 Y1.7904 
G01 X36.2026 Y1.6626 
G01 X36.0090 Y1.5640 
G01 X35.8023 Y1.4969 
G01 X35.5877 Y1.4629 
G01 X35.3705 Y1.4629 
G01 X35.1559 Y1.4969 
G01 X34.9492 Y1.5640 
G01 X34.7556 Y1.6626 
G01 X34.5798 Y1.7904 
G01 X30.5512 Y5.8190 
G01 X28.0776 Y5.8190 
G01 X27.0748 Y4.8163 
G01 X26.8990 Y4.6886 
G01 X26.7054 Y4.5899 
G01 X26.4988 Y4.5228 
G01 X26.2842 Y4.4888 
G01 X24.1179 Y4.4888 
G01 X23.9033 Y4.5228 
G01 X23.6967 Y4.5899 
G01 X23.5031 Y4.6886 
G01 X23.4285 Y4.7428 
G01 X23.1886 Y4.7428 
G01 X23.1481 Y4.7596 
G01 X23.1170 Y4.7906 
G01 X23.1002 Y4.8312 
G01 X23.1002 Y5.0711 
G01 X23.0460 Y5.1457 
G01 X22.9473 Y5.3393 
G01 X22.8802 Y5.5459 
G01 X22.8462 Y5.7605 
G01 X22.8462 Y5.9778 
G01 X22.8802 Y6.1924 
G01 X22.9473 Y6.3991 
G01 X23.0460 Y6.5927 
G01 X23.1002 Y6.6673 
G01 X23.1002 Y6.9071 
G00 Z2.5400 
G00 X23.9065 Y11.5722 
G01 Z-0.1778 F254.00 
G01 X23.7788 Y11.7480 F508.00 
G01 X23.6802 Y11.9416 
G01 X23.6130 Y12.1483 
G01 X23.5790 Y12.3629 
G01 X23.5790 Y12.5801 
G01 X23.6130 Y12.7948 
G01 X23.6802 Y13.0014 
G01 X23.7788 Y13.1950 
G01 X23.9065 Y13.3708 
G01 X24.0602 Y13.5244 
G01 X24.2360 Y13.6521 
G01 X24.4295 Y13.7508 
G01 X24.6362 Y13.8179 
G01 X24.8508 Y13.8519 
G01 X27.6027 Y13.8519 
G01 X27.8199 Y13.8519 
G01 X28.0346 Y13.8179 
G01 X28.2412 Y13.7508 
G01 X28.4348 Y13.6521 
G01 X28.6106 Y13.5244 
G01 X30.2974 Y11.8376 
G01 X35.3323 Y11.8376 
G01 X35.3705 Y11.8437 
G01 X35.5877 Y11.8437 
G01 X35.8023 Y11.8097 
G01 X36.0090 Y11.7425 
G01 X36.2026 Y11.6439 
G01 X36.3784 Y11.5162 
G01 X36.5320 Y11.3625 
G01 X36.6597 Y11.1868 
G01 X36.7584 Y10.9932 
G01 X36.8255 Y10.7865 
G01 X36.8595 Y10.5719 
G01 X36.8595 Y10.3546 
G01 X36.8255 Y10.1400 
G01 X36.7584 Y9.9334 
G01 X36.6597 Y9.7398 
G01 X36.5320 Y9.5640 
G01 X36.3723 Y9.4043 
G01 X36.1966 Y9.2766 
G01 X36.0030 Y9.1780 
G01 X35.7963 Y9.1108 
G01 X35.5817 Y9.0768 
G01 X29.6169 Y9.0768 
G01 X29.4023 Y9.1108 
G01 X29.1957 Y9.1780 
G01 X29.0021 Y9.2766 
G01 X28.8263 Y9.4043 
G01 X28.6727 Y9.5580 
G01 X27.1395 Y11.0911 
G01 X24.8508 Y11.0911 
G01 X24.6362 Y11.1251 
G01 X24.4295 Y11.1922 
G01 X24.2360 Y11.2909 
G01 X24.0602 Y11.4186 
G01 X23.9065 Y11.5722 
G00 Z2.5400 
G00 X29.0542 Y20.0662 
G01 Z-0.1778 F254.00 
G01 X28.9596 Y20.2078 F508.00 
G01 X28.8944 Y20.3651 
G01 X28.8769 Y20.4531 
G01 X19.0773 Y20.4531 
G01 X18.9717 Y20.4814 
G01 X18.8770 Y20.5361 
G01 X18.7997 Y20.6134 
G01 X14.5652 Y24.8480 
G01 X14.4879 Y24.9253 
G01 X6.1240 Y33.2891 
G01 X6.1240 Y32.8851 
G01 X6.1072 Y32.8446 
G01 X6.0761 Y32.8135 
G01 X6.0356 Y32.7967 
G01 X4.2216 Y32.7967 
G01 X4.1811 Y32.8135 
G01 X4.1500 Y32.8446 
G01 X4.1332 Y32.8851 
G01 X4.1332 Y34.7291 
G01 X4.1500 Y34.7696 
G01 X4.1811 Y34.8007 
G01 X4.2216 Y34.8175 
G01 X6.0356 Y34.8175 
G01 X6.0761 Y34.8007 
G01 X6.1072 Y34.7696 
G01 X6.1240 Y34.7291 
G01 X6.1240 Y34.2223 
G01 X6.2479 Y34.2223 
G01 X6.3535 Y34.1940 
G01 X6.4482 Y34.1393 
G01 X14.8550 Y25.7324 
G01 X14.9199 Y25.7498 
G01 X31.3510 Y25.7498 
G01 X31.4566 Y25.7215 
G01 X31.5513 Y25.6669 
G01 X31.6286 Y25.5895 
G01 X33.7074 Y23.5108 
G01 X33.7620 Y23.4161 
G01 X33.7903 Y23.3105 
G01 X33.7903 Y21.7334 
G01 X34.4852 Y21.0385 
G01 X34.7169 Y21.0385 
G01 X34.8077 Y21.1743 
G01 X34.9281 Y21.2947 
G01 X35.0697 Y21.3893 
G01 X35.2270 Y21.4545 
G01 X35.3940 Y21.4877 
G01 X35.5642 Y21.4877 
G01 X35.7312 Y21.4545 
G01 X35.8886 Y21.3893 
G01 X36.0301 Y21.2947 
G01 X36.1505 Y21.1743 
G01 X36.2451 Y21.0327 
G01 X36.3103 Y20.8754 
G01 X36.3435 Y20.7084 
G01 X36.3435 Y20.5381 
G01 X36.3103 Y20.3711 
G01 X36.2451 Y20.2138 
G01 X36.1505 Y20.0722 
G01 X36.0301 Y19.9518 
G01 X35.8886 Y19.8573 
G01 X35.7312 Y19.7921 
G01 X35.5642 Y19.7589 
G01 X35.3940 Y19.7589 
G01 X35.2270 Y19.7921 
G01 X35.0697 Y19.8573 
G01 X34.9281 Y19.9518 
G01 X34.8077 Y20.0722 
G01 X34.7169 Y20.2081 
G01 X34.2585 Y20.2081 
G01 X34.1529 Y20.2364 
G01 X34.0583 Y20.2910 
G01 X33.1202 Y21.2291 
G01 X33.0429 Y21.3064 
G01 X32.9882 Y21.4011 
G01 X32.9599 Y21.5067 
G01 X32.9599 Y23.0839 
G01 X31.1244 Y24.9194 
G01 X15.6681 Y24.9194 
G01 X19.3040 Y21.2835 
G01 X29.1694 Y21.2835 
G01 X29.1746 Y21.2887 
G01 X29.3161 Y21.3833 
G01 X29.4734 Y21.4484 
G01 X29.6405 Y21.4816 
G01 X29.8107 Y21.4816 
G01 X29.9777 Y21.4484 
G01 X30.1350 Y21.3833 
G01 X30.2766 Y21.2887 
G01 X30.3970 Y21.1683 
G01 X30.4916 Y21.0267 
G01 X30.5568 Y20.8694 
G01 X30.5900 Y20.7024 
G01 X30.5900 Y20.5321 
G01 X30.5568 Y20.3651 
G01 X30.4916 Y20.2078 
G01 X30.3970 Y20.0662 
G01 X30.2766 Y19.9458 
G01 X30.1350 Y19.8512 
G01 X29.9777 Y19.7860 
G01 X29.8107 Y19.7528 
G01 X29.6405 Y19.7528 
G01 X29.4734 Y19.7860 
G01 X29.3161 Y19.8512 
G01 X29.1746 Y19.9458 
G01 X29.0542 Y20.0662 
G00 Z2.5400 
G00 X29.0542 Y22.6062 
G01 Z-0.1778 F254.00 
G01 X28.9596 Y22.7478 F508.00 
G01 X28.8944 Y22.9051 
G01 X28.8612 Y23.0721 
G01 X28.8612 Y23.2424 
G01 X28.8944 Y23.4094 
G01 X28.9596 Y23.5667 
G01 X29.0542 Y23.7083 
G01 X29.1746 Y23.8287 
G01 X29.3161 Y23.9232 
G01 X29.4734 Y23.9884 
G01 X29.6405 Y24.0216 
G01 X29.8107 Y24.0216 
G01 X29.9777 Y23.9884 
G01 X30.1350 Y23.9232 
G01 X30.2766 Y23.8287 
G01 X30.3970 Y23.7083 
G01 X30.4916 Y23.5667 
G01 X30.5568 Y23.4094 
G01 X30.5900 Y23.2424 
G01 X30.5900 Y23.0721 
G01 X30.5568 Y22.9051 
G01 X30.5063 Y22.7832 
G01 X32.4942 Y20.7953 
G01 X32.5620 Y20.7275 
G01 X32.6100 Y20.6444 
G01 X32.6348 Y20.5517 
G01 X32.6348 Y19.0140 
G01 X33.2784 Y18.3704 
G01 X35.4477 Y18.3704 
G01 X35.5404 Y18.3456 
G01 X35.6234 Y18.2976 
G01 X39.8483 Y14.0728 
G01 X41.6171 Y14.0728 
G01 X41.6171 Y14.4303 
G01 X41.6339 Y14.4709 
G01 X41.6650 Y14.5020 
G01 X41.7056 Y14.5188 
G01 X42.7495 Y14.5188 
G01 X42.7901 Y14.5020 
G01 X42.8211 Y14.4709 
G01 X42.8379 Y14.4303 
G01 X42.8379 Y12.9864 
G01 X42.8211 Y12.9458 
G01 X42.7901 Y12.9148 
G01 X42.7495 Y12.8980 
G01 X41.7056 Y12.8980 
G01 X41.6650 Y12.9148 
G01 X41.6339 Y12.9458 
G01 X41.6171 Y12.9864 
G01 X41.6171 Y13.3440 
G01 X39.6494 Y13.3440 
G01 X39.5567 Y13.3688 
G01 X39.4736 Y13.4168 
G01 X35.2488 Y17.6416 
G01 X33.0795 Y17.6416 
G01 X32.9868 Y17.6664 
G01 X32.9037 Y17.7144 
G01 X32.8359 Y17.7823 
G01 X31.9788 Y18.6393 
G01 X31.9308 Y18.7224 
G01 X31.9060 Y18.8151 
G01 X31.9060 Y20.3528 
G01 X29.9402 Y22.3186 
G01 X29.8107 Y22.2928 
G01 X29.6405 Y22.2928 
G01 X29.4734 Y22.3260 
G01 X29.3161 Y22.3912 
G01 X29.1746 Y22.4858 
G01 X29.0542 Y22.6062 
G00 Z2.5400 
G00 X29.0394 Y27.6615 
G01 Z-0.1778 F254.00 
G01 X28.9057 Y27.7587 F508.00 
G01 X28.7888 Y27.8756 
G01 X28.6916 Y28.0093 
G01 X28.6166 Y28.1566 
G01 X28.5655 Y28.3138 
G01 X28.5396 Y28.4771 
G01 X28.5396 Y28.6424 
G01 X28.5655 Y28.8057 
G01 X28.6166 Y28.9629 
G01 X28.6351 Y28.9992 
G01 X28.4988 Y29.1354 
G01 X28.4508 Y29.2185 
G01 X28.4260 Y29.3112 
G01 X28.4260 Y30.6189 
G01 X28.1684 Y30.6189 
G01 X28.1279 Y30.6357 
G01 X28.0968 Y30.6668 
G01 X28.0800 Y30.7073 
G01 X28.0800 Y33.7513 
G01 X28.0968 Y33.7918 
G01 X28.1279 Y33.8229 
G01 X28.1684 Y33.8397 
G01 X29.4124 Y33.8397 
G01 X29.4529 Y33.8229 
G01 X29.4840 Y33.7918 
G01 X29.5008 Y33.7513 
G01 X29.5008 Y30.7073 
G01 X29.4840 Y30.6668 
G01 X29.4529 Y30.6357 
G01 X29.4124 Y30.6189 
G01 X29.1548 Y30.6189 
G01 X29.1548 Y29.5168 
G01 X29.1867 Y29.5330 
G01 X29.3439 Y29.5841 
G01 X29.5072 Y29.6100 
G01 X29.6725 Y29.6100 
G01 X29.8357 Y29.5841 
G01 X29.9930 Y29.5330 
G01 X30.1402 Y29.4580 
G01 X30.2740 Y29.3608 
G01 X30.3909 Y29.2439 
G01 X30.4880 Y29.1102 
G01 X30.5631 Y28.9629 
G01 X30.6142 Y28.8057 
G01 X30.6400 Y28.6424 
G01 X30.6400 Y28.4771 
G01 X30.6142 Y28.3138 
G01 X30.5631 Y28.1566 
G01 X30.4880 Y28.0093 
G01 X30.3909 Y27.8756 
G01 X30.2740 Y27.7587 
G01 X30.1402 Y27.6615 
G01 X29.9930 Y27.5865 
G01 X29.8357 Y27.5354 
G01 X29.6725 Y27.5096 
G01 X29.5072 Y27.5096 
G01 X29.3439 Y27.5354 
G01 X29.1867 Y27.5865 
G01 X29.0394 Y27.6615 
G00 Z2.5400 
G00 X27.7340 Y27.7587 
G01 Z-0.1778 F254.00 
G01 X27.6002 Y27.6615 F508.00 
G01 X27.4530 Y27.5865 
G01 X27.2957 Y27.5354 
G01 X27.1325 Y27.5096 
G01 X26.9672 Y27.5096 
G01 X26.8039 Y27.5354 
G01 X26.6467 Y27.5865 
G01 X26.4994 Y27.6615 
G01 X26.3657 Y27.7587 
G01 X26.2488 Y27.8756 
G01 X26.1516 Y28.0093 
G01 X26.0766 Y28.1566 
G01 X26.0255 Y28.3138 
G01 X25.9996 Y28.4771 
G01 X25.9996 Y28.6424 
G01 X26.0255 Y28.8057 
G01 X26.0766 Y28.9629 
G01 X26.1516 Y29.1102 
G01 X26.2488 Y29.2439 
G01 X26.3657 Y29.3608 
G01 X26.4260 Y29.4046 
G01 X26.4260 Y30.6189 
G01 X26.1684 Y30.6189 
G01 X26.1279 Y30.6357 
G01 X26.0968 Y30.6668 
G01 X26.0800 Y30.7073 
G01 X26.0800 Y33.7513 
G01 X26.0968 Y33.7918 
G01 X26.1279 Y33.8229 
G01 X26.1684 Y33.8397 
G01 X26.6975 Y33.8397 
G01 X26.6975 Y38.5825 
G01 X24.1527 Y41.1274 
G01 X24.1047 Y41.2105 
G01 X24.0799 Y41.3031 
G01 X24.0799 Y43.3953 
G01 X21.8593 Y45.6159 
G01 X21.8114 Y45.6990 
G01 X21.7865 Y45.7917 
G01 X21.7865 Y46.5167 
G01 X21.5790 Y46.5167 
G01 X21.5384 Y46.5335 
G01 X21.5073 Y46.5646 
G01 X21.4905 Y46.6052 
G01 X21.4905 Y47.6491 
G01 X21.5073 Y47.6897 
G01 X21.5384 Y47.7207 
G01 X21.5790 Y47.7375 
G01 X22.7229 Y47.7375 
G01 X22.7635 Y47.7207 
G01 X22.7945 Y47.6897 
G01 X22.8113 Y47.6491 
G01 X22.8113 Y46.6052 
G01 X22.7945 Y46.5646 
G01 X22.7635 Y46.5335 
G01 X22.7229 Y46.5167 
G01 X22.5153 Y46.5167 
G01 X22.5153 Y45.9906 
G01 X24.6680 Y43.8379 
G01 X24.7359 Y43.7700 
G01 X24.7839 Y43.6869 
G01 X24.8087 Y43.5942 
G01 X24.8087 Y41.5021 
G01 X27.2857 Y39.0251 
G01 X27.3535 Y38.9572 
G01 X27.4015 Y38.8741 
G01 X27.4263 Y38.7814 
G01 X27.4263 Y33.8339 
G01 X27.4529 Y33.8229 
G01 X27.4840 Y33.7918 
G01 X27.5008 Y33.7513 
G01 X27.5008 Y30.7073 
G01 X27.4840 Y30.6668 
G01 X27.4529 Y30.6357 
G01 X27.4124 Y30.6189 
G01 X27.1548 Y30.6189 
G01 X27.1548 Y29.6064 
G01 X27.2957 Y29.5841 
G01 X27.4530 Y29.5330 
G01 X27.6002 Y29.4580 
G01 X27.7340 Y29.3608 
G01 X27.8509 Y29.2439 
G01 X27.9480 Y29.1102 
G01 X28.0231 Y28.9629 
G01 X28.0742 Y28.8057 
G01 X28.1000 Y28.6424 
G01 X28.1000 Y28.4771 
G01 X28.0742 Y28.3138 
G01 X28.0231 Y28.1566 
G01 X27.9480 Y28.0093 
G01 X27.8509 Y27.8756 
G01 X27.7340 Y27.7587 
G00 Z2.5400 
G00 X26.6775 Y26.9074 
G01 Z-0.1778 F254.00 
G01 X43.1123 Y26.9074 F508.00 
G01 X43.8041 Y27.5992 
G01 X43.8719 Y27.6670 
G01 X43.9550 Y27.7150 
G01 X44.0477 Y27.7398 
G01 X47.7364 Y27.7398 
G01 X47.7364 Y27.8974 
G01 X47.7532 Y27.9380 
G01 X47.7843 Y27.9690 
G01 X47.8249 Y27.9858 
G01 X48.7919 Y27.9858 
G01 X49.2211 Y28.4150 
G01 X49.4468 Y29.0710 
G01 X49.4539 Y29.1006 
G01 X49.4624 Y29.1162 
G01 X49.4682 Y29.1329 
G01 X49.4852 Y29.1582 
G01 X49.8261 Y29.7865 
G01 X49.8380 Y29.8146 
G01 X49.8489 Y29.8285 
G01 X49.8574 Y29.8441 
G01 X49.8783 Y29.8662 
G01 X50.3183 Y30.4297 
G01 X50.3347 Y30.4554 
G01 X50.3477 Y30.4674 
G01 X50.3586 Y30.4813 
G01 X50.3829 Y30.4996 
G01 X50.9098 Y30.9828 
G01 X50.9302 Y31.0055 
G01 X50.9450 Y31.0151 
G01 X50.9581 Y31.0271 
G01 X50.9851 Y31.0412 
G01 X51.4073 Y31.3156 
G01 X51.4073 Y36.6313 
G01 X49.1695 Y38.8691 
G01 X47.8966 Y38.8691 
G01 X47.8560 Y38.8860 
G01 X47.8250 Y38.9170 
G01 X47.8082 Y38.9576 
G01 X47.8082 Y40.0015 
G01 X47.8250 Y40.0421 
G01 X47.8560 Y40.0731 
G01 X47.8966 Y40.0899 
G01 X49.6405 Y40.0899 
G01 X49.6811 Y40.0731 
G01 X49.7122 Y40.0421 
G01 X49.7290 Y40.0015 
G01 X49.7290 Y39.3403 
G01 X51.9954 Y37.0739 
G01 X52.0633 Y37.0060 
G01 X52.1112 Y36.9229 
G01 X52.1361 Y36.8303 
G01 X52.1361 Y31.1275 
G01 X52.1381 Y31.0892 
G01 X52.1361 Y31.0797 
G01 X52.1361 Y31.0699 
G01 X52.1262 Y31.0329 
G01 X52.1182 Y30.9954 
G01 X52.1138 Y30.9866 
G01 X52.1112 Y30.9772 
G01 X52.0921 Y30.9440 
G01 X52.0747 Y30.9098 
G01 X52.0681 Y30.9026 
G01 X52.0633 Y30.8941 
G01 X52.0362 Y30.8670 
G01 X52.0105 Y30.8385 
G01 X52.0023 Y30.8332 
G01 X51.9954 Y30.8263 
G01 X51.9622 Y30.8071 
G01 X51.3930 Y30.4371 
G01 X50.8849 Y29.9711 
G01 X50.4606 Y29.4277 
G01 X50.1318 Y28.8218 
G01 X49.9118 Y28.1825 
G01 X49.9118 Y28.1780 
G01 X49.9039 Y28.1486 
G01 X49.8989 Y28.1186 
G01 X49.8915 Y28.1025 
G01 X49.8870 Y28.0854 
G01 X49.8717 Y28.0590 
G01 X49.8591 Y28.0313 
G01 X49.8479 Y28.0176 
G01 X49.8390 Y28.0023 
G01 X49.8175 Y27.9807 
G01 X49.7981 Y27.9572 
G01 X49.7837 Y27.9469 
G01 X49.6572 Y27.8205 
G01 X49.6572 Y26.9304 
G01 X49.6912 Y26.8964 
G01 X49.7056 Y26.8861 
G01 X49.7250 Y26.8626 
G01 X49.7465 Y26.8411 
G01 X49.7554 Y26.8257 
G01 X49.7666 Y26.8121 
G01 X49.7793 Y26.7843 
G01 X49.7945 Y26.7580 
G01 X49.7991 Y26.7409 
G01 X49.8064 Y26.7248 
G01 X49.8115 Y26.6947 
G01 X49.8193 Y26.6653 
G01 X49.8193 Y26.6476 
G01 X49.9075 Y26.1206 
G01 X50.1318 Y25.4687 
G01 X50.4606 Y24.8628 
G01 X50.8849 Y24.3194 
G01 X51.3930 Y23.8535 
G01 X51.9622 Y23.4834 
G01 X51.9954 Y23.4643 
G01 X52.0023 Y23.4574 
G01 X52.0105 Y23.4520 
G01 X52.0362 Y23.4235 
G01 X52.0633 Y23.3964 
G01 X52.0681 Y23.3880 
G01 X52.0747 Y23.3807 
G01 X52.0921 Y23.3465 
G01 X52.1112 Y23.3133 
G01 X52.1138 Y23.3039 
G01 X52.1182 Y23.2952 
G01 X52.1262 Y23.2577 
G01 X52.1361 Y23.2206 
G01 X52.1361 Y23.2109 
G01 X52.1381 Y23.2013 
G01 X52.1361 Y23.1630 
G01 X52.1361 Y13.0869 
G01 X52.1112 Y12.9943 
G01 X52.0633 Y12.9112 
G01 X51.9954 Y12.8433 
G01 X50.3689 Y11.2168 
G01 X50.2858 Y11.1688 
G01 X50.1931 Y11.1440 
G01 X46.3578 Y11.1440 
G01 X46.3578 Y10.2581 
G01 X46.5654 Y10.2581 
G01 X46.6059 Y10.2413 
G01 X46.6370 Y10.2103 
G01 X46.6538 Y10.1697 
G01 X46.6538 Y9.1258 
G01 X46.6370 Y9.0852 
G01 X46.6059 Y9.0541 
G01 X46.5654 Y9.0373 
G01 X45.4215 Y9.0373 
G01 X45.3809 Y9.0541 
G01 X45.3498 Y9.0852 
G01 X45.3330 Y9.1258 
G01 X45.3330 Y10.1697 
G01 X45.3498 Y10.2103 
G01 X45.3809 Y10.2413 
G01 X45.4215 Y10.2581 
G01 X45.6290 Y10.2581 
G01 X45.6290 Y11.1440 
G01 X43.7879 Y11.1440 
G01 X43.7879 Y10.7864 
G01 X43.7711 Y10.7458 
G01 X43.7401 Y10.7148 
G01 X43.6995 Y10.6980 
G01 X42.6556 Y10.6980 
G01 X42.6150 Y10.7148 
G01 X42.5839 Y10.7458 
G01 X42.5671 Y10.7864 
G01 X42.5671 Y12.2303 
G01 X42.5839 Y12.2709 
G01 X42.6150 Y12.3020 
G01 X42.6556 Y12.3188 
G01 X43.6995 Y12.3188 
G01 X43.7401 Y12.3020 
G01 X43.7711 Y12.2709 
G01 X43.7879 Y12.2303 
G01 X43.7879 Y11.8728 
G01 X45.8133 Y11.8728 
G01 X42.9685 Y14.7176 
G01 X42.6644 Y14.7176 
G01 X42.5847 Y14.7390 
G01 X42.5132 Y14.7803 
G01 X42.4548 Y14.8387 
G01 X41.6503 Y15.6432 
G01 X40.7540 Y15.6432 
G01 X40.7134 Y15.6600 
G01 X40.6823 Y15.6911 
G01 X40.6655 Y15.7316 
G01 X40.6655 Y16.7755 
G01 X40.6823 Y16.8161 
G01 X40.7134 Y16.8472 
G01 X40.7540 Y16.8640 
G01 X41.8979 Y16.8640 
G01 X41.9385 Y16.8472 
G01 X41.9695 Y16.8161 
G01 X41.9863 Y16.7755 
G01 X41.9863 Y16.1941 
G01 X42.8356 Y15.3448 
G01 X43.1396 Y15.3448 
G01 X43.2194 Y15.3235 
G01 X43.2909 Y15.2822 
G01 X46.7003 Y11.8728 
G01 X49.9942 Y11.8728 
G01 X51.4073 Y13.2859 
G01 X51.4073 Y22.9749 
G01 X50.9851 Y23.2494 
G01 X50.9581 Y23.2634 
G01 X50.9450 Y23.2754 
G01 X50.9302 Y23.2851 
G01 X50.9098 Y23.3077 
G01 X50.3829 Y23.7909 
G01 X50.3586 Y23.8092 
G01 X50.3477 Y23.8232 
G01 X50.3347 Y23.8352 
G01 X50.3183 Y23.8609 
G01 X49.8783 Y24.4243 
G01 X49.8574 Y24.4464 
G01 X49.8489 Y24.4620 
G01 X49.8380 Y24.4760 
G01 X49.8261 Y24.5040 
G01 X49.4852 Y25.1323 
G01 X49.4682 Y25.1576 
G01 X49.4624 Y25.1743 
G01 X49.4539 Y25.1899 
G01 X49.4468 Y25.2195 
G01 X49.2142 Y25.8955 
G01 X49.2016 Y25.9232 
G01 X49.1987 Y25.9407 
G01 X49.1929 Y25.9574 
G01 X49.1908 Y25.9878 
G01 X49.1148 Y26.4421 
G01 X48.7919 Y26.7650 
G01 X47.8249 Y26.7650 
G01 X47.7843 Y26.7818 
G01 X47.7532 Y26.8129 
G01 X47.7364 Y26.8535 
G01 X47.7364 Y27.0110 
G01 X44.2466 Y27.0110 
G01 X43.5548 Y26.3193 
G01 X43.4870 Y26.2514 
G01 X43.4787 Y26.2466 
G01 X44.8963 Y24.8290 
G01 X44.9443 Y24.7459 
G01 X44.9691 Y24.6533 
G01 X44.9691 Y22.6925 
G01 X44.9443 Y22.5998 
G01 X44.8963 Y22.5167 
G01 X44.8285 Y22.4489 
G01 X43.6989 Y21.3193 
G01 X43.7670 Y21.3193 
G01 X43.8076 Y21.3025 
G01 X43.8386 Y21.2714 
G01 X43.8555 Y21.2309 
G01 X43.8555 Y19.7869 
G01 X43.8386 Y19.7464 
G01 X43.8076 Y19.7153 
G01 X43.7670 Y19.6985 
G01 X42.7231 Y19.6985 
G01 X42.6825 Y19.7153 
G01 X42.6515 Y19.7464 
G01 X42.6347 Y19.7869 
G01 X42.6347 Y21.2309 
G01 X42.6515 Y21.2714 
G01 X42.6825 Y21.3025 
G01 X42.7231 Y21.3193 
G01 X42.8807 Y21.3193 
G01 X42.8807 Y21.4288 
G01 X42.9055 Y21.5215 
G01 X42.9535 Y21.6046 
G01 X44.2403 Y22.8914 
G01 X44.2403 Y24.4544 
G01 X42.5161 Y26.1786 
G01 X26.4786 Y26.1786 
G01 X26.3859 Y26.2034 
G01 X26.3028 Y26.2514 
G01 X24.9492 Y27.6050 
G01 X24.9130 Y27.5865 
G01 X24.7557 Y27.5354 
G01 X24.5925 Y27.5096 
G01 X24.4272 Y27.5096 
G01 X24.2639 Y27.5354 
G01 X24.1067 Y27.5865 
G01 X23.9594 Y27.6615 
G01 X23.8257 Y27.7587 
G01 X23.7088 Y27.8756 
G01 X23.6116 Y28.0093 
G01 X23.5366 Y28.1566 
G01 X23.4855 Y28.3138 
G01 X23.4596 Y28.4771 
G01 X23.4596 Y28.6424 
G01 X23.4855 Y28.8057 
G01 X23.5366 Y28.9629 
G01 X23.6116 Y29.1102 
G01 X23.7088 Y29.2439 
G01 X23.8257 Y29.3608 
G01 X23.9594 Y29.4580 
G01 X24.1067 Y29.5330 
G01 X24.2639 Y29.5841 
G01 X24.3752 Y29.6017 
G01 X24.3752 Y30.6189 
G01 X24.1684 Y30.6189 
G01 X24.1279 Y30.6357 
G01 X24.0968 Y30.6668 
G01 X24.0800 Y30.7073 
G01 X24.0800 Y33.7513 
G01 X24.0968 Y33.7918 
G01 X24.1279 Y33.8229 
G01 X24.1684 Y33.8397 
G01 X24.3752 Y33.8397 
G01 X24.3752 Y37.7608 
G01 X22.0066 Y40.1294 
G01 X18.6514 Y40.1294 
G01 X18.6109 Y40.1462 
G01 X18.5798 Y40.1772 
G01 X18.5630 Y40.2178 
G01 X18.5630 Y43.6448 
G01 X18.2479 Y43.9599 
G01 X18.1999 Y44.0430 
G01 X18.1751 Y44.1357 
G01 X18.1751 Y45.0745 
G01 X18.0175 Y45.0745 
G01 X17.9769 Y45.0913 
G01 X17.9459 Y45.1223 
G01 X17.9291 Y45.1629 
G01 X17.9291 Y46.3068 
G01 X17.9459 Y46.3474 
G01 X17.9769 Y46.3785 
G01 X18.0175 Y46.3953 
G01 X19.0614 Y46.3953 
G01 X19.1020 Y46.3785 
G01 X19.1331 Y46.3474 
G01 X19.1499 Y46.3068 
G01 X19.1499 Y45.1629 
G01 X19.1331 Y45.1223 
G01 X19.1020 Y45.0913 
G01 X19.0614 Y45.0745 
G01 X18.9039 Y45.0745 
G01 X18.9039 Y44.3346 
G01 X19.0783 Y44.1602 
G01 X19.6145 Y44.1602 
G01 X19.6145 Y48.4627 
G01 X18.7660 Y48.4627 
G01 X18.6733 Y48.4876 
G01 X18.5902 Y48.5355 
G01 X18.5224 Y48.6034 
G01 X17.3366 Y49.7892 
G01 X17.0302 Y49.7892 
G01 X17.0302 Y49.0140 
G01 X17.0134 Y48.9735 
G01 X16.9824 Y48.9424 
G01 X16.9418 Y48.9256 
G01 X15.6787 Y48.9256 
G01 X15.6381 Y48.9424 
G01 X15.6070 Y48.9735 
G01 X15.5902 Y49.0140 
G01 X15.5902 Y51.2932 
G01 X15.6070 Y51.3337 
G01 X15.6381 Y51.3648 
G01 X15.6787 Y51.3816 
G01 X16.9418 Y51.3816 
G01 X16.9824 Y51.3648 
G01 X17.0134 Y51.3337 
G01 X17.0302 Y51.2932 
G01 X17.0302 Y50.5180 
G01 X17.5355 Y50.5180 
G01 X17.6282 Y50.4932 
G01 X17.7113 Y50.4452 
G01 X18.9649 Y49.1915 
G01 X21.4905 Y49.1915 
G01 X21.4905 Y49.3491 
G01 X21.5073 Y49.3897 
G01 X21.5384 Y49.4207 
G01 X21.5790 Y49.4375 
G01 X22.7229 Y49.4375 
G01 X22.7635 Y49.4207 
G01 X22.7945 Y49.3897 
G01 X22.8113 Y49.3491 
G01 X22.8113 Y48.3052 
G01 X22.7945 Y48.2646 
G01 X22.7635 Y48.2335 
G01 X22.7229 Y48.2167 
G01 X21.5790 Y48.2167 
G01 X21.5384 Y48.2335 
G01 X21.5073 Y48.2646 
G01 X21.4905 Y48.3052 
G01 X21.4905 Y48.4627 
G01 X20.3433 Y48.4627 
G01 X20.3433 Y44.1602 
G01 X22.5054 Y44.1602 
G01 X22.5459 Y44.1434 
G01 X22.5770 Y44.1123 
G01 X22.5938 Y44.0717 
G01 X22.5938 Y40.7166 
G01 X25.1226 Y38.1877 
G01 X25.1773 Y38.0930 
G01 X25.2056 Y37.9874 
G01 X25.2056 Y33.8397 
G01 X25.4124 Y33.8397 
G01 X25.4529 Y33.8229 
G01 X25.4840 Y33.7918 
G01 X25.5008 Y33.7513 
G01 X25.5008 Y30.7073 
G01 X25.4840 Y30.6668 
G01 X25.4529 Y30.6357 
G01 X25.4124 Y30.6189 
G01 X25.2056 Y30.6189 
G01 X25.2056 Y29.3492 
G01 X25.3109 Y29.2439 
G01 X25.4080 Y29.1102 
G01 X25.4831 Y28.9629 
G01 X25.5342 Y28.8057 
G01 X25.5600 Y28.6424 
G01 X25.5600 Y28.4771 
G01 X25.5342 Y28.3138 
G01 X25.4831 Y28.1566 
G01 X25.4646 Y28.1203 
G01 X26.6775 Y26.9074 
G00 Z2.5400 
G00 X31.3288 Y27.8756 
G01 Z-0.1778 F254.00 
G01 X31.2316 Y28.0093 F508.00 
G01 X31.1566 Y28.1566 
G01 X31.1055 Y28.3138 
G01 X31.0796 Y28.4771 
G01 X31.0796 Y28.6424 
G01 X31.1055 Y28.8057 
G01 X31.1566 Y28.9629 
G01 X31.1751 Y28.9992 
G01 X30.4988 Y29.6754 
G01 X30.4508 Y29.7585 
G01 X30.4260 Y29.8512 
G01 X30.4260 Y30.6189 
G01 X30.1684 Y30.6189 
G01 X30.1279 Y30.6357 
G01 X30.0968 Y30.6668 
G01 X30.0800 Y30.7073 
G01 X30.0800 Y33.7513 
G01 X30.0968 Y33.7918 
G01 X30.1279 Y33.8229 
G01 X30.1684 Y33.8397 
G01 X30.6240 Y33.8397 
G01 X30.6240 Y35.1237 
G01 X30.6489 Y35.2164 
G01 X30.6968 Y35.2995 
G01 X30.7647 Y35.3673 
G01 X31.3037 Y35.9064 
G01 X31.3868 Y35.9543 
G01 X31.4795 Y35.9792 
G01 X38.3504 Y35.9792 
G01 X38.4431 Y35.9543 
G01 X38.5262 Y35.9064 
G01 X38.5941 Y35.8385 
G01 X43.8679 Y30.5647 
G01 X43.9158 Y30.4816 
G01 X43.9407 Y30.3889 
G01 X43.9407 Y30.0673 
G01 X44.3699 Y29.6381 
G01 X45.0387 Y29.6381 
G01 X45.0387 Y29.7957 
G01 X45.0555 Y29.8363 
G01 X45.0866 Y29.8673 
G01 X45.1271 Y29.8841 
G01 X46.2710 Y29.8841 
G01 X46.3116 Y29.8673 
G01 X46.3427 Y29.8363 
G01 X46.3595 Y29.7957 
G01 X46.3595 Y29.6381 
G01 X47.7485 Y29.6381 
G01 X48.1777 Y30.0673 
G01 X48.1777 Y30.5650 
G01 X47.8249 Y30.5650 
G01 X47.7843 Y30.5818 
G01 X47.7532 Y30.6129 
G01 X47.7364 Y30.6535 
G01 X47.7364 Y31.6974 
G01 X47.7532 Y31.7380 
G01 X47.7843 Y31.7690 
G01 X47.8249 Y31.7858 
G01 X49.5688 Y31.7858 
G01 X49.6094 Y31.7690 
G01 X49.6404 Y31.7380 
G01 X49.6572 Y31.6974 
G01 X49.6572 Y30.6535 
G01 X49.6404 Y30.6129 
G01 X49.6094 Y30.5818 
G01 X49.5688 Y30.5650 
G01 X48.9065 Y30.5650 
G01 X48.9065 Y29.8684 
G01 X48.8817 Y29.7757 
G01 X48.8337 Y29.6927 
G01 X48.7659 Y29.6248 
G01 X48.1232 Y28.9821 
G01 X48.0401 Y28.9342 
G01 X47.9474 Y28.9093 
G01 X46.3595 Y28.9093 
G01 X46.3595 Y28.7518 
G01 X46.3427 Y28.7112 
G01 X46.3116 Y28.6801 
G01 X46.2710 Y28.6633 
G01 X45.1271 Y28.6633 
G01 X45.0866 Y28.6801 
G01 X45.0555 Y28.7112 
G01 X45.0387 Y28.7518 
G01 X45.0387 Y28.9093 
G01 X44.1710 Y28.9093 
G01 X44.0783 Y28.9342 
G01 X43.9952 Y28.9821 
G01 X43.3525 Y29.6248 
G01 X43.2847 Y29.6927 
G01 X43.2367 Y29.7757 
G01 X43.2119 Y29.8684 
G01 X43.2119 Y30.1900 
G01 X38.1515 Y35.2504 
G01 X31.6784 Y35.2504 
G01 X31.3528 Y34.9248 
G01 X31.3528 Y33.8397 
G01 X31.4124 Y33.8397 
G01 X31.4529 Y33.8229 
G01 X31.4840 Y33.7918 
G01 X31.5008 Y33.7513 
G01 X31.5008 Y30.7073 
G01 X31.4840 Y30.6668 
G01 X31.4529 Y30.6357 
G01 X31.4124 Y30.6189 
G01 X31.1548 Y30.6189 
G01 X31.1548 Y30.0501 
G01 X31.6904 Y29.5145 
G01 X31.7267 Y29.5330 
G01 X31.8839 Y29.5841 
G01 X32.0472 Y29.6100 
G01 X32.2125 Y29.6100 
G01 X32.3757 Y29.5841 
G01 X32.5330 Y29.5330 
G01 X32.6802 Y29.4580 
G01 X32.8140 Y29.3608 
G01 X32.9309 Y29.2439 
G01 X33.0280 Y29.1102 
G01 X33.1031 Y28.9629 
G01 X33.1542 Y28.8057 
G01 X33.1800 Y28.6424 
G01 X33.1800 Y28.4771 
G01 X33.1542 Y28.3138 
G01 X33.1031 Y28.1566 
G01 X33.0280 Y28.0093 
G01 X32.9309 Y27.8756 
G01 X32.8140 Y27.7587 
G01 X32.6802 Y27.6615 
G01 X32.5330 Y27.5865 
G01 X32.3757 Y27.5354 
G01 X32.2125 Y27.5096 
G01 X32.0472 Y27.5096 
G01 X31.8839 Y27.5354 
G01 X31.7267 Y27.5865 
G01 X31.5794 Y27.6615 
G01 X31.4457 Y27.7587 
G01 X31.3288 Y27.8756 
G00 Z2.5400 
G00 X33.8688 Y27.8756 
G01 Z-0.1778 F254.00 
G01 X33.7716 Y28.0093 F508.00 
G01 X33.6966 Y28.1566 
G01 X33.6455 Y28.3138 
G01 X33.6196 Y28.4771 
G01 X33.6196 Y28.6424 
G01 X33.6455 Y28.8057 
G01 X33.6966 Y28.9629 
G01 X33.7151 Y28.9992 
G01 X33.3971 Y29.3172 
G01 X32.4988 Y30.2154 
G01 X32.4508 Y30.2985 
G01 X32.4260 Y30.3912 
G01 X32.4260 Y30.6189 
G01 X32.1684 Y30.6189 
G01 X32.1279 Y30.6357 
G01 X32.0968 Y30.6668 
G01 X32.0800 Y30.7073 
G01 X32.0800 Y33.7513 
G01 X32.0968 Y33.7918 
G01 X32.1279 Y33.8229 
G01 X32.1684 Y33.8397 
G01 X33.4124 Y33.8397 
G01 X33.4529 Y33.8229 
G01 X33.4840 Y33.7918 
G01 X33.5008 Y33.7513 
G01 X33.5008 Y30.7073 
G01 X33.4840 Y30.6668 
G01 X33.4529 Y30.6357 
G01 X33.4124 Y30.6189 
G01 X33.1548 Y30.6189 
G01 X33.1548 Y30.5901 
G01 X33.9124 Y29.8325 
G01 X34.2304 Y29.5145 
G01 X34.2667 Y29.5330 
G01 X34.4239 Y29.5841 
G01 X34.5872 Y29.6100 
G01 X34.7525 Y29.6100 
G01 X34.9157 Y29.5841 
G01 X35.0730 Y29.5330 
G01 X35.2202 Y29.4580 
G01 X35.3540 Y29.3608 
G01 X35.4709 Y29.2439 
G01 X35.5680 Y29.1102 
G01 X35.6431 Y28.9629 
G01 X35.6942 Y28.8057 
G01 X35.7200 Y28.6424 
G01 X35.7200 Y28.4771 
G01 X35.6942 Y28.3138 
G01 X35.6431 Y28.1566 
G01 X35.5680 Y28.0093 
G01 X35.4709 Y27.8756 
G01 X35.3540 Y27.7587 
G01 X35.2202 Y27.6615 
G01 X35.0730 Y27.5865 
G01 X34.9157 Y27.5354 
G01 X34.7525 Y27.5096 
G01 X34.5872 Y27.5096 
G01 X34.4239 Y27.5354 
G01 X34.2667 Y27.5865 
G01 X34.1194 Y27.6615 
G01 X33.9857 Y27.7587 
G01 X33.8688 Y27.8756 
G00 Z2.5400 
G00 X36.4088 Y27.8756 
G01 Z-0.1778 F254.00 
G01 X36.3116 Y28.0093 F508.00 
G01 X36.2366 Y28.1566 
G01 X36.1855 Y28.3138 
G01 X36.1596 Y28.4771 
G01 X36.1596 Y28.6424 
G01 X36.1855 Y28.8057 
G01 X36.2366 Y28.9629 
G01 X36.2551 Y28.9992 
G01 X34.6353 Y30.6189 
G01 X34.1684 Y30.6189 
G01 X34.1279 Y30.6357 
G01 X34.0968 Y30.6668 
G01 X34.0800 Y30.7073 
G01 X34.0800 Y33.7513 
G01 X34.0968 Y33.7918 
G01 X34.1279 Y33.8229 
G01 X34.1684 Y33.8397 
G01 X35.4124 Y33.8397 
G01 X35.4529 Y33.8229 
G01 X35.4840 Y33.7918 
G01 X35.5008 Y33.7513 
G01 X35.5008 Y30.7841 
G01 X36.7704 Y29.5145 
G01 X36.8067 Y29.5330 
G01 X36.9639 Y29.5841 
G01 X37.1272 Y29.6100 
G01 X37.2925 Y29.6100 
G01 X37.4557 Y29.5841 
G01 X37.6130 Y29.5330 
G01 X37.7602 Y29.4580 
G01 X37.8940 Y29.3608 
G01 X38.0109 Y29.2439 
G01 X38.1080 Y29.1102 
G01 X38.1831 Y28.9629 
G01 X38.2342 Y28.8057 
G01 X38.2600 Y28.6424 
G01 X38.2600 Y28.4771 
G01 X38.2342 Y28.3138 
G01 X38.1831 Y28.1566 
G01 X38.1080 Y28.0093 
G01 X38.0109 Y27.8756 
G01 X37.8940 Y27.7587 
G01 X37.7602 Y27.6615 
G01 X37.6130 Y27.5865 
G01 X37.4557 Y27.5354 
G01 X37.2925 Y27.5096 
G01 X37.1272 Y27.5096 
G01 X36.9639 Y27.5354 
G01 X36.8067 Y27.5865 
G01 X36.6594 Y27.6615 
G01 X36.5257 Y27.7587 
G01 X36.4088 Y27.8756 
G00 Z2.5400 
G00 X38.9488 Y27.8756 
G01 Z-0.1778 F254.00 
G01 X38.8516 Y28.0093 F508.00 
G01 X38.7766 Y28.1566 
G01 X38.7255 Y28.3138 
G01 X38.6996 Y28.4771 
G01 X38.6996 Y28.6424 
G01 X38.7255 Y28.8057 
G01 X38.7766 Y28.9629 
G01 X38.7951 Y28.9992 
G01 X37.1753 Y30.6189 
G01 X36.1684 Y30.6189 
G01 X36.1279 Y30.6357 
G01 X36.0968 Y30.6668 
G01 X36.0800 Y30.7073 
G01 X36.0800 Y33.7513 
G01 X36.0968 Y33.7918 
G01 X36.1279 Y33.8229 
G01 X36.1684 Y33.8397 
G01 X37.4124 Y33.8397 
G01 X37.4529 Y33.8229 
G01 X37.4840 Y33.7918 
G01 X37.5008 Y33.7513 
G01 X37.5008 Y31.3241 
G01 X38.0800 Y30.7449 
G01 X38.0800 Y33.7513 
G01 X38.0968 Y33.7918 
G01 X38.1279 Y33.8229 
G01 X38.1684 Y33.8397 
G01 X39.4124 Y33.8397 
G01 X39.4529 Y33.8229 
G01 X39.4840 Y33.7918 
G01 X39.5008 Y33.7513 
G01 X39.5008 Y31.8641 
G01 X41.8504 Y29.5145 
G01 X41.8867 Y29.5330 
G01 X42.0439 Y29.5841 
G01 X42.2072 Y29.6100 
G01 X42.3725 Y29.6100 
G01 X42.5357 Y29.5841 
G01 X42.6930 Y29.5330 
G01 X42.8402 Y29.4580 
G01 X42.9740 Y29.3608 
G01 X43.0909 Y29.2439 
G01 X43.1880 Y29.1102 
G01 X43.2631 Y28.9629 
G01 X43.3142 Y28.8057 
G01 X43.3400 Y28.6424 
G01 X43.3400 Y28.4771 
G01 X43.3142 Y28.3138 
G01 X43.2631 Y28.1566 
G01 X43.1880 Y28.0093 
G01 X43.0909 Y27.8756 
G01 X42.9740 Y27.7587 
G01 X42.8402 Y27.6615 
G01 X42.6930 Y27.5865 
G01 X42.5357 Y27.5354 
G01 X42.3725 Y27.5096 
G01 X42.2072 Y27.5096 
G01 X42.0439 Y27.5354 
G01 X41.8867 Y27.5865 
G01 X41.7394 Y27.6615 
G01 X41.6057 Y27.7587 
G01 X41.4888 Y27.8756 
G01 X41.3916 Y28.0093 
G01 X41.3166 Y28.1566 
G01 X41.2655 Y28.3138 
G01 X41.2396 Y28.4771 
G01 X41.2396 Y28.6424 
G01 X41.2655 Y28.8057 
G01 X41.3166 Y28.9629 
G01 X41.3351 Y28.9992 
G01 X39.5008 Y30.8334 
G01 X39.5008 Y30.7073 
G01 X39.4840 Y30.6668 
G01 X39.4529 Y30.6357 
G01 X39.4124 Y30.6189 
G01 X38.2060 Y30.6189 
G01 X39.3104 Y29.5145 
G01 X39.3467 Y29.5330 
G01 X39.5039 Y29.5841 
G01 X39.6672 Y29.6100 
G01 X39.8325 Y29.6100 
G01 X39.9957 Y29.5841 
G01 X40.1530 Y29.5330 
G01 X40.3002 Y29.4580 
G01 X40.4340 Y29.3608 
G01 X40.5509 Y29.2439 
G01 X40.6480 Y29.1102 
G01 X40.7231 Y28.9629 
G01 X40.7742 Y28.8057 
G01 X40.8000 Y28.6424 
G01 X40.8000 Y28.4771 
G01 X40.7742 Y28.3138 
G01 X40.7231 Y28.1566 
G01 X40.6480 Y28.0093 
G01 X40.5509 Y27.8756 
G01 X40.4340 Y27.7587 
G01 X40.3002 Y27.6615 
G01 X40.1530 Y27.5865 
G01 X39.9957 Y27.5354 
G01 X39.8325 Y27.5096 
G01 X39.6672 Y27.5096 
G01 X39.5039 Y27.5354 
G01 X39.3467 Y27.5865 
G01 X39.1994 Y27.6615 
G01 X39.0657 Y27.7587 
G01 X38.9488 Y27.8756 
G00 Z2.5400 
G00 X37.0214 Y25.1180 
G01 Z-0.1778 F254.00 
G01 X41.0008 Y25.1180 F508.00 
G01 X41.0935 Y25.0932 
G01 X41.1766 Y25.0452 
G01 X42.5866 Y23.6351 
G01 X42.6346 Y23.5521 
G01 X42.6434 Y23.5193 
G01 X42.8170 Y23.5193 
G01 X42.8576 Y23.5025 
G01 X42.8886 Y23.4714 
G01 X42.9055 Y23.4309 
G01 X42.9055 Y21.9869 
G01 X42.8886 Y21.9464 
G01 X42.8576 Y21.9153 
G01 X42.8170 Y21.8985 
G01 X41.7731 Y21.8985 
G01 X41.7325 Y21.9153 
G01 X41.7015 Y21.9464 
G01 X41.6847 Y21.9869 
G01 X41.6847 Y23.4309 
G01 X41.7015 Y23.4714 
G01 X41.7106 Y23.4805 
G01 X40.8019 Y24.3892 
G01 X37.2204 Y24.3892 
G01 X36.2916 Y23.4605 
G01 X36.3103 Y23.4154 
G01 X36.3435 Y23.2484 
G01 X36.3435 Y23.0781 
G01 X36.3103 Y22.9111 
G01 X36.2451 Y22.7538 
G01 X36.1505 Y22.6122 
G01 X36.0301 Y22.4918 
G01 X35.8886 Y22.3972 
G01 X35.7312 Y22.3321 
G01 X35.5642 Y22.2989 
G01 X35.3940 Y22.2989 
G01 X35.2270 Y22.3321 
G01 X35.0697 Y22.3972 
G01 X34.9281 Y22.4918 
G01 X34.8077 Y22.6122 
G01 X34.7131 Y22.7538 
G01 X34.6479 Y22.9111 
G01 X34.6147 Y23.0781 
G01 X34.6147 Y23.2484 
G01 X34.6479 Y23.4154 
G01 X34.7131 Y23.5727 
G01 X34.8077 Y23.7143 
G01 X34.9281 Y23.8347 
G01 X35.0697 Y23.9293 
G01 X35.2270 Y23.9945 
G01 X35.3940 Y24.0277 
G01 X35.5642 Y24.0277 
G01 X35.7312 Y23.9945 
G01 X35.7763 Y23.9758 
G01 X36.8457 Y25.0452 
G01 X36.9288 Y25.0932 
G01 X37.0214 Y25.1180 
G00 Z2.5400 
G00 X40.7825 Y21.3025 
G01 Z-0.1778 F254.00 
G01 X40.8231 Y21.3193 F508.00 
G01 X41.8670 Y21.3193 
G01 X41.9076 Y21.3025 
G01 X41.9386 Y21.2714 
G01 X41.9555 Y21.2309 
G01 X41.9555 Y19.7869 
G01 X41.9386 Y19.7464 
G01 X41.9076 Y19.7153 
G01 X41.8670 Y19.6985 
G01 X41.6903 Y19.6985 
G01 X41.6903 Y18.5640 
G01 X41.8979 Y18.5640 
G01 X41.9385 Y18.5472 
G01 X41.9695 Y18.5161 
G01 X41.9863 Y18.4755 
G01 X41.9863 Y18.2864 
G01 X43.2714 Y18.2864 
G01 X43.2714 Y18.4439 
G01 X43.2882 Y18.4845 
G01 X43.3192 Y18.5156 
G01 X43.3598 Y18.5324 
G01 X44.5037 Y18.5324 
G01 X44.5443 Y18.5156 
G01 X44.5753 Y18.4845 
G01 X44.5921 Y18.4439 
G01 X44.5921 Y17.4000 
G01 X44.5753 Y17.3594 
G01 X44.5443 Y17.3284 
G01 X44.5037 Y17.3116 
G01 X43.3598 Y17.3116 
G01 X43.3192 Y17.3284 
G01 X43.2882 Y17.3594 
G01 X43.2714 Y17.4000 
G01 X43.2714 Y17.5576 
G01 X41.9863 Y17.5576 
G01 X41.9863 Y17.4316 
G01 X41.9695 Y17.3910 
G01 X41.9385 Y17.3600 
G01 X41.8979 Y17.3432 
G01 X40.7540 Y17.3432 
G01 X40.7134 Y17.3600 
G01 X40.6823 Y17.3910 
G01 X40.6655 Y17.4316 
G01 X40.6655 Y18.4755 
G01 X40.6823 Y18.5161 
G01 X40.7134 Y18.5472 
G01 X40.7540 Y18.5640 
G01 X40.9615 Y18.5640 
G01 X40.9615 Y19.6985 
G01 X40.8231 Y19.6985 
G01 X40.7825 Y19.7153 
G01 X40.7515 Y19.7464 
G01 X40.7347 Y19.7869 
G01 X40.7347 Y21.2309 
G01 X40.7515 Y21.2714 
G01 X40.7825 Y21.3025 
G00 Z2.5400 
G00 X43.3192 Y16.8156 
G01 Z-0.1778 F254.00 
G01 X43.3598 Y16.8324 F508.00 
G01 X44.5037 Y16.8324 
G01 X44.5443 Y16.8156 
G01 X44.5753 Y16.7845 
G01 X44.5921 Y16.7439 
G01 X44.5921 Y16.5864 
G01 X46.4366 Y16.5864 
G01 X46.4442 Y16.6343 
G01 X46.4953 Y16.7915 
G01 X46.5703 Y16.9388 
G01 X46.6675 Y17.0725 
G01 X46.7844 Y17.1894 
G01 X46.9181 Y17.2866 
G01 X47.0654 Y17.3616 
G01 X47.2226 Y17.4127 
G01 X47.3859 Y17.4386 
G01 X47.5512 Y17.4386 
G01 X47.7145 Y17.4127 
G01 X47.8717 Y17.3616 
G01 X48.0190 Y17.2866 
G01 X48.1527 Y17.1894 
G01 X48.2696 Y17.0725 
G01 X48.3667 Y16.9388 
G01 X48.4418 Y16.7915 
G01 X48.4929 Y16.6343 
G01 X48.5187 Y16.4710 
G01 X48.5187 Y16.3057 
G01 X48.4929 Y16.1424 
G01 X48.4418 Y15.9852 
G01 X48.3667 Y15.8379 
G01 X48.2696 Y15.7042 
G01 X48.1527 Y15.5873 
G01 X48.0190 Y15.4901 
G01 X47.8717 Y15.4151 
G01 X47.7145 Y15.3640 
G01 X47.5512 Y15.3382 
G01 X47.3859 Y15.3382 
G01 X47.2226 Y15.3640 
G01 X47.0654 Y15.4151 
G01 X46.9181 Y15.4901 
G01 X46.7844 Y15.5873 
G01 X46.6675 Y15.7042 
G01 X46.5703 Y15.8379 
G01 X46.5603 Y15.8576 
G01 X44.5921 Y15.8576 
G01 X44.5921 Y15.7000 
G01 X44.5753 Y15.6594 
G01 X44.5443 Y15.6284 
G01 X44.5037 Y15.6116 
G01 X43.3598 Y15.6116 
G01 X43.3192 Y15.6284 
G01 X43.2882 Y15.6594 
G01 X43.2714 Y15.7000 
G01 X43.2714 Y16.7439 
G01 X43.2882 Y16.7845 
G01 X43.3192 Y16.8156 
G00 Z2.5400 
G00 X41.8711 Y12.2709 
G01 Z-0.1778 F254.00 
G01 X41.8879 Y12.2303 F508.00 
G01 X41.8879 Y10.9869 
G01 X43.3006 Y9.5742 
G01 X43.3685 Y9.5063 
G01 X43.4165 Y9.4232 
G01 X43.4413 Y9.3306 
G01 X43.4413 Y8.6461 
G01 X43.5738 Y8.6461 
G01 X43.6144 Y8.6293 
G01 X43.6455 Y8.5982 
G01 X43.6623 Y8.5577 
G01 X43.6623 Y8.3121 
G01 X45.3330 Y8.3121 
G01 X45.3330 Y8.4697 
G01 X45.3498 Y8.5103 
G01 X45.3809 Y8.5413 
G01 X45.4215 Y8.5581 
G01 X46.5654 Y8.5581 
G01 X46.6059 Y8.5413 
G01 X46.6370 Y8.5103 
G01 X46.6538 Y8.4697 
G01 X46.6538 Y7.4258 
G01 X46.6370 Y7.3852 
G01 X46.6059 Y7.3541 
G01 X46.5654 Y7.3373 
G01 X45.4215 Y7.3373 
G01 X45.3809 Y7.3541 
G01 X45.3498 Y7.3852 
G01 X45.3330 Y7.4258 
G01 X45.3330 Y7.5833 
G01 X43.6623 Y7.5833 
G01 X43.6623 Y7.4137 
G01 X43.6455 Y7.3732 
G01 X43.6144 Y7.3421 
G01 X43.5738 Y7.3253 
G01 X42.5299 Y7.3253 
G01 X42.4893 Y7.3421 
G01 X42.4583 Y7.3732 
G01 X42.4415 Y7.4137 
G01 X42.4415 Y8.5577 
G01 X42.4583 Y8.5982 
G01 X42.4893 Y8.6293 
G01 X42.5299 Y8.6461 
G01 X42.7125 Y8.6461 
G01 X42.7125 Y9.1317 
G01 X41.1462 Y10.6980 
G01 X40.7556 Y10.6980 
G01 X40.7150 Y10.7148 
G01 X40.6839 Y10.7458 
G01 X40.6671 Y10.7864 
G01 X40.6671 Y12.2303 
G01 X40.6839 Y12.2709 
G01 X40.7150 Y12.3020 
G01 X40.7556 Y12.3188 
G01 X41.7995 Y12.3188 
G01 X41.8401 Y12.3020 
G01 X41.8711 Y12.2709 
G00 Z2.5400 
G00 X41.8738 Y8.6461 
G01 Z-0.1778 F254.00 
G01 X41.9144 Y8.6293 F508.00 
G01 X41.9455 Y8.5982 
G01 X41.9623 Y8.5577 
G01 X41.9623 Y7.4137 
G01 X41.9455 Y7.3732 
G01 X41.9144 Y7.3421 
G01 X41.8738 Y7.3253 
G01 X41.7163 Y7.3253 
G01 X41.7163 Y4.9466 
G01 X41.8468 Y4.9041 
G01 X41.9941 Y4.8291 
G01 X42.1278 Y4.7319 
G01 X42.2447 Y4.6150 
G01 X42.3419 Y4.4813 
G01 X42.4169 Y4.3340 
G01 X42.4680 Y4.1768 
G01 X42.4939 Y4.0135 
G01 X42.4939 Y3.8482 
G01 X42.4680 Y3.6850 
G01 X42.4169 Y3.5277 
G01 X42.3419 Y3.3805 
G01 X42.2447 Y3.2467 
G01 X42.1278 Y3.1298 
G01 X41.9941 Y3.0327 
G01 X41.8468 Y2.9576 
G01 X41.6896 Y2.9065 
G01 X41.5263 Y2.8807 
G01 X41.3610 Y2.8807 
G01 X41.1978 Y2.9065 
G01 X41.0405 Y2.9576 
G01 X40.8933 Y3.0327 
G01 X40.7595 Y3.1298 
G01 X40.6426 Y3.2467 
G01 X40.5455 Y3.3805 
G01 X40.4704 Y3.5277 
G01 X40.4193 Y3.6850 
G01 X40.3935 Y3.8482 
G01 X40.3935 Y4.0135 
G01 X40.4193 Y4.1768 
G01 X40.4704 Y4.3340 
G01 X40.5455 Y4.4813 
G01 X40.6426 Y4.6150 
G01 X40.7595 Y4.7319 
G01 X40.8933 Y4.8291 
G01 X40.9875 Y4.8771 
G01 X40.9875 Y7.3253 
G01 X40.8299 Y7.3253 
G01 X40.7893 Y7.3421 
G01 X40.7583 Y7.3732 
G01 X40.7415 Y7.4137 
G01 X40.7415 Y8.5577 
G01 X40.7583 Y8.5982 
G01 X40.7893 Y8.6293 
G01 X40.8299 Y8.6461 
G01 X41.8738 Y8.6461 
G00 Z2.5400 
G00 X45.0555 Y30.4112 
G01 Z-0.1778 F254.00 
G01 X45.0387 Y30.4518 F508.00 
G01 X45.0387 Y30.6332 
G01 X45.0351 Y30.6342 
G01 X44.9520 Y30.6821 
G01 X44.8540 Y30.7801 
G01 X44.7862 Y30.8480 
G01 X34.9693 Y40.6648 
G01 X29.0700 Y40.6648 
G01 X28.9644 Y40.6931 
G01 X28.8698 Y40.7478 
G01 X24.7469 Y44.8706 
G01 X24.6696 Y44.9479 
G01 X24.6149 Y45.0426 
G01 X24.5866 Y45.1482 
G01 X24.5866 Y47.0189 
G01 X24.1684 Y47.0189 
G01 X24.1279 Y47.0357 
G01 X24.0968 Y47.0668 
G01 X24.0800 Y47.1073 
G01 X24.0800 Y48.4694 
G01 X21.5342 Y51.0151 
G01 X21.4412 Y50.9849 
G01 X21.2780 Y50.9591 
G01 X21.1126 Y50.9591 
G01 X20.9494 Y50.9849 
G01 X20.7922 Y51.0360 
G01 X20.6449 Y51.1110 
G01 X20.5111 Y51.2082 
G01 X20.3943 Y51.3251 
G01 X20.2971 Y51.4588 
G01 X20.2220 Y51.6061 
G01 X20.1710 Y51.7633 
G01 X20.1451 Y51.9266 
G01 X20.1451 Y52.0919 
G01 X20.1710 Y52.2552 
G01 X20.2220 Y52.4124 
G01 X20.2405 Y52.4487 
G01 X20.0508 Y52.6385 
G01 X14.6022 Y52.6385 
G01 X14.3632 Y52.3995 
G01 X14.3632 Y51.3816 
G01 X14.6304 Y51.3816 
G01 X14.6710 Y51.3648 
G01 X14.7020 Y51.3337 
G01 X14.7188 Y51.2932 
G01 X14.7188 Y49.0140 
G01 X14.7020 Y48.9735 
G01 X14.6710 Y48.9424 
G01 X14.6304 Y48.9256 
G01 X14.6155 Y48.9256 
G01 X15.7418 Y47.7993 
G01 X17.9291 Y47.7993 
G01 X17.9291 Y48.0068 
G01 X17.9459 Y48.0474 
G01 X17.9769 Y48.0785 
G01 X18.0175 Y48.0953 
G01 X19.0614 Y48.0953 
G01 X19.1020 Y48.0785 
G01 X19.1331 Y48.0474 
G01 X19.1499 Y48.0068 
G01 X19.1499 Y46.8629 
G01 X19.1331 Y46.8223 
G01 X19.1020 Y46.7913 
G01 X19.0614 Y46.7745 
G01 X18.0175 Y46.7745 
G01 X17.9769 Y46.7913 
G01 X17.9459 Y46.8223 
G01 X17.9291 Y46.8629 
G01 X17.9291 Y47.0705 
G01 X15.5429 Y47.0705 
G01 X15.4503 Y47.0953 
G01 X15.3672 Y47.1433 
G01 X13.8269 Y48.6835 
G01 X13.7591 Y48.7514 
G01 X13.7111 Y48.8345 
G01 X13.6867 Y48.9256 
G01 X13.3673 Y48.9256 
G01 X13.3267 Y48.9424 
G01 X13.2956 Y48.9735 
G01 X13.2788 Y49.0140 
G01 X13.2788 Y51.2932 
G01 X13.2956 Y51.3337 
G01 X13.3267 Y51.3648 
G01 X13.3673 Y51.3816 
G01 X13.6344 Y51.3816 
G01 X13.6344 Y52.5984 
G01 X13.6593 Y52.6911 
G01 X13.7072 Y52.7742 
G01 X14.1597 Y53.2266 
G01 X14.2275 Y53.2944 
G01 X14.3106 Y53.3424 
G01 X14.4033 Y53.3673 
G01 X20.2497 Y53.3673 
G01 X20.3424 Y53.3424 
G01 X20.4254 Y53.2944 
G01 X20.7559 Y52.9640 
G01 X20.7922 Y52.9825 
G01 X20.9494 Y53.0336 
G01 X21.1126 Y53.0595 
G01 X21.2780 Y53.0595 
G01 X21.4412 Y53.0336 
G01 X21.5984 Y52.9825 
G01 X21.6347 Y52.9640 
G01 X22.6852 Y54.0145 
G01 X22.7683 Y54.0624 
G01 X22.8609 Y54.0873 
G01 X40.1326 Y54.0873 
G01 X40.2253 Y54.0624 
G01 X40.3084 Y54.0145 
G01 X42.2360 Y52.0868 
G01 X42.2840 Y52.0038 
G01 X42.3088 Y51.9111 
G01 X42.3088 Y51.8540 
G01 X42.5164 Y51.8540 
G01 X42.5570 Y51.8372 
G01 X42.5880 Y51.8062 
G01 X42.6048 Y51.7656 
G01 X42.6048 Y50.7217 
G01 X42.5880 Y50.6811 
G01 X42.5570 Y50.6500 
G01 X42.5164 Y50.6332 
G01 X41.3725 Y50.6332 
G01 X41.3319 Y50.6500 
G01 X41.3008 Y50.6811 
G01 X41.2840 Y50.7217 
G01 X41.2840 Y51.7656 
G01 X41.3008 Y51.8062 
G01 X41.3319 Y51.8372 
G01 X41.3725 Y51.8540 
G01 X41.4382 Y51.8540 
G01 X39.9337 Y53.3585 
G01 X23.0598 Y53.3585 
G01 X22.1501 Y52.4487 
G01 X22.1686 Y52.4124 
G01 X22.2196 Y52.2552 
G01 X22.2455 Y52.0919 
G01 X22.2455 Y51.9266 
G01 X22.2196 Y51.7633 
G01 X22.1686 Y51.6061 
G01 X22.1029 Y51.4772 
G01 X24.0800 Y49.5000 
G01 X24.0800 Y50.1513 
G01 X24.0968 Y50.1918 
G01 X24.1279 Y50.2229 
G01 X24.1684 Y50.2397 
G01 X25.4124 Y50.2397 
G01 X25.4529 Y50.2229 
G01 X25.4840 Y50.1918 
G01 X25.5008 Y50.1513 
G01 X25.5008 Y47.1073 
G01 X25.4840 Y47.0668 
G01 X25.4529 Y47.0357 
G01 X25.4170 Y47.0208 
G01 X25.4170 Y45.3748 
G01 X29.2967 Y41.4952 
G01 X35.1241 Y41.4952 
G01 X35.2297 Y41.4669 
G01 X35.3244 Y41.4122 
G01 X35.4017 Y41.3349 
G01 X35.4563 Y41.2403 
G01 X35.4680 Y41.1968 
G01 X45.0777 Y31.5870 
G01 X45.4698 Y31.9791 
G01 X45.5529 Y32.0271 
G01 X45.6456 Y32.0519 
G01 X46.9284 Y32.0519 
G01 X48.4438 Y33.5674 
G01 X48.5269 Y33.6154 
G01 X48.6196 Y33.6402 
G01 X49.2578 Y33.6402 
G01 X49.2578 Y33.7978 
G01 X49.2746 Y33.8383 
G01 X49.3057 Y33.8694 
G01 X49.3463 Y33.8862 
G01 X50.4902 Y33.8862 
G01 X50.5308 Y33.8694 
G01 X50.5618 Y33.8383 
G01 X50.5786 Y33.7978 
G01 X50.5786 Y32.7538 
G01 X50.5618 Y32.7133 
G01 X50.5308 Y32.6822 
G01 X50.4902 Y32.6654 
G01 X49.3463 Y32.6654 
G01 X49.3057 Y32.6822 
G01 X49.2746 Y32.7133 
G01 X49.2578 Y32.7538 
G01 X49.2578 Y32.9114 
G01 X48.8185 Y32.9114 
G01 X47.3709 Y31.4638 
G01 X47.3031 Y31.3959 
G01 X47.2200 Y31.3480 
G01 X47.1273 Y31.3231 
G01 X46.3595 Y31.3231 
G01 X46.3595 Y30.4518 
G01 X46.3427 Y30.4112 
G01 X46.3116 Y30.3801 
G01 X46.2710 Y30.3633 
G01 X45.1271 Y30.3633 
G01 X45.0866 Y30.3801 
G01 X45.0555 Y30.4112 
G00 Z2.5400 
G00 X44.3752 Y33.1327 
G01 Z-0.1778 F254.00 
G01 X44.2825 Y33.1576 F508.00 
G01 X44.1994 Y33.2055 
G01 X44.1316 Y33.2734 
G01 X43.8251 Y33.5799 
G01 X43.8206 Y33.5811 
G01 X43.7375 Y33.6291 
G01 X43.6696 Y33.6969 
G01 X34.8158 Y42.5508 
G01 X34.8134 Y42.5548 
G01 X34.4988 Y42.8695 
G01 X34.4508 Y42.9526 
G01 X34.4260 Y43.0452 
G01 X34.4260 Y47.0189 
G01 X34.1684 Y47.0189 
G01 X34.1279 Y47.0357 
G01 X34.0968 Y47.0668 
G01 X34.0800 Y47.1073 
G01 X34.0800 Y50.1513 
G01 X34.0968 Y50.1918 
G01 X34.1279 Y50.2229 
G01 X34.1684 Y50.2397 
G01 X34.4027 Y50.2397 
G01 X34.4027 Y50.3628 
G01 X33.8052 Y50.9602 
G01 X33.6494 Y50.9849 
G01 X33.4922 Y51.0360 
G01 X33.3449 Y51.1110 
G01 X33.2111 Y51.2082 
G01 X33.0943 Y51.3251 
G01 X32.9971 Y51.4588 
G01 X32.9220 Y51.6061 
G01 X32.8710 Y51.7633 
G01 X32.8451 Y51.9266 
G01 X32.8451 Y52.0919 
G01 X32.8710 Y52.2552 
G01 X32.9220 Y52.4124 
G01 X32.9971 Y52.5597 
G01 X33.0943 Y52.6934 
G01 X33.2111 Y52.8103 
G01 X33.3449 Y52.9075 
G01 X33.4922 Y52.9825 
G01 X33.6494 Y53.0336 
G01 X33.8126 Y53.0595 
G01 X33.9780 Y53.0595 
G01 X34.1412 Y53.0336 
G01 X34.2984 Y52.9825 
G01 X34.4457 Y52.9075 
G01 X34.5795 Y52.8103 
G01 X34.6964 Y52.6934 
G01 X34.7935 Y52.5597 
G01 X34.8686 Y52.4124 
G01 X34.9196 Y52.2552 
G01 X34.9455 Y52.0919 
G01 X34.9455 Y51.9266 
G01 X34.9196 Y51.7633 
G01 X34.8686 Y51.6061 
G01 X34.7935 Y51.4588 
G01 X34.6964 Y51.3251 
G01 X34.5837 Y51.2124 
G01 X34.9908 Y50.8053 
G01 X35.0587 Y50.7375 
G01 X35.1066 Y50.6544 
G01 X35.1315 Y50.5617 
G01 X35.1315 Y50.2397 
G01 X35.4124 Y50.2397 
G01 X35.4529 Y50.2229 
G01 X35.4840 Y50.1918 
G01 X35.5008 Y50.1513 
G01 X35.5008 Y47.1073 
G01 X35.4840 Y47.0668 
G01 X35.4529 Y47.0357 
G01 X35.4124 Y47.0189 
G01 X35.1548 Y47.0189 
G01 X35.1548 Y43.2441 
G01 X35.3311 Y43.0678 
G01 X35.3990 Y43.0000 
G01 X35.4013 Y42.9959 
G01 X44.1358 Y34.2614 
G01 X44.1403 Y34.2602 
G01 X44.2234 Y34.2122 
G01 X44.5741 Y33.8615 
G01 X47.1975 Y33.8615 
G01 X48.5970 Y35.2610 
G01 X48.6648 Y35.3288 
G01 X48.7479 Y35.3768 
G01 X48.8406 Y35.4016 
G01 X49.2578 Y35.4016 
G01 X49.2578 Y35.4978 
G01 X49.2746 Y35.5383 
G01 X49.3057 Y35.5694 
G01 X49.3463 Y35.5862 
G01 X50.4902 Y35.5862 
G01 X50.5308 Y35.5694 
G01 X50.5618 Y35.5383 
G01 X50.5786 Y35.4978 
G01 X50.5786 Y34.4538 
G01 X50.5618 Y34.4133 
G01 X50.5308 Y34.3822 
G01 X50.4902 Y34.3654 
G01 X49.3463 Y34.3654 
G01 X49.3057 Y34.3822 
G01 X49.2746 Y34.4133 
G01 X49.2578 Y34.4538 
G01 X49.2578 Y34.6728 
G01 X49.0395 Y34.6728 
G01 X47.5722 Y33.2055 
G01 X47.4891 Y33.1576 
G01 X47.3965 Y33.1327 
G01 X44.3752 Y33.1327 
G00 Z2.5400 
G00 X47.8250 Y42.7170 
G01 Z-0.1778 F254.00 
G01 X47.8082 Y42.7576 F508.00 
G01 X47.8082 Y43.8015 
G01 X47.8250 Y43.8421 
G01 X47.8560 Y43.8731 
G01 X47.8966 Y43.8899 
G01 X48.4042 Y43.8899 
G01 X48.4042 Y44.5171 
G01 X44.9266 Y47.9947 
G01 X41.2523 Y47.9947 
G01 X41.1597 Y48.0195 
G01 X41.0766 Y48.0675 
G01 X40.8792 Y48.2649 
G01 X39.5008 Y48.2649 
G01 X39.5008 Y47.1073 
G01 X39.4840 Y47.0668 
G01 X39.4529 Y47.0357 
G01 X39.4124 Y47.0189 
G01 X38.1684 Y47.0189 
G01 X38.1279 Y47.0357 
G01 X38.0968 Y47.0668 
G01 X38.0800 Y47.1073 
G01 X38.0800 Y50.1513 
G01 X38.0968 Y50.1918 
G01 X38.1279 Y50.2229 
G01 X38.1684 Y50.2397 
G01 X38.3752 Y50.2397 
G01 X38.3752 Y51.1471 
G01 X38.2911 Y51.2082 
G01 X38.1743 Y51.3251 
G01 X38.0771 Y51.4588 
G01 X38.0020 Y51.6061 
G01 X37.9510 Y51.7633 
G01 X37.9251 Y51.9266 
G01 X37.9251 Y52.0919 
G01 X37.9510 Y52.2552 
G01 X38.0020 Y52.4124 
G01 X38.0771 Y52.5597 
G01 X38.1743 Y52.6934 
G01 X38.2911 Y52.8103 
G01 X38.4249 Y52.9075 
G01 X38.5722 Y52.9825 
G01 X38.7294 Y53.0336 
G01 X38.8926 Y53.0595 
G01 X39.0580 Y53.0595 
G01 X39.2212 Y53.0336 
G01 X39.3784 Y52.9825 
G01 X39.5257 Y52.9075 
G01 X39.6595 Y52.8103 
G01 X39.7764 Y52.6934 
G01 X39.8735 Y52.5597 
G01 X39.9486 Y52.4124 
G01 X39.9996 Y52.2552 
G01 X40.0255 Y52.0919 
G01 X40.0255 Y51.9266 
G01 X39.9996 Y51.7633 
G01 X39.9486 Y51.6061 
G01 X39.8735 Y51.4588 
G01 X39.7764 Y51.3251 
G01 X39.6595 Y51.2082 
G01 X39.5257 Y51.1110 
G01 X39.3784 Y51.0360 
G01 X39.2212 Y50.9849 
G01 X39.2056 Y50.9824 
G01 X39.2056 Y50.2397 
G01 X39.4124 Y50.2397 
G01 X39.4529 Y50.2229 
G01 X39.4840 Y50.1918 
G01 X39.5008 Y50.1513 
G01 X39.5008 Y48.9937 
G01 X40.8792 Y48.9937 
G01 X41.2840 Y49.3986 
G01 X41.2840 Y50.0656 
G01 X41.3008 Y50.1062 
G01 X41.3319 Y50.1372 
G01 X41.3725 Y50.1540 
G01 X42.5164 Y50.1540 
G01 X42.5570 Y50.1372 
G01 X42.5880 Y50.1062 
G01 X42.6048 Y50.0656 
G01 X42.6048 Y49.0217 
G01 X42.5880 Y48.9811 
G01 X42.5570 Y48.9500 
G01 X42.5164 Y48.9332 
G01 X41.8494 Y48.9332 
G01 X41.6396 Y48.7235 
G01 X45.1255 Y48.7235 
G01 X45.2182 Y48.6986 
G01 X45.3013 Y48.6507 
G01 X45.3692 Y48.5828 
G01 X49.0602 Y44.8918 
G01 X49.1081 Y44.8087 
G01 X49.1330 Y44.7160 
G01 X49.1330 Y43.8899 
G01 X49.6405 Y43.8899 
G01 X49.6811 Y43.8731 
G01 X49.7122 Y43.8421 
G01 X49.7290 Y43.8015 
G01 X49.7290 Y42.7576 
G01 X49.7122 Y42.7170 
G01 X49.6811 Y42.6859 
G01 X49.6405 Y42.6691 
G01 X47.8966 Y42.6691 
G01 X47.8560 Y42.6859 
G01 X47.8250 Y42.7170 
G00 Z2.5400 
G00 X37.4529 Y47.0357 
G01 Z-0.1778 F254.00 
G01 X37.4124 Y47.0189 F508.00 
G01 X36.1684 Y47.0189 
G01 X36.1279 Y47.0357 
G01 X36.0968 Y47.0668 
G01 X36.0800 Y47.1073 
G01 X36.0800 Y50.1513 
G01 X36.0968 Y50.1918 
G01 X36.1279 Y50.2229 
G01 X36.1684 Y50.2397 
G01 X36.4843 Y50.2397 
G01 X36.1437 Y50.5803 
G01 X36.0957 Y50.6634 
G01 X36.0709 Y50.7561 
G01 X36.0709 Y51.0234 
G01 X36.0322 Y51.0360 
G01 X35.8849 Y51.1110 
G01 X35.7511 Y51.2082 
G01 X35.6343 Y51.3251 
G01 X35.5371 Y51.4588 
G01 X35.4620 Y51.6061 
G01 X35.4110 Y51.7633 
G01 X35.3851 Y51.9266 
G01 X35.3851 Y52.0919 
G01 X35.4110 Y52.2552 
G01 X35.4620 Y52.4124 
G01 X35.5371 Y52.5597 
G01 X35.6343 Y52.6934 
G01 X35.7511 Y52.8103 
G01 X35.8849 Y52.9075 
G01 X36.0322 Y52.9825 
G01 X36.1894 Y53.0336 
G01 X36.3526 Y53.0595 
G01 X36.5180 Y53.0595 
G01 X36.6812 Y53.0336 
G01 X36.8384 Y52.9825 
G01 X36.9857 Y52.9075 
G01 X37.1195 Y52.8103 
G01 X37.2364 Y52.6934 
G01 X37.3335 Y52.5597 
G01 X37.4086 Y52.4124 
G01 X37.4596 Y52.2552 
G01 X37.4855 Y52.0919 
G01 X37.4855 Y51.9266 
G01 X37.4596 Y51.7633 
G01 X37.4086 Y51.6061 
G01 X37.3335 Y51.4588 
G01 X37.2364 Y51.3251 
G01 X37.1195 Y51.2082 
G01 X36.9857 Y51.1110 
G01 X36.8384 Y51.0360 
G01 X36.7997 Y51.0234 
G01 X36.7997 Y50.9550 
G01 X37.1404 Y50.6143 
G01 X37.2082 Y50.5464 
G01 X37.2562 Y50.4634 
G01 X37.2810 Y50.3707 
G01 X37.2810 Y50.2397 
G01 X37.4124 Y50.2397 
G01 X37.4529 Y50.2229 
G01 X37.4840 Y50.1918 
G01 X37.5008 Y50.1513 
G01 X37.5008 Y47.1073 
G01 X37.4840 Y47.0668 
G01 X37.4529 Y47.0357 
G00 Z2.5400 
G00 X33.4529 Y47.0357 
G01 Z-0.1778 F254.00 
G01 X33.4124 Y47.0189 F508.00 
G01 X32.1684 Y47.0189 
G01 X32.1279 Y47.0357 
G01 X32.0968 Y47.0668 
G01 X32.0800 Y47.1073 
G01 X32.0800 Y50.1513 
G01 X32.0968 Y50.1918 
G01 X32.1279 Y50.2229 
G01 X32.1684 Y50.2397 
G01 X32.2154 Y50.2397 
G01 X31.4881 Y50.9670 
G01 X31.4380 Y50.9591 
G01 X31.2726 Y50.9591 
G01 X31.1094 Y50.9849 
G01 X30.9522 Y51.0360 
G01 X30.8049 Y51.1110 
G01 X30.6711 Y51.2082 
G01 X30.5543 Y51.3251 
G01 X30.4571 Y51.4588 
G01 X30.3820 Y51.6061 
G01 X30.3310 Y51.7633 
G01 X30.3051 Y51.9266 
G01 X30.3051 Y52.0919 
G01 X30.3310 Y52.2552 
G01 X30.3820 Y52.4124 
G01 X30.4571 Y52.5597 
G01 X30.5543 Y52.6934 
G01 X30.6711 Y52.8103 
G01 X30.8049 Y52.9075 
G01 X30.9522 Y52.9825 
G01 X31.1094 Y53.0336 
G01 X31.2726 Y53.0595 
G01 X31.4380 Y53.0595 
G01 X31.6012 Y53.0336 
G01 X31.7584 Y52.9825 
G01 X31.9057 Y52.9075 
G01 X32.0395 Y52.8103 
G01 X32.1564 Y52.6934 
G01 X32.2535 Y52.5597 
G01 X32.3286 Y52.4124 
G01 X32.3796 Y52.2552 
G01 X32.4055 Y52.0919 
G01 X32.4055 Y51.9266 
G01 X32.3796 Y51.7633 
G01 X32.3286 Y51.6061 
G01 X32.2535 Y51.4588 
G01 X32.1581 Y51.3276 
G01 X32.8295 Y50.6562 
G01 X32.8974 Y50.5884 
G01 X32.9453 Y50.5053 
G01 X32.9702 Y50.4126 
G01 X32.9702 Y50.2397 
G01 X33.4124 Y50.2397 
G01 X33.4529 Y50.2229 
G01 X33.4840 Y50.1918 
G01 X33.5008 Y50.1513 
G01 X33.5008 Y47.1073 
G01 X33.4840 Y47.0668 
G01 X33.4529 Y47.0357 
G00 Z2.5400 
G00 X31.4529 Y47.0357 
G01 Z-0.1778 F254.00 
G01 X31.4124 Y47.0189 F508.00 
G01 X30.1684 Y47.0189 
G01 X30.1279 Y47.0357 
G01 X30.0968 Y47.0668 
G01 X30.0800 Y47.1073 
G01 X30.0800 Y50.0476 
G01 X29.1227 Y51.0049 
G01 X29.0612 Y50.9849 
G01 X28.8980 Y50.9591 
G01 X28.7326 Y50.9591 
G01 X28.5694 Y50.9849 
G01 X28.4122 Y51.0360 
G01 X28.2649 Y51.1110 
G01 X28.1311 Y51.2082 
G01 X28.0143 Y51.3251 
G01 X27.9171 Y51.4588 
G01 X27.8420 Y51.6061 
G01 X27.7910 Y51.7633 
G01 X27.7651 Y51.9266 
G01 X27.7651 Y52.0919 
G01 X27.7910 Y52.2552 
G01 X27.8420 Y52.4124 
G01 X27.9171 Y52.5597 
G01 X28.0143 Y52.6934 
G01 X28.1311 Y52.8103 
G01 X28.2649 Y52.9075 
G01 X28.4122 Y52.9825 
G01 X28.5694 Y53.0336 
G01 X28.7326 Y53.0595 
G01 X28.8980 Y53.0595 
G01 X29.0612 Y53.0336 
G01 X29.2184 Y52.9825 
G01 X29.3657 Y52.9075 
G01 X29.4995 Y52.8103 
G01 X29.6164 Y52.6934 
G01 X29.7135 Y52.5597 
G01 X29.7886 Y52.4124 
G01 X29.8396 Y52.2552 
G01 X29.8655 Y52.0919 
G01 X29.8655 Y51.9266 
G01 X29.8396 Y51.7633 
G01 X29.7886 Y51.6061 
G01 X29.7135 Y51.4588 
G01 X29.7076 Y51.4507 
G01 X30.9186 Y50.2397 
G01 X31.4124 Y50.2397 
G01 X31.4529 Y50.2229 
G01 X31.4840 Y50.1918 
G01 X31.5008 Y50.1513 
G01 X31.5008 Y47.1073 
G01 X31.4840 Y47.0668 
G01 X31.4529 Y47.0357 
G00 Z2.5400 
G00 X29.4529 Y47.0357 
G01 Z-0.1778 F254.00 
G01 X29.4124 Y47.0189 F508.00 
G01 X28.1684 Y47.0189 
G01 X28.1279 Y47.0357 
G01 X28.0968 Y47.0668 
G01 X28.0800 Y47.1073 
G01 X28.0800 Y49.8557 
G01 X26.8250 Y51.1107 
G01 X26.6784 Y51.0360 
G01 X26.5212 Y50.9849 
G01 X26.3580 Y50.9591 
G01 X26.1926 Y50.9591 
G01 X26.0294 Y50.9849 
G01 X25.8722 Y51.0360 
G01 X25.7249 Y51.1110 
G01 X25.5911 Y51.2082 
G01 X25.4743 Y51.3251 
G01 X25.3771 Y51.4588 
G01 X25.3020 Y51.6061 
G01 X25.2510 Y51.7633 
G01 X25.2251 Y51.9266 
G01 X25.2251 Y52.0919 
G01 X25.2510 Y52.2552 
G01 X25.3020 Y52.4124 
G01 X25.3771 Y52.5597 
G01 X25.4743 Y52.6934 
G01 X25.5911 Y52.8103 
G01 X25.7249 Y52.9075 
G01 X25.8722 Y52.9825 
G01 X26.0294 Y53.0336 
G01 X26.1926 Y53.0595 
G01 X26.3580 Y53.0595 
G01 X26.5212 Y53.0336 
G01 X26.6784 Y52.9825 
G01 X26.8257 Y52.9075 
G01 X26.9595 Y52.8103 
G01 X27.0764 Y52.6934 
G01 X27.1735 Y52.5597 
G01 X27.2486 Y52.4124 
G01 X27.2996 Y52.2552 
G01 X27.3255 Y52.0919 
G01 X27.3255 Y51.9266 
G01 X27.2996 Y51.7633 
G01 X27.2760 Y51.6905 
G01 X28.7267 Y50.2397 
G01 X29.4124 Y50.2397 
G01 X29.4529 Y50.2229 
G01 X29.4840 Y50.1918 
G01 X29.5008 Y50.1513 
G01 X29.5008 Y47.1073 
G01 X29.4840 Y47.0668 
G01 X29.4529 Y47.0357 
G00 Z2.5400 
G00 X27.4529 Y47.0357 
G01 Z-0.1778 F254.00 
G01 X27.4124 Y47.0189 F508.00 
G01 X26.1684 Y47.0189 
G01 X26.1279 Y47.0357 
G01 X26.0968 Y47.0668 
G01 X26.0800 Y47.1073 
G01 X26.0800 Y49.6268 
G01 X24.4590 Y51.2478 
G01 X24.4195 Y51.2082 
G01 X24.2857 Y51.1110 
G01 X24.1384 Y51.0360 
G01 X23.9812 Y50.9849 
G01 X23.8180 Y50.9591 
G01 X23.6526 Y50.9591 
G01 X23.4894 Y50.9849 
G01 X23.3322 Y51.0360 
G01 X23.1849 Y51.1110 
G01 X23.0511 Y51.2082 
G01 X22.9343 Y51.3251 
G01 X22.8371 Y51.4588 
G01 X22.7620 Y51.6061 
G01 X22.7110 Y51.7633 
G01 X22.6851 Y51.9266 
G01 X22.6851 Y52.0919 
G01 X22.7110 Y52.2552 
G01 X22.7620 Y52.4124 
G01 X22.8371 Y52.5597 
G01 X22.9343 Y52.6934 
G01 X23.0511 Y52.8103 
G01 X23.1849 Y52.9075 
G01 X23.3322 Y52.9825 
G01 X23.4894 Y53.0336 
G01 X23.6526 Y53.0595 
G01 X23.8180 Y53.0595 
G01 X23.9812 Y53.0336 
G01 X24.1384 Y52.9825 
G01 X24.2857 Y52.9075 
G01 X24.4195 Y52.8103 
G01 X24.5363 Y52.6934 
G01 X24.6335 Y52.5597 
G01 X24.7086 Y52.4124 
G01 X24.7596 Y52.2552 
G01 X24.7855 Y52.0919 
G01 X24.7855 Y51.9520 
G01 X26.4978 Y50.2397 
G01 X27.4124 Y50.2397 
G01 X27.4529 Y50.2229 
G01 X27.4840 Y50.1918 
G01 X27.5008 Y50.1513 
G01 X27.5008 Y47.1073 
G01 X27.4840 Y47.0668 
G01 X27.4529 Y47.0357 
G00 Z2.5400 
G00 X15.8924 Y45.1183 
G01 Z-0.1778 F254.00 
G01 X15.9092 Y45.0778 F508.00 
G01 X15.9092 Y42.8338 
G01 X15.8924 Y42.7933 
G01 X15.8614 Y42.7622 
G01 X15.8208 Y42.7454 
G01 X12.1769 Y42.7454 
G01 X12.1363 Y42.7622 
G01 X12.1052 Y42.7933 
G01 X12.0884 Y42.8338 
G01 X12.0884 Y45.0778 
G01 X12.1052 Y45.1183 
G01 X12.1363 Y45.1494 
G01 X12.1769 Y45.1662 
G01 X15.8208 Y45.1662 
G01 X15.8614 Y45.1494 
G01 X15.8924 Y45.1183 
G00 Z2.5400 
G00 X12.3596 Y48.9424 
G01 Z-0.1778 F254.00 
G01 X12.3190 Y48.9256 F508.00 
G01 X11.0559 Y48.9256 
G01 X11.0153 Y48.9424 
G01 X10.9842 Y48.9735 
G01 X10.9674 Y49.0140 
G01 X10.9674 Y51.2932 
G01 X10.9842 Y51.3337 
G01 X11.0153 Y51.3648 
G01 X11.0559 Y51.3816 
G01 X11.3230 Y51.3816 
G01 X11.3230 Y51.7270 
G01 X11.2382 Y51.8118 
G01 X11.1280 Y51.8118 
G01 X8.1019 Y48.7857 
G01 X8.1019 Y47.3481 
G01 X8.0770 Y47.2554 
G01 X8.0291 Y47.1723 
G01 X5.7152 Y44.8584 
G01 X5.7152 Y44.1602 
G01 X7.1054 Y44.1602 
G01 X7.1459 Y44.1434 
G01 X7.1770 Y44.1123 
G01 X7.1938 Y44.0717 
G01 X7.1938 Y40.2178 
G01 X7.1770 Y40.1772 
G01 X7.1459 Y40.1462 
G01 X7.1054 Y40.1294 
G01 X5.5936 Y40.1294 
G01 X5.5936 Y38.9015 
G01 X6.0356 Y38.9015 
G01 X6.0761 Y38.8847 
G01 X6.1072 Y38.8536 
G01 X6.1240 Y38.8131 
G01 X6.1240 Y36.9691 
G01 X6.1072 Y36.9286 
G01 X6.0761 Y36.8975 
G01 X6.0356 Y36.8807 
G01 X4.2216 Y36.8807 
G01 X4.1811 Y36.8975 
G01 X4.1500 Y36.9286 
G01 X4.1332 Y36.9691 
G01 X4.1332 Y38.8131 
G01 X4.1500 Y38.8536 
G01 X4.1811 Y38.8847 
G01 X4.2216 Y38.9015 
G01 X4.7632 Y38.9015 
G01 X4.7632 Y40.1294 
G01 X3.2514 Y40.1294 
G01 X3.2109 Y40.1462 
G01 X3.1798 Y40.1772 
G01 X3.1630 Y40.2178 
G01 X3.1630 Y44.0717 
G01 X3.1798 Y44.1123 
G01 X3.2109 Y44.1434 
G01 X3.2514 Y44.1602 
G01 X4.9864 Y44.1602 
G01 X4.9864 Y45.0573 
G01 X5.0112 Y45.1500 
G01 X5.0592 Y45.2331 
G01 X5.1270 Y45.3010 
G01 X7.3731 Y47.5470 
G01 X7.3731 Y48.9846 
G01 X7.3979 Y49.0773 
G01 X7.4459 Y49.1604 
G01 X10.7533 Y52.4678 
G01 X10.8364 Y52.5158 
G01 X10.9291 Y52.5406 
G01 X11.4372 Y52.5406 
G01 X11.5298 Y52.5158 
G01 X11.6129 Y52.4678 
G01 X11.6808 Y52.4000 
G01 X11.9790 Y52.1017 
G01 X12.0270 Y52.0186 
G01 X12.0518 Y51.9259 
G01 X12.0518 Y51.3816 
G01 X12.3190 Y51.3816 
G01 X12.3596 Y51.3648 
G01 X12.3906 Y51.3337 
G01 X12.4074 Y51.2932 
G01 X12.4074 Y49.0140 
G01 X12.3906 Y48.9735 
G01 X12.3596 Y48.9424 
G00 Z2.5400 
G00 X0.3124 Y0.0411 
G01 Z-0.1778 F254.00 
G01 X0.3124 Y-0.1127 F508.00 
G01 X0.2911 Y-0.1921 
G01 X0.2500 Y-0.2634 
G01 X0.1918 Y-0.3216 
G01 X0.1206 Y-0.3627 
G01 X0.0411 Y-0.3840 
G01 X-0.0411 Y-0.3840 
G01 X-0.1206 Y-0.3627 
G01 X-0.1918 Y-0.3216 
G01 X-0.2500 Y-0.2634 
G01 X-0.2911 Y-0.1921 
G01 X-0.2959 Y-0.1742 
G01 X-0.3269 Y-0.1206 
G01 X-0.3482 Y-0.0411 
G01 X-0.3482 Y0.0411 
G01 X-0.3269 Y0.1206 
G01 X-0.2858 Y0.1918 
G01 X-0.2276 Y0.2500 
G01 X-0.1564 Y0.2911 
G01 X-0.0769 Y0.3124 
G01 X-0.0411 Y0.3124 
G01 X0.0411 Y0.3124 
G01 X0.1206 Y0.2911 
G01 X0.1918 Y0.2500 
G01 X0.2500 Y0.1918 
G01 X0.2911 Y0.1206 
G01 X0.3124 Y0.0411 
G00 Z2.5400 
G00 X9.1486 Y8.3154 
G01 Z-0.1778 F254.00 
G01 X9.0091 Y8.5073 F508.00 
G01 X8.9014 Y8.7187 
G01 X8.8281 Y8.9444 
G01 X8.7910 Y9.1787 
G01 X8.7910 Y10.6024 
G01 X8.3462 Y10.6024 
G01 X8.2589 Y10.6385 
G01 X8.1921 Y10.7053 
G01 X8.1560 Y10.7925 
G01 X8.1560 Y14.6970 
G01 X8.1921 Y14.7842 
G01 X8.2589 Y14.8510 
G01 X8.3462 Y14.8872 
G01 X8.9258 Y14.8872 
G01 X8.9258 Y16.1714 
G01 X8.9629 Y16.4058 
G01 X9.0363 Y16.6314 
G01 X9.1440 Y16.8428 
G01 X9.2835 Y17.0348 
G01 X9.4512 Y17.2026 
G01 X10.9500 Y18.7013 
G01 X11.1419 Y18.8407 
G01 X11.3533 Y18.9485 
G01 X11.5790 Y19.0218 
G01 X11.8133 Y19.0589 
G01 X25.0781 Y19.0589 
G01 X25.3124 Y19.0218 
G01 X25.5381 Y18.9485 
G01 X25.7495 Y18.8407 
G01 X25.9414 Y18.7013 
G01 X26.1092 Y18.5335 
G01 X26.2487 Y18.3416 
G01 X26.3564 Y18.1302 
G01 X26.4297 Y17.9045 
G01 X26.4668 Y17.6701 
G01 X26.4668 Y17.4329 
G01 X26.4297 Y17.1985 
G01 X26.3564 Y16.9729 
G01 X26.2487 Y16.7615 
G01 X26.1092 Y16.5695 
G01 X25.9414 Y16.4017 
G01 X25.7495 Y16.2623 
G01 X25.5381 Y16.1545 
G01 X25.3124 Y16.0812 
G01 X25.0781 Y16.0441 
G01 X12.5564 Y16.0441 
G01 X11.9406 Y15.4284 
G01 X11.9406 Y14.8872 
G01 X12.2506 Y14.8872 
G01 X12.3379 Y14.8510 
G01 X12.4047 Y14.7842 
G01 X12.4408 Y14.6970 
G01 X12.4408 Y10.7925 
G01 X12.4047 Y10.7053 
G01 X12.3379 Y10.6385 
G01 X12.2506 Y10.6024 
G01 X11.8058 Y10.6024 
G01 X11.8058 Y9.9218 
G01 X14.8764 Y6.8512 
G01 X15.0158 Y6.6592 
G01 X15.1235 Y6.4478 
G01 X15.1969 Y6.2222 
G01 X15.2340 Y5.9878 
G01 X15.2340 Y5.7505 
G01 X15.1969 Y5.5162 
G01 X15.1235 Y5.2905 
G01 X15.0158 Y5.0791 
G01 X14.8764 Y4.8872 
G01 X14.7086 Y4.7194 
G01 X14.5166 Y4.5799 
G01 X14.3052 Y4.4722 
G01 X14.0796 Y4.3989 
G01 X13.8452 Y4.3618 
G01 X13.6080 Y4.3618 
G01 X13.3736 Y4.3989 
G01 X13.1479 Y4.4722 
G01 X12.9365 Y4.5799 
G01 X12.7446 Y4.7194 
G01 X9.1486 Y8.3154 
G00 Z2.5400 
G00 X13.2721 Y10.7053 
G01 Z-0.1778 F254.00 
G01 X13.2360 Y10.7925 F508.00 
G01 X13.2360 Y14.6970 
G01 X13.2721 Y14.7842 
G01 X13.3389 Y14.8510 
G01 X13.4262 Y14.8872 
G01 X17.3306 Y14.8872 
G01 X17.4179 Y14.8510 
G01 X17.4846 Y14.7842 
G01 X17.5208 Y14.6970 
G01 X17.5208 Y12.3124 
G01 X18.0546 Y11.7787 
G01 X18.2223 Y11.6109 
G01 X18.3618 Y11.4189 
G01 X18.4695 Y11.2075 
G01 X18.5428 Y10.9819 
G01 X18.5800 Y10.7475 
G01 X18.5800 Y6.5334 
G01 X18.6235 Y6.4478 
G01 X18.6969 Y6.2222 
G01 X18.7340 Y5.9878 
G01 X18.7340 Y5.7505 
G01 X18.6969 Y5.5162 
G01 X18.6235 Y5.2905 
G01 X18.5158 Y5.0791 
G01 X18.3764 Y4.8872 
G01 X18.2086 Y4.7194 
G01 X18.0166 Y4.5799 
G01 X17.8052 Y4.4722 
G01 X17.5796 Y4.3989 
G01 X17.3452 Y4.3618 
G01 X17.1079 Y4.3618 
G01 X16.8736 Y4.3989 
G01 X16.6479 Y4.4722 
G01 X16.4365 Y4.5799 
G01 X16.2446 Y4.7194 
G01 X15.9228 Y5.0412 
G01 X15.7833 Y5.2332 
G01 X15.6756 Y5.4446 
G01 X15.6023 Y5.6702 
G01 X15.5652 Y5.9046 
G01 X15.5652 Y10.0045 
G01 X14.9673 Y10.6024 
G01 X13.4262 Y10.6024 
G01 X13.3389 Y10.6385 
G01 X13.2721 Y10.7053 
G00 Z2.5400 
G00 X19.7446 Y7.0190 
G01 Z-0.1778 F254.00 
G01 X19.9365 Y7.1584 F508.00 
G01 X20.1479 Y7.2661 
G01 X20.3736 Y7.3395 
G01 X20.6079 Y7.3766 
G01 X20.8452 Y7.3766 
G01 X21.0796 Y7.3395 
G01 X21.3052 Y7.2661 
G01 X21.5166 Y7.1584 
G01 X21.7086 Y7.0190 
G01 X21.8764 Y6.8512 
G01 X22.0158 Y6.6592 
G01 X22.1235 Y6.4478 
G01 X22.1969 Y6.2222 
G01 X22.2340 Y5.9878 
G01 X22.2340 Y4.0911 
G01 X28.8868 Y4.0911 
G01 X28.9355 Y4.1265 
G01 X29.1469 Y4.2342 
G01 X29.3726 Y4.3075 
G01 X29.6070 Y4.3446 
G01 X29.8442 Y4.3446 
G01 X30.0786 Y4.3075 
G01 X30.3042 Y4.2342 
G01 X30.5156 Y4.1265 
G01 X30.7076 Y3.9870 
G01 X30.8754 Y3.8192 
G01 X31.0148 Y3.6273 
G01 X31.1225 Y3.4159 
G01 X31.1959 Y3.1902 
G01 X31.2330 Y2.9559 
G01 X31.2330 Y2.7186 
G01 X31.1959 Y2.4842 
G01 X31.1225 Y2.2586 
G01 X31.0148 Y2.0472 
G01 X30.8754 Y1.8552 
G01 X30.4540 Y1.4339 
G01 X30.2621 Y1.2944 
G01 X30.0507 Y1.1867 
G01 X29.8250 Y1.1134 
G01 X29.5907 Y1.0763 
G01 X21.3503 Y1.0763 
G01 X21.1159 Y1.1134 
G01 X20.8903 Y1.1867 
G01 X20.6789 Y1.2944 
G01 X20.4869 Y1.4339 
G01 X20.3191 Y1.6017 
G01 X19.5768 Y2.3440 
G01 X19.4373 Y2.5359 
G01 X19.3296 Y2.7473 
G01 X19.2563 Y2.9730 
G01 X19.2192 Y3.2074 
G01 X19.2192 Y5.9878 
G01 X19.2563 Y6.2222 
G01 X19.3296 Y6.4478 
G01 X19.4373 Y6.6592 
G01 X19.5768 Y6.8512 
G01 X19.7446 Y7.0190 
G00 Z2.5400 
G00 X23.0093 Y7.0197 
G01 Z-0.1778 F254.00 
G01 X23.0761 Y7.0864 F508.00 
G01 X23.1634 Y7.1226 
G01 X23.3872 Y7.1226 
G01 X23.4365 Y7.1584 
G01 X23.6479 Y7.2661 
G01 X23.8736 Y7.3395 
G01 X24.1079 Y7.3766 
G01 X25.5512 Y7.3766 
G01 X26.3560 Y8.1814 
G01 X26.5238 Y8.3492 
G01 X26.7157 Y8.4887 
G01 X26.9272 Y8.5964 
G01 X27.1528 Y8.6697 
G01 X27.3872 Y8.7068 
G01 X31.2416 Y8.7068 
G01 X31.4759 Y8.6697 
G01 X31.7016 Y8.5964 
G01 X31.9130 Y8.4887 
G01 X32.1050 Y8.3492 
G01 X36.6289 Y3.8253 
G01 X36.7683 Y3.6333 
G01 X36.8761 Y3.4219 
G01 X36.9494 Y3.1963 
G01 X36.9865 Y2.9619 
G01 X36.9865 Y2.7246 
G01 X36.9494 Y2.4903 
G01 X36.8761 Y2.2646 
G01 X36.7683 Y2.0532 
G01 X36.6289 Y1.8613 
G01 X36.4611 Y1.6935 
G01 X36.2692 Y1.5540 
G01 X36.0577 Y1.4463 
G01 X35.8321 Y1.3730 
G01 X35.5977 Y1.3359 
G01 X35.3605 Y1.3359 
G01 X35.1261 Y1.3730 
G01 X34.9005 Y1.4463 
G01 X34.6891 Y1.5540 
G01 X34.4971 Y1.6935 
G01 X30.4986 Y5.6920 
G01 X28.1302 Y5.6920 
G01 X27.1576 Y4.7194 
G01 X26.9656 Y4.5799 
G01 X26.7542 Y4.4722 
G01 X26.5285 Y4.3989 
G01 X26.2942 Y4.3618 
G01 X24.1079 Y4.3618 
G01 X23.8736 Y4.3989 
G01 X23.6479 Y4.4722 
G01 X23.4365 Y4.5799 
G01 X23.3872 Y4.6158 
G01 X23.1634 Y4.6158 
G01 X23.0761 Y4.6519 
G01 X23.0093 Y4.7187 
G01 X22.9732 Y4.8060 
G01 X22.9732 Y5.0298 
G01 X22.9373 Y5.0791 
G01 X22.8296 Y5.2905 
G01 X22.7563 Y5.5162 
G01 X22.7192 Y5.7505 
G01 X22.7192 Y5.9878 
G01 X22.7563 Y6.2222 
G01 X22.8296 Y6.4478 
G01 X22.9373 Y6.6592 
G01 X22.9732 Y6.7086 
G01 X22.9732 Y6.9324 
G01 X23.0093 Y7.0197 
G00 Z2.5400 
G00 X23.8097 Y11.4895 
G01 Z-0.1778 F254.00 
G01 X23.6702 Y11.6815 F508.00 
G01 X23.5625 Y11.8929 
G01 X23.4892 Y12.1185 
G01 X23.4520 Y12.3529 
G01 X23.4520 Y12.5901 
G01 X23.4892 Y12.8245 
G01 X23.5625 Y13.0502 
G01 X23.6702 Y13.2616 
G01 X23.8097 Y13.4535 
G01 X23.9774 Y13.6213 
G01 X24.1694 Y13.7607 
G01 X24.3808 Y13.8685 
G01 X24.6065 Y13.9418 
G01 X24.8408 Y13.9789 
G01 X27.5927 Y13.9789 
G01 X27.8299 Y13.9789 
G01 X28.0643 Y13.9418 
G01 X28.2900 Y13.8685 
G01 X28.5014 Y13.7607 
G01 X28.6933 Y13.6213 
G01 X30.3500 Y11.9646 
G01 X35.3223 Y11.9646 
G01 X35.3605 Y11.9707 
G01 X35.5977 Y11.9707 
G01 X35.8321 Y11.9336 
G01 X36.0577 Y11.8602 
G01 X36.2692 Y11.7525 
G01 X36.4611 Y11.6130 
G01 X36.6289 Y11.4453 
G01 X36.7683 Y11.2533 
G01 X36.8761 Y11.0419 
G01 X36.9494 Y10.8163 
G01 X36.9865 Y10.5819 
G01 X36.9865 Y10.3446 
G01 X36.9494 Y10.1103 
G01 X36.8761 Y9.8846 
G01 X36.7683 Y9.6732 
G01 X36.6289 Y9.4813 
G01 X36.4551 Y9.3074 
G01 X36.2631 Y9.1680 
G01 X36.0517 Y9.0603 
G01 X35.8261 Y8.9869 
G01 X35.5917 Y8.9498 
G01 X29.6070 Y8.9498 
G01 X29.3726 Y8.9869 
G01 X29.1469 Y9.0603 
G01 X28.9355 Y9.1680 
G01 X28.7436 Y9.3074 
G01 X28.5758 Y9.4752 
G01 X27.0869 Y10.9641 
G01 X24.8408 Y10.9641 
G01 X24.6065 Y11.0012 
G01 X24.3808 Y11.0745 
G01 X24.1694 Y11.1823 
G01 X23.9774 Y11.3217 
G01 X23.8097 Y11.4895 
G00 Z2.5400 
G00 X19.0606 Y20.3261 
G01 Z-0.1778 F254.00 
G01 X18.9227 Y20.3631 F508.00 
G01 X18.7991 Y20.4345 
G01 X18.6981 Y20.5354 
G01 X14.4872 Y24.7463 
G01 X14.3862 Y24.8473 
G01 X6.2510 Y32.9825 
G01 X6.2510 Y32.8599 
G01 X6.2149 Y32.7726 
G01 X6.1481 Y32.7058 
G01 X6.0608 Y32.6697 
G01 X4.1964 Y32.6697 
G01 X4.1091 Y32.7058 
G01 X4.0423 Y32.7726 
G01 X4.0062 Y32.8599 
G01 X4.0062 Y34.7543 
G01 X4.0423 Y34.8416 
G01 X4.1091 Y34.9084 
G01 X4.1964 Y34.9445 
G01 X6.0608 Y34.9445 
G01 X6.1481 Y34.9084 
G01 X6.2149 Y34.8416 
G01 X6.2510 Y34.7543 
G01 X6.2510 Y34.3493 
G01 X6.2646 Y34.3493 
G01 X6.4025 Y34.3123 
G01 X6.5261 Y34.2410 
G01 X14.8930 Y25.8741 
G01 X14.9031 Y25.8768 
G01 X31.3678 Y25.8768 
G01 X31.5057 Y25.8399 
G01 X31.6293 Y25.7685 
G01 X31.7303 Y25.6675 
G01 X33.8090 Y23.5888 
G01 X33.8804 Y23.4652 
G01 X33.9173 Y23.3273 
G01 X33.9173 Y21.7860 
G01 X34.5378 Y21.1655 
G01 X34.6490 Y21.1655 
G01 X34.7090 Y21.2553 
G01 X34.8471 Y21.3933 
G01 X35.0095 Y21.5018 
G01 X35.1899 Y21.5766 
G01 X35.3815 Y21.6147 
G01 X35.5767 Y21.6147 
G01 X35.7683 Y21.5766 
G01 X35.9487 Y21.5018 
G01 X36.1111 Y21.3933 
G01 X36.2492 Y21.2553 
G01 X36.3577 Y21.0929 
G01 X36.4324 Y20.9125 
G01 X36.4705 Y20.7209 
G01 X36.4705 Y20.5256 
G01 X36.4324 Y20.3341 
G01 X36.3577 Y20.1537 
G01 X36.2492 Y19.9913 
G01 X36.1111 Y19.8532 
G01 X35.9487 Y19.7447 
G01 X35.7683 Y19.6700 
G01 X35.5767 Y19.6319 
G01 X35.3815 Y19.6319 
G01 X35.1899 Y19.6700 
G01 X35.0095 Y19.7447 
G01 X34.8471 Y19.8532 
G01 X34.7090 Y19.9913 
G01 X34.6490 Y20.0811 
G01 X34.2418 Y20.0811 
G01 X34.1039 Y20.1180 
G01 X33.9803 Y20.1894 
G01 X33.0422 Y21.1275 
G01 X32.9412 Y21.2285 
G01 X32.8699 Y21.3521 
G01 X32.8329 Y21.4900 
G01 X32.8329 Y23.0313 
G01 X31.0718 Y24.7924 
G01 X15.9747 Y24.7924 
G01 X19.3566 Y21.4105 
G01 X29.1284 Y21.4105 
G01 X29.2560 Y21.4958 
G01 X29.4364 Y21.5705 
G01 X29.6279 Y21.6086 
G01 X29.8232 Y21.6086 
G01 X30.0148 Y21.5705 
G01 X30.1952 Y21.4958 
G01 X30.3576 Y21.3873 
G01 X30.4957 Y21.2492 
G01 X30.6042 Y21.0868 
G01 X30.6789 Y20.9064 
G01 X30.7170 Y20.7149 
G01 X30.7170 Y20.5196 
G01 X30.6789 Y20.3280 
G01 X30.6042 Y20.1476 
G01 X30.4957 Y19.9853 
G01 X30.3576 Y19.8472 
G01 X30.1952 Y19.7387 
G01 X30.0148 Y19.6639 
G01 X29.8232 Y19.6258 
G01 X29.6279 Y19.6258 
G01 X29.4364 Y19.6639 
G01 X29.2560 Y19.7387 
G01 X29.0936 Y19.8472 
G01 X28.9555 Y19.9853 
G01 X28.8470 Y20.1476 
G01 X28.7731 Y20.3261 
G01 X19.0606 Y20.3261 
G00 Z2.5400 
G00 X23.6119 Y27.7929 
G01 Z-0.1778 F254.00 
G01 X23.5030 Y27.9428 F508.00 
G01 X23.4189 Y28.1079 
G01 X23.3616 Y28.2841 
G01 X23.3326 Y28.4671 
G01 X23.3326 Y28.6524 
G01 X23.3616 Y28.8354 
G01 X23.4189 Y29.0116 
G01 X23.5030 Y29.1767 
G01 X23.6119 Y29.3267 
G01 X23.7429 Y29.4577 
G01 X23.8928 Y29.5666 
G01 X24.0579 Y29.6507 
G01 X24.2342 Y29.7080 
G01 X24.2482 Y29.7102 
G01 X24.2482 Y30.4919 
G01 X24.1432 Y30.4919 
G01 X24.0559 Y30.5280 
G01 X23.9891 Y30.5948 
G01 X23.9530 Y30.6821 
G01 X23.9530 Y33.7765 
G01 X23.9891 Y33.8638 
G01 X24.0559 Y33.9305 
G01 X24.1432 Y33.9667 
G01 X24.2482 Y33.9667 
G01 X24.2482 Y37.7082 
G01 X21.9540 Y40.0024 
G01 X18.6262 Y40.0024 
G01 X18.5389 Y40.0385 
G01 X18.4721 Y40.1053 
G01 X18.4360 Y40.1925 
G01 X18.4360 Y43.5922 
G01 X18.1462 Y43.8820 
G01 X18.0816 Y43.9940 
G01 X18.0481 Y44.1190 
G01 X18.0481 Y44.9475 
G01 X17.9922 Y44.9475 
G01 X17.9050 Y44.9836 
G01 X17.8382 Y45.0504 
G01 X17.8021 Y45.1376 
G01 X17.8021 Y46.3321 
G01 X17.8382 Y46.4193 
G01 X17.9050 Y46.4861 
G01 X17.9922 Y46.5223 
G01 X19.0867 Y46.5223 
G01 X19.1739 Y46.4861 
G01 X19.2407 Y46.4193 
G01 X19.2769 Y46.3321 
G01 X19.2769 Y45.1376 
G01 X19.2407 Y45.0504 
G01 X19.1739 Y44.9836 
G01 X19.0867 Y44.9475 
G01 X19.0309 Y44.9475 
G01 X19.0309 Y44.3872 
G01 X19.1309 Y44.2872 
G01 X19.4875 Y44.2872 
G01 X19.4875 Y48.3357 
G01 X18.7493 Y48.3357 
G01 X18.6243 Y48.3692 
G01 X18.5123 Y48.4339 
G01 X18.4208 Y48.5254 
G01 X17.2840 Y49.6622 
G01 X17.1572 Y49.6622 
G01 X17.1572 Y48.9888 
G01 X17.1211 Y48.9015 
G01 X17.0543 Y48.8348 
G01 X16.9671 Y48.7986 
G01 X15.6534 Y48.7986 
G01 X15.5662 Y48.8348 
G01 X15.4994 Y48.9015 
G01 X15.4632 Y48.9888 
G01 X15.4632 Y51.3184 
G01 X15.4994 Y51.4057 
G01 X15.5662 Y51.4725 
G01 X15.6534 Y51.5086 
G01 X16.9671 Y51.5086 
G01 X17.0543 Y51.4725 
G01 X17.1211 Y51.4057 
G01 X17.1572 Y51.3184 
G01 X17.1572 Y50.6450 
G01 X17.5522 Y50.6450 
G01 X17.6772 Y50.6115 
G01 X17.7892 Y50.5468 
G01 X19.0175 Y49.3185 
G01 X21.3635 Y49.3185 
G01 X21.3635 Y49.3743 
G01 X21.3997 Y49.4616 
G01 X21.4664 Y49.5284 
G01 X21.5537 Y49.5645 
G01 X22.7481 Y49.5645 
G01 X22.8354 Y49.5284 
G01 X22.9022 Y49.4616 
G01 X22.9383 Y49.3743 
G01 X22.9383 Y48.2799 
G01 X22.9022 Y48.1927 
G01 X22.8354 Y48.1259 
G01 X22.7481 Y48.0897 
G01 X21.5537 Y48.0897 
G01 X21.4664 Y48.1259 
G01 X21.3997 Y48.1927 
G01 X21.3635 Y48.2799 
G01 X21.3635 Y48.3357 
G01 X20.4703 Y48.3357 
G01 X20.4703 Y44.2872 
G01 X22.5306 Y44.2872 
G01 X22.6179 Y44.2510 
G01 X22.6847 Y44.1842 
G01 X22.7208 Y44.0970 
G01 X22.7208 Y40.7692 
G01 X25.2243 Y38.2657 
G01 X25.2956 Y38.1420 
G01 X25.3326 Y38.0041 
G01 X25.3326 Y33.9667 
G01 X25.4376 Y33.9667 
G01 X25.5249 Y33.9305 
G01 X25.5917 Y33.8638 
G01 X25.6278 Y33.7765 
G01 X25.6278 Y30.6821 
G01 X25.5917 Y30.5948 
G01 X25.5249 Y30.5280 
G01 X25.4376 Y30.4919 
G01 X25.3326 Y30.4919 
G01 X25.3326 Y29.4018 
G01 X25.4077 Y29.3267 
G01 X25.5166 Y29.1767 
G01 X25.6008 Y29.0116 
G01 X25.6580 Y28.8354 
G01 X25.6870 Y28.6524 
G01 X25.6870 Y28.4671 
G01 X25.6580 Y28.2841 
G01 X25.6145 Y28.1500 
G01 X26.7301 Y27.0344 
G01 X43.0597 Y27.0344 
G01 X43.7024 Y27.6772 
G01 X43.7939 Y27.7687 
G01 X43.9060 Y27.8333 
G01 X44.0310 Y27.8668 
G01 X47.6094 Y27.8668 
G01 X47.6094 Y27.9227 
G01 X47.6456 Y28.0099 
G01 X47.7123 Y28.0767 
G01 X47.7996 Y28.1128 
G01 X48.7393 Y28.1128 
G01 X49.1105 Y28.4841 
G01 X49.3248 Y29.1066 
G01 X49.3343 Y29.1465 
G01 X49.3457 Y29.1675 
G01 X49.3535 Y29.1901 
G01 X49.3765 Y29.2241 
G01 X49.7116 Y29.8418 
G01 X49.7277 Y29.8796 
G01 X49.7423 Y29.8984 
G01 X49.7537 Y29.9194 
G01 X49.7820 Y29.9492 
G01 X50.2144 Y30.5030 
G01 X50.2365 Y30.5377 
G01 X50.2541 Y30.5538 
G01 X50.2688 Y30.5726 
G01 X50.3016 Y30.5974 
G01 X50.8195 Y31.0723 
G01 X50.8469 Y31.1028 
G01 X50.8670 Y31.1158 
G01 X50.8846 Y31.1320 
G01 X50.9210 Y31.1510 
G01 X51.2803 Y31.3845 
G01 X51.2803 Y36.5787 
G01 X49.1169 Y38.7421 
G01 X47.8714 Y38.7421 
G01 X47.7841 Y38.7783 
G01 X47.7173 Y38.8451 
G01 X47.6812 Y38.9323 
G01 X47.6812 Y40.0268 
G01 X47.7173 Y40.1140 
G01 X47.7841 Y40.1808 
G01 X47.8714 Y40.2169 
G01 X49.6658 Y40.2169 
G01 X49.7531 Y40.1808 
G01 X49.8198 Y40.1140 
G01 X49.8560 Y40.0268 
G01 X49.8560 Y39.3929 
G01 X52.0734 Y37.1755 
G01 X52.1649 Y37.0840 
G01 X52.2296 Y36.9720 
G01 X52.2631 Y36.8470 
G01 X52.2631 Y31.1309 
G01 X52.2658 Y31.0792 
G01 X52.2631 Y31.0663 
G01 X52.2631 Y31.0532 
G01 X52.2497 Y31.0033 
G01 X52.2390 Y30.9527 
G01 X52.2330 Y30.9409 
G01 X52.2296 Y30.9282 
G01 X52.2037 Y30.8834 
G01 X52.1803 Y30.8373 
G01 X52.1715 Y30.8275 
G01 X52.1649 Y30.8162 
G01 X52.1283 Y30.7796 
G01 X52.0937 Y30.7411 
G01 X52.0827 Y30.7340 
G01 X52.0734 Y30.7247 
G01 X52.0286 Y30.6988 
G01 X51.4711 Y30.3364 
G01 X50.9785 Y29.8847 
G01 X50.5672 Y29.3579 
G01 X50.2485 Y28.7705 
G01 X50.0387 Y28.1609 
G01 X50.0282 Y28.1216 
G01 X50.0214 Y28.0811 
G01 X50.0115 Y28.0594 
G01 X50.0053 Y28.0363 
G01 X49.9848 Y28.0008 
G01 X49.9677 Y27.9634 
G01 X49.9526 Y27.9450 
G01 X49.9406 Y27.9243 
G01 X49.9116 Y27.8952 
G01 X49.8855 Y27.8636 
G01 X49.8660 Y27.8497 
G01 X49.7842 Y27.7679 
G01 X49.7842 Y26.9860 
G01 X49.7930 Y26.9798 
G01 X49.8191 Y26.9481 
G01 X49.8482 Y26.9190 
G01 X49.8601 Y26.8984 
G01 X49.8753 Y26.8799 
G01 X49.8923 Y26.8426 
G01 X49.9128 Y26.8070 
G01 X49.9190 Y26.7839 
G01 X49.9289 Y26.7622 
G01 X49.9357 Y26.7217 
G01 X49.9463 Y26.6820 
G01 X49.9463 Y26.6581 
G01 X50.0310 Y26.1520 
G01 X50.2485 Y25.5200 
G01 X50.5672 Y24.9326 
G01 X50.9785 Y24.4059 
G01 X51.4711 Y23.9542 
G01 X52.0286 Y23.5917 
G01 X52.0734 Y23.5659 
G01 X52.0827 Y23.5566 
G01 X52.0937 Y23.5494 
G01 X52.1283 Y23.5109 
G01 X52.1649 Y23.4744 
G01 X52.1715 Y23.4630 
G01 X52.1803 Y23.4532 
G01 X52.2037 Y23.4071 
G01 X52.2296 Y23.3623 
G01 X52.2330 Y23.3496 
G01 X52.2390 Y23.3379 
G01 X52.2497 Y23.2873 
G01 X52.2631 Y23.2374 
G01 X52.2631 Y23.2242 
G01 X52.2658 Y23.2113 
G01 X52.2631 Y23.1597 
G01 X52.2631 Y13.0702 
G01 X52.2296 Y12.9452 
G01 X52.1649 Y12.8332 
G01 X52.0734 Y12.7417 
G01 X50.4468 Y11.1151 
G01 X50.3348 Y11.0505 
G01 X50.2098 Y11.0170 
G01 X46.4848 Y11.0170 
G01 X46.4848 Y10.3851 
G01 X46.5906 Y10.3851 
G01 X46.6779 Y10.3490 
G01 X46.7447 Y10.2822 
G01 X46.7808 Y10.1950 
G01 X46.7808 Y9.1005 
G01 X46.7447 Y9.0133 
G01 X46.6779 Y8.9465 
G01 X46.5906 Y8.9103 
G01 X45.3962 Y8.9103 
G01 X45.3089 Y8.9465 
G01 X45.2422 Y9.0133 
G01 X45.2060 Y9.1005 
G01 X45.2060 Y10.1950 
G01 X45.2422 Y10.2822 
G01 X45.3089 Y10.3490 
G01 X45.3962 Y10.3851 
G01 X45.5020 Y10.3851 
G01 X45.5020 Y11.0170 
G01 X43.9149 Y11.0170 
G01 X43.9149 Y10.7611 
G01 X43.8788 Y10.6739 
G01 X43.8120 Y10.6071 
G01 X43.7247 Y10.5710 
G01 X42.6303 Y10.5710 
G01 X42.5430 Y10.6071 
G01 X42.4763 Y10.6739 
G01 X42.4401 Y10.7611 
G01 X42.4401 Y12.2556 
G01 X42.4763 Y12.3428 
G01 X42.5430 Y12.4096 
G01 X42.6303 Y12.4458 
G01 X43.7247 Y12.4458 
G01 X43.8120 Y12.4096 
G01 X43.8788 Y12.3428 
G01 X43.9149 Y12.2556 
G01 X43.9149 Y11.9998 
G01 X45.5067 Y11.9998 
G01 X42.9159 Y14.5906 
G01 X42.8810 Y14.5906 
G01 X42.9288 Y14.5428 
G01 X42.9649 Y14.4556 
G01 X42.9649 Y12.9611 
G01 X42.9288 Y12.8739 
G01 X42.8620 Y12.8071 
G01 X42.7747 Y12.7710 
G01 X41.6803 Y12.7710 
G01 X41.5930 Y12.8071 
G01 X41.5263 Y12.8739 
G01 X41.4901 Y12.9611 
G01 X41.4901 Y13.2170 
G01 X39.6326 Y13.2170 
G01 X39.5077 Y13.2505 
G01 X39.3956 Y13.3151 
G01 X35.1962 Y17.5146 
G01 X33.0628 Y17.5146 
G01 X32.9378 Y17.5481 
G01 X32.8258 Y17.6128 
G01 X32.7343 Y17.7043 
G01 X31.8772 Y18.5613 
G01 X31.8125 Y18.6734 
G01 X31.7790 Y18.7984 
G01 X31.7790 Y20.3002 
G01 X29.8984 Y22.1808 
G01 X29.8232 Y22.1658 
G01 X29.6279 Y22.1658 
G01 X29.4364 Y22.2039 
G01 X29.2560 Y22.2787 
G01 X29.0936 Y22.3872 
G01 X28.9555 Y22.5252 
G01 X28.8470 Y22.6876 
G01 X28.7723 Y22.8680 
G01 X28.7342 Y23.0596 
G01 X28.7342 Y23.2549 
G01 X28.7723 Y23.4464 
G01 X28.8470 Y23.6268 
G01 X28.9555 Y23.7892 
G01 X29.0936 Y23.9273 
G01 X29.2560 Y24.0358 
G01 X29.4364 Y24.1105 
G01 X29.6279 Y24.1486 
G01 X29.8232 Y24.1486 
G01 X30.0148 Y24.1105 
G01 X30.1952 Y24.0358 
G01 X30.3576 Y23.9273 
G01 X30.4957 Y23.7892 
G01 X30.6042 Y23.6268 
G01 X30.6789 Y23.4464 
G01 X30.7170 Y23.2549 
G01 X30.7170 Y23.0596 
G01 X30.6789 Y22.8680 
G01 X30.6561 Y22.8130 
G01 X32.5721 Y20.8969 
G01 X32.6636 Y20.8055 
G01 X32.7283 Y20.6934 
G01 X32.7618 Y20.5684 
G01 X32.7618 Y19.0666 
G01 X33.3310 Y18.4974 
G01 X35.4644 Y18.4974 
G01 X35.5894 Y18.4639 
G01 X35.7014 Y18.3992 
G01 X39.9009 Y14.1998 
G01 X41.4901 Y14.1998 
G01 X41.4901 Y14.4556 
G01 X41.5263 Y14.5428 
G01 X41.5930 Y14.6096 
G01 X41.6803 Y14.6458 
G01 X42.4922 Y14.6458 
G01 X42.4352 Y14.6787 
G01 X42.3532 Y14.7607 
G01 X41.5977 Y15.5162 
G01 X40.7287 Y15.5162 
G01 X40.6414 Y15.5523 
G01 X40.5747 Y15.6191 
G01 X40.5385 Y15.7064 
G01 X40.5385 Y16.8008 
G01 X40.5747 Y16.8881 
G01 X40.6414 Y16.9548 
G01 X40.7287 Y16.9910 
G01 X41.9231 Y16.9910 
G01 X42.0104 Y16.9548 
G01 X42.0772 Y16.8881 
G01 X42.1133 Y16.8008 
G01 X42.1133 Y16.2467 
G01 X42.8882 Y15.4718 
G01 X43.1564 Y15.4718 
G01 X43.2684 Y15.4418 
G01 X43.3689 Y15.3838 
G01 X46.7529 Y11.9998 
G01 X49.9416 Y11.9998 
G01 X51.2803 Y13.3385 
G01 X51.2803 Y22.9060 
G01 X50.9210 Y23.1396 
G01 X50.8846 Y23.1585 
G01 X50.8670 Y23.1747 
G01 X50.8469 Y23.1877 
G01 X50.8195 Y23.2182 
G01 X50.3016 Y23.6932 
G01 X50.2688 Y23.7179 
G01 X50.2541 Y23.7367 
G01 X50.2365 Y23.7529 
G01 X50.2144 Y23.7875 
G01 X49.7820 Y24.3414 
G01 X49.7537 Y24.3712 
G01 X49.7423 Y24.3922 
G01 X49.7277 Y24.4110 
G01 X49.7116 Y24.4488 
G01 X49.3765 Y25.0664 
G01 X49.3535 Y25.1005 
G01 X49.3457 Y25.1230 
G01 X49.3343 Y25.1440 
G01 X49.3248 Y25.1840 
G01 X49.0961 Y25.8484 
G01 X49.0791 Y25.8858 
G01 X49.0751 Y25.9093 
G01 X49.0674 Y25.9319 
G01 X49.0645 Y25.9729 
G01 X48.9962 Y26.3811 
G01 X48.7393 Y26.6380 
G01 X47.7996 Y26.6380 
G01 X47.7123 Y26.6742 
G01 X47.6456 Y26.7410 
G01 X47.6094 Y26.8282 
G01 X47.6094 Y26.8840 
G01 X44.2992 Y26.8840 
G01 X43.6601 Y26.2449 
G01 X44.9979 Y24.9070 
G01 X45.0626 Y24.7950 
G01 X45.0961 Y24.6700 
G01 X45.0961 Y22.6758 
G01 X45.0626 Y22.5508 
G01 X44.9979 Y22.4388 
G01 X44.9064 Y22.3473 
G01 X43.9244 Y21.3653 
G01 X43.9463 Y21.3434 
G01 X43.9825 Y21.2561 
G01 X43.9825 Y19.7617 
G01 X43.9463 Y19.6744 
G01 X43.8795 Y19.6076 
G01 X43.7923 Y19.5715 
G01 X42.6978 Y19.5715 
G01 X42.6106 Y19.6076 
G01 X42.5438 Y19.6744 
G01 X42.5077 Y19.7617 
G01 X42.5077 Y21.2561 
G01 X42.5438 Y21.3434 
G01 X42.6106 Y21.4102 
G01 X42.6978 Y21.4463 
G01 X42.7539 Y21.4463 
G01 X42.7871 Y21.5705 
G01 X42.8518 Y21.6826 
G01 X44.1133 Y22.9440 
G01 X44.1133 Y24.4017 
G01 X42.4635 Y26.0516 
G01 X26.4619 Y26.0516 
G01 X26.3369 Y26.0851 
G01 X26.2248 Y26.1498 
G01 X24.9195 Y27.4551 
G01 X24.7855 Y27.4115 
G01 X24.6025 Y27.3826 
G01 X24.4172 Y27.3826 
G01 X24.2342 Y27.4115 
G01 X24.0579 Y27.4688 
G01 X23.8928 Y27.5529 
G01 X23.7429 Y27.6618 
G01 X23.6119 Y27.7929 
G00 Z2.5400 
G00 X26.1519 Y27.7929 
G01 Z-0.1778 F254.00 
G01 X26.0430 Y27.9428 F508.00 
G01 X25.9589 Y28.1079 
G01 X25.9016 Y28.2841 
G01 X25.8726 Y28.4671 
G01 X25.8726 Y28.6524 
G01 X25.9016 Y28.8354 
G01 X25.9589 Y29.0116 
G01 X26.0430 Y29.1767 
G01 X26.1519 Y29.3267 
G01 X26.2829 Y29.4577 
G01 X26.2990 Y29.4694 
G01 X26.2990 Y30.4919 
G01 X26.1432 Y30.4919 
G01 X26.0559 Y30.5280 
G01 X25.9891 Y30.5948 
G01 X25.9530 Y30.6821 
G01 X25.9530 Y33.7765 
G01 X25.9891 Y33.8638 
G01 X26.0559 Y33.9305 
G01 X26.1432 Y33.9667 
G01 X26.5705 Y33.9667 
G01 X26.5705 Y38.5299 
G01 X24.0511 Y41.0494 
G01 X23.9864 Y41.1614 
G01 X23.9529 Y41.2864 
G01 X23.9529 Y43.3427 
G01 X21.7577 Y45.5379 
G01 X21.6930 Y45.6500 
G01 X21.6595 Y45.7749 
G01 X21.6595 Y46.3897 
G01 X21.5537 Y46.3897 
G01 X21.4664 Y46.4259 
G01 X21.3997 Y46.4926 
G01 X21.3635 Y46.5799 
G01 X21.3635 Y47.6743 
G01 X21.3997 Y47.7616 
G01 X21.4664 Y47.8284 
G01 X21.5537 Y47.8645 
G01 X22.7481 Y47.8645 
G01 X22.8354 Y47.8284 
G01 X22.9022 Y47.7616 
G01 X22.9383 Y47.6743 
G01 X22.9383 Y46.5799 
G01 X22.9022 Y46.4926 
G01 X22.8354 Y46.4259 
G01 X22.7481 Y46.3897 
G01 X22.6423 Y46.3897 
G01 X22.6423 Y46.0432 
G01 X24.7460 Y43.9395 
G01 X24.8375 Y43.8480 
G01 X24.9022 Y43.7359 
G01 X24.9357 Y43.6110 
G01 X24.9357 Y41.5547 
G01 X27.3637 Y39.1267 
G01 X27.4552 Y39.0352 
G01 X27.5199 Y38.9231 
G01 X27.5533 Y38.7982 
G01 X27.5533 Y33.9021 
G01 X27.5917 Y33.8638 
G01 X27.6278 Y33.7765 
G01 X27.6278 Y30.6821 
G01 X27.5917 Y30.5948 
G01 X27.5249 Y30.5280 
G01 X27.4376 Y30.4919 
G01 X27.2818 Y30.4919 
G01 X27.2818 Y29.7149 
G01 X27.3255 Y29.7080 
G01 X27.5017 Y29.6507 
G01 X27.6668 Y29.5666 
G01 X27.8167 Y29.4577 
G01 X27.9477 Y29.3267 
G01 X28.0567 Y29.1767 
G01 X28.1408 Y29.0116 
G01 X28.1980 Y28.8354 
G01 X28.2270 Y28.6524 
G01 X28.2270 Y28.4671 
G01 X28.1980 Y28.2841 
G01 X28.1408 Y28.1079 
G01 X28.0567 Y27.9428 
G01 X27.9477 Y27.7929 
G01 X27.8167 Y27.6618 
G01 X27.6668 Y27.5529 
G01 X27.5017 Y27.4688 
G01 X27.3255 Y27.4115 
G01 X27.1425 Y27.3826 
G01 X26.9572 Y27.3826 
G01 X26.7742 Y27.4115 
G01 X26.5979 Y27.4688 
G01 X26.4328 Y27.5529 
G01 X26.2829 Y27.6618 
G01 X26.1519 Y27.7929 
G00 Z2.5400 
G00 X28.6919 Y27.7929 
G01 Z-0.1778 F254.00 
G01 X28.5830 Y27.9428 F508.00 
G01 X28.4989 Y28.1079 
G01 X28.4416 Y28.2841 
G01 X28.4126 Y28.4671 
G01 X28.4126 Y28.6524 
G01 X28.4416 Y28.8354 
G01 X28.4852 Y28.9695 
G01 X28.3972 Y29.0574 
G01 X28.3325 Y29.1695 
G01 X28.2990 Y29.2945 
G01 X28.2990 Y30.4919 
G01 X28.1432 Y30.4919 
G01 X28.0559 Y30.5280 
G01 X27.9891 Y30.5948 
G01 X27.9530 Y30.6821 
G01 X27.9530 Y33.7765 
G01 X27.9891 Y33.8638 
G01 X28.0559 Y33.9305 
G01 X28.1432 Y33.9667 
G01 X29.4376 Y33.9667 
G01 X29.5249 Y33.9305 
G01 X29.5917 Y33.8638 
G01 X29.6278 Y33.7765 
G01 X29.6278 Y30.6821 
G01 X29.5917 Y30.5948 
G01 X29.5249 Y30.5280 
G01 X29.4376 Y30.4919 
G01 X29.2818 Y30.4919 
G01 X29.2818 Y29.6975 
G01 X29.3142 Y29.7080 
G01 X29.4972 Y29.7370 
G01 X29.6825 Y29.7370 
G01 X29.8655 Y29.7080 
G01 X30.0417 Y29.6507 
G01 X30.2068 Y29.5666 
G01 X30.3567 Y29.4577 
G01 X30.4877 Y29.3267 
G01 X30.5967 Y29.1767 
G01 X30.6808 Y29.0116 
G01 X30.7380 Y28.8354 
G01 X30.7670 Y28.6524 
G01 X30.7670 Y28.4671 
G01 X30.7380 Y28.2841 
G01 X30.6808 Y28.1079 
G01 X30.5967 Y27.9428 
G01 X30.4877 Y27.7929 
G01 X30.3567 Y27.6618 
G01 X30.2068 Y27.5529 
G01 X30.0417 Y27.4688 
G01 X29.8655 Y27.4115 
G01 X29.6825 Y27.3826 
G01 X29.4972 Y27.3826 
G01 X29.3142 Y27.4115 
G01 X29.1379 Y27.4688 
G01 X28.9728 Y27.5529 
G01 X28.8229 Y27.6618 
G01 X28.6919 Y27.7929 
G00 Z2.5400 
G00 X31.2319 Y27.7929 
G01 Z-0.1778 F254.00 
G01 X31.1230 Y27.9428 F508.00 
G01 X31.0389 Y28.1079 
G01 X30.9816 Y28.2841 
G01 X30.9526 Y28.4671 
G01 X30.9526 Y28.6524 
G01 X30.9816 Y28.8354 
G01 X31.0252 Y28.9695 
G01 X30.3972 Y29.5974 
G01 X30.3325 Y29.7095 
G01 X30.2990 Y29.8345 
G01 X30.2990 Y30.4919 
G01 X30.1432 Y30.4919 
G01 X30.0559 Y30.5280 
G01 X29.9891 Y30.5948 
G01 X29.9530 Y30.6821 
G01 X29.9530 Y33.7765 
G01 X29.9891 Y33.8638 
G01 X30.0559 Y33.9305 
G01 X30.1432 Y33.9667 
G01 X30.4970 Y33.9667 
G01 X30.4970 Y35.1404 
G01 X30.5305 Y35.2654 
G01 X30.5952 Y35.3775 
G01 X30.6867 Y35.4689 
G01 X31.2257 Y36.0080 
G01 X31.3378 Y36.0727 
G01 X31.4628 Y36.1062 
G01 X38.3672 Y36.1062 
G01 X38.4921 Y36.0727 
G01 X38.6042 Y36.0080 
G01 X38.6957 Y35.9165 
G01 X43.9695 Y30.6427 
G01 X44.0342 Y30.5306 
G01 X44.0677 Y30.4057 
G01 X44.0677 Y30.1199 
G01 X44.4225 Y29.7651 
G01 X44.9117 Y29.7651 
G01 X44.9117 Y29.8209 
G01 X44.9478 Y29.9082 
G01 X45.0146 Y29.9750 
G01 X45.1019 Y30.0111 
G01 X46.2963 Y30.0111 
G01 X46.3836 Y29.9750 
G01 X46.4503 Y29.9082 
G01 X46.4865 Y29.8209 
G01 X46.4865 Y29.7651 
G01 X47.6959 Y29.7651 
G01 X48.0507 Y30.1199 
G01 X48.0507 Y30.4380 
G01 X47.7996 Y30.4380 
G01 X47.7123 Y30.4742 
G01 X47.6456 Y30.5410 
G01 X47.6094 Y30.6282 
G01 X47.6094 Y31.5227 
G01 X47.4725 Y31.3858 
G01 X47.3810 Y31.2943 
G01 X47.2690 Y31.2296 
G01 X47.1440 Y31.1961 
G01 X46.4865 Y31.1961 
G01 X46.4865 Y30.4265 
G01 X46.4503 Y30.3392 
G01 X46.3836 Y30.2725 
G01 X46.2963 Y30.2363 
G01 X45.1019 Y30.2363 
G01 X45.0146 Y30.2725 
G01 X44.9478 Y30.3392 
G01 X44.9117 Y30.4265 
G01 X44.9117 Y30.5587 
G01 X44.8740 Y30.5805 
G01 X44.7760 Y30.6785 
G01 X44.6845 Y30.7700 
G01 X34.9167 Y40.5378 
G01 X29.0533 Y40.5378 
G01 X28.9154 Y40.5748 
G01 X28.7918 Y40.6461 
G01 X24.6689 Y44.7690 
G01 X24.5680 Y44.8699 
G01 X24.4966 Y44.9936 
G01 X24.4596 Y45.1315 
G01 X24.4596 Y46.8919 
G01 X24.1432 Y46.8919 
G01 X24.0559 Y46.9280 
G01 X23.9891 Y46.9948 
G01 X23.9530 Y47.0821 
G01 X23.9530 Y48.4168 
G01 X21.4994 Y50.8703 
G01 X21.4710 Y50.8610 
G01 X21.2879 Y50.8321 
G01 X21.1027 Y50.8321 
G01 X20.9196 Y50.8610 
G01 X20.7434 Y50.9183 
G01 X20.5783 Y51.0024 
G01 X20.4284 Y51.1113 
G01 X20.2974 Y51.2424 
G01 X20.1885 Y51.3923 
G01 X20.1044 Y51.5574 
G01 X20.0471 Y51.7336 
G01 X20.0181 Y51.9166 
G01 X20.0181 Y52.1019 
G01 X20.0471 Y52.2849 
G01 X20.0906 Y52.4190 
G01 X19.9982 Y52.5115 
G01 X14.6548 Y52.5115 
G01 X14.4902 Y52.3469 
G01 X14.4902 Y51.5086 
G01 X14.6557 Y51.5086 
G01 X14.7429 Y51.4725 
G01 X14.8097 Y51.4057 
G01 X14.8458 Y51.3184 
G01 X14.8458 Y48.9888 
G01 X14.8125 Y48.9082 
G01 X15.7945 Y47.9263 
G01 X17.8021 Y47.9263 
G01 X17.8021 Y48.0321 
G01 X17.8382 Y48.1193 
G01 X17.9050 Y48.1861 
G01 X17.9922 Y48.2223 
G01 X19.0867 Y48.2223 
G01 X19.1739 Y48.1861 
G01 X19.2407 Y48.1193 
G01 X19.2769 Y48.0321 
G01 X19.2769 Y46.8376 
G01 X19.2407 Y46.7504 
G01 X19.1739 Y46.6836 
G01 X19.0867 Y46.6475 
G01 X17.9922 Y46.6475 
G01 X17.9050 Y46.6836 
G01 X17.8382 Y46.7504 
G01 X17.8021 Y46.8376 
G01 X17.8021 Y46.9435 
G01 X15.5262 Y46.9435 
G01 X15.4012 Y46.9770 
G01 X15.2892 Y47.0416 
G01 X13.7489 Y48.5819 
G01 X13.6574 Y48.6734 
G01 X13.5927 Y48.7854 
G01 X13.5892 Y48.7986 
G01 X13.3420 Y48.7986 
G01 X13.2548 Y48.8348 
G01 X13.1880 Y48.9015 
G01 X13.1518 Y48.9888 
G01 X13.1518 Y51.3184 
G01 X13.1880 Y51.4057 
G01 X13.2548 Y51.4725 
G01 X13.3420 Y51.5086 
G01 X13.5074 Y51.5086 
G01 X13.5074 Y52.6151 
G01 X13.5409 Y52.7401 
G01 X13.6056 Y52.8521 
G01 X14.0581 Y53.3046 
G01 X14.1496 Y53.3961 
G01 X14.2616 Y53.4608 
G01 X14.3866 Y53.4943 
G01 X20.2664 Y53.4943 
G01 X20.3914 Y53.4608 
G01 X20.5034 Y53.3961 
G01 X20.7856 Y53.1139 
G01 X20.9196 Y53.1575 
G01 X21.1027 Y53.1865 
G01 X21.2879 Y53.1865 
G01 X21.4710 Y53.1575 
G01 X21.6050 Y53.1139 
G01 X22.6072 Y54.1161 
G01 X22.7192 Y54.1808 
G01 X22.8442 Y54.2143 
G01 X40.1494 Y54.2143 
G01 X40.2743 Y54.1808 
G01 X40.3864 Y54.1161 
G01 X42.3377 Y52.1648 
G01 X42.4023 Y52.0528 
G01 X42.4216 Y51.9810 
G01 X42.5417 Y51.9810 
G01 X42.6289 Y51.9449 
G01 X42.6957 Y51.8781 
G01 X42.7318 Y51.7908 
G01 X42.7318 Y50.6964 
G01 X42.6957 Y50.6091 
G01 X42.6289 Y50.5424 
G01 X42.5417 Y50.5062 
G01 X41.3472 Y50.5062 
G01 X41.2600 Y50.5424 
G01 X41.1932 Y50.6091 
G01 X41.1570 Y50.6964 
G01 X41.1570 Y51.7908 
G01 X41.1932 Y51.8781 
G01 X41.2138 Y51.8988 
G01 X39.8811 Y53.2315 
G01 X23.1125 Y53.2315 
G01 X22.3000 Y52.4190 
G01 X22.3435 Y52.2849 
G01 X22.3725 Y52.1019 
G01 X22.3725 Y51.9166 
G01 X22.3435 Y51.7336 
G01 X22.2863 Y51.5574 
G01 X22.2579 Y51.5017 
G01 X23.9530 Y49.8066 
G01 X23.9530 Y50.1765 
G01 X23.9891 Y50.2638 
G01 X24.0559 Y50.3306 
G01 X24.1432 Y50.3667 
G01 X25.1605 Y50.3667 
G01 X24.4522 Y51.0750 
G01 X24.3523 Y51.0024 
G01 X24.1872 Y50.9183 
G01 X24.0110 Y50.8610 
G01 X23.8280 Y50.8321 
G01 X23.6427 Y50.8321 
G01 X23.4596 Y50.8610 
G01 X23.2834 Y50.9183 
G01 X23.1183 Y51.0024 
G01 X22.9684 Y51.1113 
G01 X22.8374 Y51.2424 
G01 X22.7285 Y51.3923 
G01 X22.6443 Y51.5574 
G01 X22.5871 Y51.7336 
G01 X22.5581 Y51.9166 
G01 X22.5581 Y52.1019 
G01 X22.5871 Y52.2849 
G01 X22.6443 Y52.4611 
G01 X22.7285 Y52.6262 
G01 X22.8374 Y52.7762 
G01 X22.9684 Y52.9072 
G01 X23.1183 Y53.0161 
G01 X23.2834 Y53.1002 
G01 X23.4596 Y53.1575 
G01 X23.6427 Y53.1865 
G01 X23.8280 Y53.1865 
G01 X24.0110 Y53.1575 
G01 X24.1872 Y53.1002 
G01 X24.3523 Y53.0161 
G01 X24.5022 Y52.9072 
G01 X24.6332 Y52.7762 
G01 X24.7421 Y52.6262 
G01 X24.8263 Y52.4611 
G01 X24.8835 Y52.2849 
G01 X24.9125 Y52.1019 
G01 X24.9125 Y52.0046 
G01 X25.1165 Y51.8006 
G01 X25.0981 Y51.9166 
G01 X25.0981 Y52.1019 
G01 X25.1271 Y52.2849 
G01 X25.1843 Y52.4611 
G01 X25.2685 Y52.6262 
G01 X25.3774 Y52.7762 
G01 X25.5084 Y52.9072 
G01 X25.6583 Y53.0161 
G01 X25.8234 Y53.1002 
G01 X25.9996 Y53.1575 
G01 X26.1827 Y53.1865 
G01 X26.3680 Y53.1865 
G01 X26.5510 Y53.1575 
G01 X26.7272 Y53.1002 
G01 X26.8923 Y53.0161 
G01 X27.0422 Y52.9072 
G01 X27.1732 Y52.7762 
G01 X27.2821 Y52.6262 
G01 X27.3663 Y52.4611 
G01 X27.4235 Y52.2849 
G01 X27.4525 Y52.1019 
G01 X27.4525 Y51.9166 
G01 X27.4235 Y51.7336 
G01 X27.4208 Y51.7252 
G01 X28.7793 Y50.3667 
G01 X29.4376 Y50.3667 
G01 X29.5249 Y50.3306 
G01 X29.5917 Y50.2638 
G01 X29.6278 Y50.1765 
G01 X29.6278 Y47.0821 
G01 X29.5917 Y46.9948 
G01 X29.5249 Y46.9280 
G01 X29.4376 Y46.8919 
G01 X28.1432 Y46.8919 
G01 X28.0559 Y46.9280 
G01 X27.9891 Y46.9948 
G01 X27.9530 Y47.0821 
G01 X27.9530 Y49.8031 
G01 X27.6278 Y50.1283 
G01 X27.6278 Y47.0821 
G01 X27.5917 Y46.9948 
G01 X27.5249 Y46.9280 
G01 X27.4376 Y46.8919 
G01 X26.1432 Y46.8919 
G01 X26.0559 Y46.9280 
G01 X25.9891 Y46.9948 
G01 X25.9530 Y47.0821 
G01 X25.9530 Y49.5742 
G01 X25.6278 Y49.8994 
G01 X25.6278 Y47.0821 
G01 X25.5917 Y46.9948 
G01 X25.5440 Y46.9472 
G01 X25.5440 Y45.4274 
G01 X29.3493 Y41.6222 
G01 X35.1408 Y41.6222 
G01 X35.2787 Y41.5853 
G01 X35.4024 Y41.5139 
G01 X35.5033 Y41.4129 
G01 X35.5747 Y41.2893 
G01 X35.5819 Y41.2625 
G01 X45.0777 Y31.7666 
G01 X45.3918 Y32.0807 
G01 X45.5039 Y32.1454 
G01 X45.6289 Y32.1789 
G01 X46.8758 Y32.1789 
G01 X48.3659 Y33.6690 
G01 X48.4779 Y33.7337 
G01 X48.6029 Y33.7672 
G01 X49.1308 Y33.7672 
G01 X49.1308 Y33.8230 
G01 X49.1670 Y33.9103 
G01 X49.2337 Y33.9771 
G01 X49.3210 Y34.0132 
G01 X50.5154 Y34.0132 
G01 X50.6027 Y33.9771 
G01 X50.6695 Y33.9103 
G01 X50.7056 Y33.8230 
G01 X50.7056 Y32.7286 
G01 X50.6695 Y32.6413 
G01 X50.6027 Y32.5745 
G01 X50.5154 Y32.5384 
G01 X49.3210 Y32.5384 
G01 X49.2337 Y32.5745 
G01 X49.1670 Y32.6413 
G01 X49.1308 Y32.7286 
G01 X49.1308 Y32.7844 
G01 X48.8711 Y32.7844 
G01 X47.9996 Y31.9128 
G01 X49.5940 Y31.9128 
G01 X49.6813 Y31.8767 
G01 X49.7481 Y31.8099 
G01 X49.7842 Y31.7227 
G01 X49.7842 Y30.6282 
G01 X49.7481 Y30.5410 
G01 X49.6813 Y30.4742 
G01 X49.5940 Y30.4380 
G01 X49.0335 Y30.4380 
G01 X49.0335 Y29.8517 
G01 X49.0000 Y29.7267 
G01 X48.9353 Y29.6147 
G01 X48.8438 Y29.5232 
G01 X48.2012 Y28.8805 
G01 X48.0891 Y28.8158 
G01 X47.9641 Y28.7823 
G01 X46.4865 Y28.7823 
G01 X46.4865 Y28.7265 
G01 X46.4503 Y28.6392 
G01 X46.3836 Y28.5725 
G01 X46.2963 Y28.5363 
G01 X45.1019 Y28.5363 
G01 X45.0146 Y28.5725 
G01 X44.9478 Y28.6392 
G01 X44.9117 Y28.7265 
G01 X44.9117 Y28.7823 
G01 X44.1543 Y28.7823 
G01 X44.0293 Y28.8158 
G01 X43.9172 Y28.8805 
G01 X43.2745 Y29.5232 
G01 X43.1831 Y29.6147 
G01 X43.1184 Y29.7267 
G01 X43.0849 Y29.8517 
G01 X43.0849 Y30.1374 
G01 X39.6278 Y33.5945 
G01 X39.6278 Y31.9167 
G01 X41.8801 Y29.6644 
G01 X42.0142 Y29.7080 
G01 X42.1972 Y29.7370 
G01 X42.3825 Y29.7370 
G01 X42.5655 Y29.7080 
G01 X42.7417 Y29.6507 
G01 X42.9068 Y29.5666 
G01 X43.0567 Y29.4577 
G01 X43.1877 Y29.3267 
G01 X43.2966 Y29.1767 
G01 X43.3808 Y29.0116 
G01 X43.4380 Y28.8354 
G01 X43.4670 Y28.6524 
G01 X43.4670 Y28.4671 
G01 X43.4380 Y28.2841 
G01 X43.3808 Y28.1079 
G01 X43.2966 Y27.9428 
G01 X43.1877 Y27.7929 
G01 X43.0567 Y27.6618 
G01 X42.9068 Y27.5529 
G01 X42.7417 Y27.4688 
G01 X42.5655 Y27.4115 
G01 X42.3825 Y27.3826 
G01 X42.1972 Y27.3826 
G01 X42.0142 Y27.4115 
G01 X41.8379 Y27.4688 
G01 X41.6728 Y27.5529 
G01 X41.5229 Y27.6618 
G01 X41.3919 Y27.7929 
G01 X41.2830 Y27.9428 
G01 X41.1989 Y28.1079 
G01 X41.1416 Y28.2841 
G01 X41.1126 Y28.4671 
G01 X41.1126 Y28.6524 
G01 X41.1416 Y28.8354 
G01 X41.1852 Y28.9695 
G01 X39.5757 Y30.5789 
G01 X39.5249 Y30.5280 
G01 X39.4376 Y30.4919 
G01 X38.5126 Y30.4919 
G01 X39.3401 Y29.6644 
G01 X39.4742 Y29.7080 
G01 X39.6572 Y29.7370 
G01 X39.8425 Y29.7370 
G01 X40.0255 Y29.7080 
G01 X40.2017 Y29.6507 
G01 X40.3668 Y29.5666 
G01 X40.5167 Y29.4577 
G01 X40.6477 Y29.3267 
G01 X40.7567 Y29.1767 
G01 X40.8408 Y29.0116 
G01 X40.8980 Y28.8354 
G01 X40.9270 Y28.6524 
G01 X40.9270 Y28.4671 
G01 X40.8980 Y28.2841 
G01 X40.8408 Y28.1079 
G01 X40.7567 Y27.9428 
G01 X40.6477 Y27.7929 
G01 X40.5167 Y27.6618 
G01 X40.3668 Y27.5529 
G01 X40.2017 Y27.4688 
G01 X40.0255 Y27.4115 
G01 X39.8425 Y27.3826 
G01 X39.6572 Y27.3826 
G01 X39.4742 Y27.4115 
G01 X39.2979 Y27.4688 
G01 X39.1328 Y27.5529 
G01 X38.9829 Y27.6618 
G01 X38.8519 Y27.7929 
G01 X38.7430 Y27.9428 
G01 X38.6589 Y28.1079 
G01 X38.6016 Y28.2841 
G01 X38.5726 Y28.4671 
G01 X38.5726 Y28.6524 
G01 X38.6016 Y28.8354 
G01 X38.6452 Y28.9695 
G01 X37.1227 Y30.4919 
G01 X36.1432 Y30.4919 
G01 X36.0559 Y30.5280 
G01 X35.9891 Y30.5948 
G01 X35.9530 Y30.6821 
G01 X35.9530 Y33.7765 
G01 X35.9891 Y33.8638 
G01 X36.0559 Y33.9305 
G01 X36.1432 Y33.9667 
G01 X37.4376 Y33.9667 
G01 X37.5249 Y33.9305 
G01 X37.5917 Y33.8638 
G01 X37.6278 Y33.7765 
G01 X37.6278 Y31.3767 
G01 X37.9530 Y31.0515 
G01 X37.9530 Y33.7765 
G01 X37.9891 Y33.8638 
G01 X38.0559 Y33.9305 
G01 X38.1432 Y33.9667 
G01 X39.2556 Y33.9667 
G01 X38.0989 Y35.1234 
G01 X31.7310 Y35.1234 
G01 X31.4798 Y34.8722 
G01 X31.4798 Y33.9492 
G01 X31.5249 Y33.9305 
G01 X31.5917 Y33.8638 
G01 X31.6278 Y33.7765 
G01 X31.6278 Y30.6821 
G01 X31.5917 Y30.5948 
G01 X31.5249 Y30.5280 
G01 X31.4376 Y30.4919 
G01 X31.2818 Y30.4919 
G01 X31.2818 Y30.1027 
G01 X31.7201 Y29.6644 
G01 X31.8542 Y29.7080 
G01 X32.0372 Y29.7370 
G01 X32.2225 Y29.7370 
G01 X32.4055 Y29.7080 
G01 X32.5817 Y29.6507 
G01 X32.7468 Y29.5666 
G01 X32.8967 Y29.4577 
G01 X33.0277 Y29.3267 
G01 X33.1367 Y29.1767 
G01 X33.2208 Y29.0116 
G01 X33.2780 Y28.8354 
G01 X33.3070 Y28.6524 
G01 X33.3070 Y28.4671 
G01 X33.2780 Y28.2841 
G01 X33.2208 Y28.1079 
G01 X33.1367 Y27.9428 
G01 X33.0277 Y27.7929 
G01 X32.8967 Y27.6618 
G01 X32.7468 Y27.5529 
G01 X32.5817 Y27.4688 
G01 X32.4055 Y27.4115 
G01 X32.2225 Y27.3826 
G01 X32.0372 Y27.3826 
G01 X31.8542 Y27.4115 
G01 X31.6779 Y27.4688 
G01 X31.5128 Y27.5529 
G01 X31.3629 Y27.6618 
G01 X31.2319 Y27.7929 
G00 Z2.5400 
G00 X33.7719 Y27.7929 
G01 Z-0.1778 F254.00 
G01 X33.6630 Y27.9428 F508.00 
G01 X33.5789 Y28.1079 
G01 X33.5216 Y28.2841 
G01 X33.4926 Y28.4671 
G01 X33.4926 Y28.6524 
G01 X33.5216 Y28.8354 
G01 X33.5652 Y28.9695 
G01 X33.3191 Y29.2156 
G01 X32.3972 Y30.1375 
G01 X32.3325 Y30.2495 
G01 X32.2990 Y30.3745 
G01 X32.2990 Y30.4919 
G01 X32.1432 Y30.4919 
G01 X32.0559 Y30.5280 
G01 X31.9891 Y30.5948 
G01 X31.9530 Y30.6821 
G01 X31.9530 Y33.7765 
G01 X31.9891 Y33.8638 
G01 X32.0559 Y33.9305 
G01 X32.1432 Y33.9667 
G01 X33.4376 Y33.9667 
G01 X33.5249 Y33.9305 
G01 X33.5917 Y33.8638 
G01 X33.6278 Y33.7765 
G01 X33.6278 Y30.6821 
G01 X33.5917 Y30.5948 
G01 X33.5249 Y30.5280 
G01 X33.4376 Y30.4919 
G01 X33.4326 Y30.4919 
G01 X34.0140 Y29.9105 
G01 X34.2601 Y29.6644 
G01 X34.3942 Y29.7080 
G01 X34.5772 Y29.7370 
G01 X34.7625 Y29.7370 
G01 X34.9455 Y29.7080 
G01 X35.1217 Y29.6507 
G01 X35.2868 Y29.5666 
G01 X35.4367 Y29.4577 
G01 X35.5677 Y29.3267 
G01 X35.6767 Y29.1767 
G01 X35.7608 Y29.0116 
G01 X35.8180 Y28.8354 
G01 X35.8470 Y28.6524 
G01 X35.8470 Y28.4671 
G01 X35.8180 Y28.2841 
G01 X35.7608 Y28.1079 
G01 X35.6767 Y27.9428 
G01 X35.5677 Y27.7929 
G01 X35.4367 Y27.6618 
G01 X35.2868 Y27.5529 
G01 X35.1217 Y27.4688 
G01 X34.9455 Y27.4115 
G01 X34.7625 Y27.3826 
G01 X34.5772 Y27.3826 
G01 X34.3942 Y27.4115 
G01 X34.2179 Y27.4688 
G01 X34.0528 Y27.5529 
G01 X33.9029 Y27.6618 
G01 X33.7719 Y27.7929 
G00 Z2.5400 
G00 X36.3119 Y27.7929 
G01 Z-0.1778 F254.00 
G01 X36.2030 Y27.9428 F508.00 
G01 X36.1189 Y28.1079 
G01 X36.0616 Y28.2841 
G01 X36.0326 Y28.4671 
G01 X36.0326 Y28.6524 
G01 X36.0616 Y28.8354 
G01 X36.1052 Y28.9695 
G01 X34.5827 Y30.4919 
G01 X34.1432 Y30.4919 
G01 X34.0559 Y30.5280 
G01 X33.9891 Y30.5948 
G01 X33.9530 Y30.6821 
G01 X33.9530 Y33.7765 
G01 X33.9891 Y33.8638 
G01 X34.0559 Y33.9305 
G01 X34.1432 Y33.9667 
G01 X35.4376 Y33.9667 
G01 X35.5249 Y33.9305 
G01 X35.5917 Y33.8638 
G01 X35.6278 Y33.7765 
G01 X35.6278 Y30.8367 
G01 X36.8001 Y29.6644 
G01 X36.9342 Y29.7080 
G01 X37.1172 Y29.7370 
G01 X37.3025 Y29.7370 
G01 X37.4855 Y29.7080 
G01 X37.6617 Y29.6507 
G01 X37.8268 Y29.5666 
G01 X37.9767 Y29.4577 
G01 X38.1077 Y29.3267 
G01 X38.2167 Y29.1767 
G01 X38.3008 Y29.0116 
G01 X38.3580 Y28.8354 
G01 X38.3870 Y28.6524 
G01 X38.3870 Y28.4671 
G01 X38.3580 Y28.2841 
G01 X38.3008 Y28.1079 
G01 X38.2167 Y27.9428 
G01 X38.1077 Y27.7929 
G01 X37.9767 Y27.6618 
G01 X37.8268 Y27.5529 
G01 X37.6617 Y27.4688 
G01 X37.4855 Y27.4115 
G01 X37.3025 Y27.3826 
G01 X37.1172 Y27.3826 
G01 X36.9342 Y27.4115 
G01 X36.7579 Y27.4688 
G01 X36.5928 Y27.5529 
G01 X36.4429 Y27.6618 
G01 X36.3119 Y27.7929 
G00 Z2.5400 
G00 X36.7677 Y25.1468 
G01 Z-0.1778 F254.00 
G01 X36.8798 Y25.2115 F508.00 
G01 X37.0047 Y25.2450 
G01 X41.0176 Y25.2450 
G01 X41.1425 Y25.2115 
G01 X41.2546 Y25.1468 
G01 X42.6883 Y23.7131 
G01 X42.7269 Y23.6463 
G01 X42.8423 Y23.6463 
G01 X42.9295 Y23.6102 
G01 X42.9963 Y23.5434 
G01 X43.0325 Y23.4561 
G01 X43.0325 Y21.9617 
G01 X42.9963 Y21.8744 
G01 X42.9295 Y21.8076 
G01 X42.8423 Y21.7715 
G01 X41.7478 Y21.7715 
G01 X41.6606 Y21.8076 
G01 X41.5938 Y21.8744 
G01 X41.5577 Y21.9617 
G01 X41.5577 Y23.4539 
G01 X40.7493 Y24.2622 
G01 X37.2730 Y24.2622 
G01 X36.4375 Y23.4267 
G01 X36.4705 Y23.2609 
G01 X36.4705 Y23.0656 
G01 X36.4324 Y22.8741 
G01 X36.3577 Y22.6937 
G01 X36.2492 Y22.5313 
G01 X36.1111 Y22.3932 
G01 X35.9487 Y22.2847 
G01 X35.7683 Y22.2100 
G01 X35.5767 Y22.1719 
G01 X35.3815 Y22.1719 
G01 X35.1899 Y22.2100 
G01 X35.0095 Y22.2847 
G01 X34.8471 Y22.3932 
G01 X34.7090 Y22.5313 
G01 X34.6005 Y22.6937 
G01 X34.5258 Y22.8741 
G01 X34.4877 Y23.0656 
G01 X34.4877 Y23.2609 
G01 X34.5258 Y23.4525 
G01 X34.6005 Y23.6329 
G01 X34.7090 Y23.7952 
G01 X34.8471 Y23.9333 
G01 X35.0095 Y24.0418 
G01 X35.1899 Y24.1166 
G01 X35.3815 Y24.1547 
G01 X35.5767 Y24.1547 
G01 X35.7426 Y24.1217 
G01 X36.7677 Y25.1468 
G00 Z2.5400 
G00 X40.7106 Y21.4102 
G01 Z-0.1778 F254.00 
G01 X40.7978 Y21.4463 F508.00 
G01 X41.8923 Y21.4463 
G01 X41.9795 Y21.4102 
G01 X42.0463 Y21.3434 
G01 X42.0825 Y21.2561 
G01 X42.0825 Y19.7617 
G01 X42.0463 Y19.6744 
G01 X41.9795 Y19.6076 
G01 X41.8923 Y19.5715 
G01 X41.8173 Y19.5715 
G01 X41.8173 Y18.6910 
G01 X41.9231 Y18.6910 
G01 X42.0104 Y18.6548 
G01 X42.0772 Y18.5881 
G01 X42.1133 Y18.5008 
G01 X42.1133 Y18.4134 
G01 X43.1444 Y18.4134 
G01 X43.1444 Y18.4692 
G01 X43.1805 Y18.5564 
G01 X43.2473 Y18.6232 
