(.../EAGLE-8.3.2/ulp/pcb-gcode-3/pcb-gcode.ulp)
(Copyright 2005 - 2012 by John Johnson)
(See readme.txt for licensing terms.)
(This file generated from the board:)
(.../PCB_DEV_BOARD-ESP12/BHOnOfreDevBoard.brd)
(Current profile is .../pcb-gcode-3/profiles/generic.pp  )
(This file generated 26/12/2017 01:02)
(Settings from pcb-machine.h)
(spindle on time = 3.0000)
(spindle speed = 20000.0000)
(tool change at 0.0000 0.0000 3.4000 )
(feed rate xy = F0.00  )
(feed rate z  = F508.00 )
(Z Axis Settings)
(  High     Up        Down     Drill)
(8.7000 	2.5400 	-0.1778 	-0.2794 )
(Settings from pcb-defaults.h)
(isolate min = 0.0254)
(isolate max = 1.1000)
(isolate step = 0.1270)
(Generated top outlines, top drill, )
(Unit of measure: mm)
( Tool|       Size       |  Min Sub |  Max Sub |   Count )
( T01  0.800mm 0.0315in 0.0000in 0.0000in )
( T02  1.000mm 0.0394in 0.0000in 0.0000in )
( T03  1.016mm 0.0400in 0.0000in 0.0000in )
( T04  1.200mm 0.0472in 0.0000in 0.0000in )
( T05  1.400mm 0.0551in 0.0000in 0.0000in )
(Metric Mode)
G21
(Absolute Coordinates)
G90
S20000
G00 Z8.7000 
G00 X0.0000 Y0.0000 
M03
G04 P3.000000
M05
G00 Z3.4000 
M06 T01  ; 0.8000 
G01 Z0.0000 F508.00 
M06 
G00 Z2.5400 
M03
G04 P3.000000
G00 Z2.540000
G00 X24.2547 Y3.2290 
G01 Z-0.2794 F508.00 
G01 Z2.540000
(R2.5400  P1.000000)
G00 X29.3347 Y3.2290 
G01 Z-0.279400
G01 Z2.540000
M05
G00 Z3.4000 
G00 X0.0000 Y0.0000 
M06 T02  ; 1.0000 
G01 Z0.0000 F508.00 
M06 
G00 Z2.5400 
M03
G04 P3.000000
G00 Z2.540000
G00 X24.7927 Y15.3546 
G01 Z-0.2794 F508.00 
G01 Z2.540000
(R2.5400  P1.000000)
G00 X24.7987 Y9.6759 
G01 Z-0.279400
G01 Z2.540000
G00 X32.4187 Y9.6759 
G01 Z-0.279400
G01 Z2.540000
G00 X32.4127 Y15.3546 
G01 Z-0.279400
G01 Z2.540000
G00 X42.5727 Y15.3546 
G01 Z-0.279400
G01 Z2.540000
G00 X45.1127 Y15.3546 
G01 Z-0.279400
G01 Z2.540000
G00 X45.1187 Y9.6759 
G01 Z-0.279400
G01 Z2.540000
G00 X42.5787 Y9.6759 
G01 Z-0.279400
G01 Z2.540000
M05
G00 Z3.4000 
G00 X0.0000 Y0.0000 
M06 T03  ; 1.0160 
G01 Z0.0000 F508.00 
M06 
G00 Z2.5400 
M03
G04 P3.000000
G00 Z2.540000
G00 X21.9012 Y48.1464 
G01 Z-0.2794 F508.00 
G01 Z2.540000
(R2.5400  P1.000000)
G00 X24.4412 Y48.1464 
G01 Z-0.279400
G01 Z2.540000
G00 X26.9811 Y48.1464 
G01 Z-0.279400
G01 Z2.540000
G00 X29.5211 Y48.1464 
G01 Z-0.279400
G01 Z2.540000
G00 X32.0611 Y48.1464 
G01 Z-0.279400
G01 Z2.540000
G00 X34.6011 Y48.1464 
G01 Z-0.279400
G01 Z2.540000
G00 X37.1412 Y48.1464 
G01 Z-0.279400
G01 Z2.540000
G00 X39.6812 Y48.1464 
G01 Z-0.279400
G01 Z2.540000
G00 X39.6812 Y50.8825 
G01 Z-0.279400
G01 Z2.540000
G00 X37.1412 Y50.8825 
G01 Z-0.279400
G01 Z2.540000
G00 X34.6011 Y50.8825 
G01 Z-0.279400
G01 Z2.540000
G00 X32.0611 Y50.8825 
G01 Z-0.279400
G01 Z2.540000
G00 X29.5211 Y50.8825 
G01 Z-0.279400
G01 Z2.540000
G00 X26.9811 Y50.8825 
G01 Z-0.279400
G01 Z2.540000
G00 X24.4412 Y50.8825 
G01 Z-0.279400
G01 Z2.540000
G00 X21.9012 Y50.8825 
G01 Z-0.279400
G01 Z2.540000
G00 X21.9012 Y53.6467 
G01 Z-0.279400
G01 Z2.540000
G00 X24.4412 Y53.6467 
G01 Z-0.279400
G01 Z2.540000
G00 X26.9811 Y53.6467 
G01 Z-0.279400
G01 Z2.540000
G00 X29.5211 Y53.6467 
G01 Z-0.279400
G01 Z2.540000
G00 X32.0611 Y53.6467 
G01 Z-0.279400
G01 Z2.540000
G00 X34.6011 Y53.6467 
G01 Z-0.279400
G01 Z2.540000
G00 X37.1412 Y53.6467 
G01 Z-0.279400
G01 Z2.540000
G00 X39.6812 Y53.6467 
G01 Z-0.279400
G01 Z2.540000
G00 X39.6755 Y24.0283 
G01 Z-0.279400
G01 Z2.540000
G00 X37.1355 Y24.0283 
G01 Z-0.279400
G01 Z2.540000
G00 X34.5955 Y24.0283 
G01 Z-0.279400
G01 Z2.540000
G00 X32.0555 Y24.0283 
G01 Z-0.279400
G01 Z2.540000
G00 X29.5155 Y24.0283 
G01 Z-0.279400
G01 Z2.540000
G00 X26.9755 Y24.0283 
G01 Z-0.279400
G01 Z2.540000
G00 X24.4355 Y24.0283 
G01 Z-0.279400
G01 Z2.540000
G00 X24.4355 Y21.2588 
G01 Z-0.279400
G01 Z2.540000
G00 X26.9755 Y21.2588 
G01 Z-0.279400
G01 Z2.540000
G00 X29.5155 Y21.2588 
G01 Z-0.279400
G01 Z2.540000
G00 X32.0555 Y21.2588 
G01 Z-0.279400
G01 Z2.540000
G00 X34.5955 Y21.2588 
G01 Z-0.279400
G01 Z2.540000
G00 X37.1355 Y21.2588 
G01 Z-0.279400
G01 Z2.540000
G00 X39.6755 Y21.2588 
G01 Z-0.279400
G01 Z2.540000
G00 X42.2155 Y21.2588 
G01 Z-0.279400
G01 Z2.540000
G00 X42.2155 Y24.0283 
G01 Z-0.279400
G01 Z2.540000
G00 X42.2155 Y18.4864 
G01 Z-0.279400
G01 Z2.540000
G00 X39.6755 Y18.4864 
G01 Z-0.279400
G01 Z2.540000
G00 X37.1355 Y18.4864 
G01 Z-0.279400
G01 Z2.540000
G00 X34.5955 Y18.4864 
G01 Z-0.279400
G01 Z2.540000
G00 X32.0555 Y18.4864 
G01 Z-0.279400
G01 Z2.540000
G00 X29.5155 Y18.4864 
G01 Z-0.279400
G01 Z2.540000
G00 X26.9755 Y18.4864 
G01 Z-0.279400
G01 Z2.540000
G00 X24.4355 Y18.4864 
G01 Z-0.279400
G01 Z2.540000
G00 X31.8927 Y1.4840 
G01 Z-0.279400
G01 Z2.540000
G00 X35.2995 Y3.4181 
G01 Z-0.279400
G01 Z2.540000
M05
G00 Z3.4000 
G00 X0.0000 Y0.0000 
M06 T04  ; 1.2000 
G01 Z0.0000 F508.00 
M06 
G00 Z2.5400 
M03
G04 P3.000000
G00 Z2.540000
G00 X10.6470 Y6.6777 
G01 Z-0.2794 F508.00 
G01 Z2.540000
(R2.5400  P1.000000)
G00 X14.1470 Y6.6777 
G01 Z-0.279400
G01 Z2.540000
G00 X17.6470 Y6.6777 
G01 Z-0.279400
G01 Z2.540000
G00 X21.1470 Y6.6777 
G01 Z-0.279400
G01 Z2.540000
M05
G00 Z3.4000 
G00 X0.0000 Y0.0000 
M06 T05  ; 1.4000 
G01 Z0.0000 F508.00 
M06 
G00 Z2.5400 
M03
G04 P3.000000
G00 Z2.540000
G00 X5.1784 Y42.1448 
G01 Z-0.2794 F508.00 
G01 Z2.540000
(R2.5400  P1.000000)
G00 X20.5784 Y42.1448 
G01 Z-0.279400
G01 Z2.540000
G00 X15.3784 Y12.7448 
G01 Z-0.279400
G01 Z2.540000
G00 X10.2984 Y12.7448 
G01 Z-0.279400
G01 Z2.540000
T01 
G00 Z8.7000 
M05
M02
