(.../EAGLE-8.3.2/ulp/pcb-gcode-3/pcb-gcode.ulp)
(Copyright 2005 - 2012 by John Johnson)
(See readme.txt for licensing terms.)
(This file generated from the board:)
(.../PCB_ESP8266-12E/BHOnOff/BHONoff.brd)
(Current profile is .../pcb-gcode-3/profiles/generic.pp  )
(This file generated 11/12/2017 14:08)
(Settings from pcb-machine.h)
(spindle on time = 3.0000)
(spindle speed = 20000.0000)
(tool change at 0.0000 0.0000 3.4000 )
(feed rate xy = F0.00  )
(feed rate z  = F508.00 )
(Z Axis Settings)
(  High     Up        Down     Drill)
(8.7000 	2.5400 	-0.1778 	-0.2794 )
(Settings from pcb-defaults.h)
(isolate min = 0.0254)
(isolate max = 0.5000)
(isolate step = 0.1270)
(Generated top outlines, top drill, )
(Unit of measure: mm)
( Tool|       Size       |  Min Sub |  Max Sub |   Count )
( T01  0.800mm 0.0315in 0.0000in 0.0000in )
( T02  1.000mm 0.0394in 0.0000in 0.0000in )
( T03  1.016mm 0.0400in 0.0000in 0.0000in )
( T04  1.300mm 0.0512in 0.0000in 0.0000in )
( T05  1.400mm 0.0551in 0.0000in 0.0000in )
(Metric Mode)
G21
(Absolute Coordinates)
G90
S20000
G00 Z8.7000 
G00 X0.0000 Y0.0000 
M03
G04 P3.000000
M05
G00 Z3.4000 
M06 T01  ; 0.8000 
G01 Z0.0000 F508.00 
M06 
G00 Z2.5400 
M03
G04 P3.000000
G00 Z2.540000
G00 X3.7614 Y29.9043 
G01 Z-0.2794 F508.00 
G01 Z2.540000
(R2.5400  P1.000000)
G00 X8.8414 Y29.9043 
G01 Z-0.279400
G01 Z2.540000
G00 X8.1095 Y7.3290 
G01 Z-0.279400
G01 Z2.540000
G00 X47.7908 Y18.5983 
G01 Z-0.279400
G01 Z2.540000
G00 X40.2324 Y49.4117 
G01 Z-0.279400
G01 Z2.540000
M05
G00 Z3.4000 
G00 X0.0000 Y0.0000 
M06 T02  ; 1.0000 
G01 Z0.0000 F508.00 
M06 
G00 Z2.5400 
M03
G04 P3.000000
G00 Z2.540000
G00 X11.3484 Y48.5932 
G01 Z-0.2794 F508.00 
G01 Z2.540000
(R2.5400  P1.000000)
G00 X18.9684 Y48.5932 
G01 Z-0.279400
G01 Z2.540000
G00 X29.1284 Y48.5932 
G01 Z-0.279400
G01 Z2.540000
G00 X31.6684 Y48.5932 
G01 Z-0.279400
G01 Z2.540000
M05
G00 Z3.4000 
G00 X0.0000 Y0.0000 
M06 T03  ; 1.0160 
G01 Z0.0000 F508.00 
M06 
G00 Z2.5400 
M03
G04 P3.000000
G00 Z2.540000
G00 X45.6947 Y43.3857 
G01 Z-0.2794 F508.00 
G01 Z2.540000
(R2.5400  P1.000000)
G00 X47.6405 Y41.7530 
G01 Z-0.279400
G01 Z2.540000
G00 X49.5863 Y40.1203 
G01 Z-0.279400
G01 Z2.540000
M05
G00 Z3.4000 
G00 X0.0000 Y0.0000 
M06 T04  ; 1.3000 
G01 Z0.0000 F508.00 
M06 
G00 Z2.5400 
M03
G04 P3.000000
G00 Z2.540000
G00 X5.5091 Y14.3239 
G01 Z-0.2794 F508.00 
G01 Z2.540000
(R2.5400  P1.000000)
G00 X5.5091 Y19.3239 
G01 Z-0.279400
G01 Z2.540000
G00 X5.5091 Y24.3239 
G01 Z-0.279400
G01 Z2.540000
M05
G00 Z3.4000 
G00 X0.0000 Y0.0000 
M06 T05  ; 1.4000 
G01 Z0.0000 F508.00 
M06 
G00 Z2.5400 
M03
G04 P3.000000
G00 Z2.540000
G00 X13.3853 Y11.6171 
G01 Z-0.2794 F508.00 
G01 Z2.540000
(R2.5400  P1.000000)
G00 X13.3853 Y16.6971 
G01 Z-0.279400
G01 Z2.540000
G00 X42.7853 Y21.8171 
G01 Z-0.279400
G01 Z2.540000
G00 X42.7853 Y6.4171 
G01 Z-0.279400
G01 Z2.540000
T01 
G00 Z8.7000 
M05
M02
