(.../EAGLE-8.3.2/ulp/pcb-gcode-3/pcb-gcode.ulp)
(Copyright 2005 - 2012 by John Johnson)
(See readme.txt for licensing terms.)
(This file generated from the board:)
(.../PCB_ESP8266-12E/BHOnOff/BHONoff.brd)
(Current profile is .../pcb-gcode-3/profiles/generic.pp  )
(This file generated 11/12/2017 14:07)
(Settings from pcb-machine.h)
(spindle on time = 3.0000)
(  Tool Size)
(0.1700 )
(spindle speed = 30000.0000)
(tool change at 0.0000 0.0000 3.4000 )
(feed rate xy = F508.00 )
(feed rate z  = F254.00 )
(Z Axis Settings)
(  High     Up        Down     Drill)
(8.7000 	2.5400 	-0.1778 	-0.2794 )
(Settings from pcb-defaults.h)
(isolate min = 0.0254)
(isolate max = 0.5000)
(isolate step = 0.1270)
(Generated top outlines, top drill, )
(Unit of measure: mm)
(Metric Mode)
G21
(Absolute Coordinates)
G90
S30000
G00 Z8.7000 
G00 X0.0000 Y0.0000 
M03
G04 P3.000000
G00 Z2.5400 
G00 X0.1854 Y0.0369 
G01 Z-0.1778 F254.00 
G01 X0.1854 Y-0.1084 F508.00 
G01 X0.1572 Y-0.1766 
G01 X0.1050 Y-0.2287 
G01 X0.0369 Y-0.2570 
G01 X-0.0369 Y-0.2570 
G01 X-0.1050 Y-0.2287 
G01 X-0.1572 Y-0.1766 
G01 X-0.1825 Y-0.1155 
G01 X-0.1930 Y-0.1050 
G01 X-0.2212 Y-0.0369 
G01 X-0.2212 Y0.0369 
G01 X-0.1930 Y0.1050 
G01 X-0.1408 Y0.1572 
G01 X-0.0727 Y0.1854 
G01 X-0.0369 Y0.1854 
G01 X0.0369 Y0.1854 
G01 X0.1050 Y0.1572 
G01 X0.1572 Y0.1050 
G01 X0.1854 Y0.0369 
G00 Z2.5400 
G00 X11.5502 Y0.0596 
G01 Z-0.1778 F254.00 
G01 X11.5172 Y0.0930 F508.00 
G01 X-0.0839 Y11.9390 
G01 X-0.1407 Y11.9542 
G01 X-0.2237 Y12.0022 
G01 X-0.2916 Y12.0701 
G01 X-0.3396 Y12.1532 
G01 X-0.3644 Y12.2458 
G01 X-0.3644 Y40.7740 
G01 X-0.3644 Y40.8700 
G01 X-0.3396 Y40.9626 
G01 X-0.2916 Y41.0457 
G01 X-0.1282 Y41.2091 
G01 X-0.1282 Y41.3536 
G01 X-0.1034 Y41.4462 
G01 X-0.0554 Y41.5293 
G01 X11.7436 Y53.3284 
G01 X11.8267 Y53.3763 
G01 X11.9194 Y53.4012 
G01 X12.0153 Y53.4012 
G01 X12.1080 Y53.3763 
G01 X12.1911 Y53.3284 
G01 X12.1971 Y53.3224 
G01 X41.9336 Y53.3224 
G01 X42.0263 Y53.2975 
G01 X42.1094 Y53.2496 
G01 X42.2957 Y53.0633 
G01 X55.1730 Y41.1956 
G01 X55.1800 Y41.1915 
G01 X55.2082 Y41.1632 
G01 X55.2377 Y41.1360 
G01 X55.2420 Y41.1292 
G01 X55.2476 Y41.1235 
G01 X55.2676 Y41.0888 
G01 X55.2890 Y41.0549 
G01 X55.2914 Y41.0473 
G01 X55.2954 Y41.0403 
G01 X55.3056 Y41.0016 
G01 X55.3176 Y40.9634 
G01 X55.3179 Y40.9553 
G01 X55.3200 Y40.9475 
G01 X55.3199 Y40.9075 
G01 X55.3215 Y40.8675 
G01 X55.3197 Y40.8596 
G01 X55.2412 Y12.0985 
G01 X55.2425 Y12.0927 
G01 X55.2411 Y12.0506 
G01 X55.2410 Y12.0084 
G01 X55.2394 Y12.0027 
G01 X55.2392 Y11.9968 
G01 X55.2269 Y11.9565 
G01 X55.2159 Y11.9158 
G01 X55.2129 Y11.9107 
G01 X55.2112 Y11.9051 
G01 X55.1889 Y11.8693 
G01 X55.1677 Y11.8329 
G01 X55.1635 Y11.8287 
G01 X55.1604 Y11.8237 
G01 X55.1295 Y11.7949 
G01 X55.0997 Y11.7652 
G01 X55.0945 Y11.7623 
G01 X42.3745 Y-0.1052 
G01 X42.3442 Y-0.1351 
G01 X42.3395 Y-0.1378 
G01 X42.3355 Y-0.1416 
G01 X42.2979 Y-0.1616 
G01 X42.2609 Y-0.1827 
G01 X42.2556 Y-0.1841 
G01 X42.2508 Y-0.1866 
G01 X42.2093 Y-0.1962 
G01 X42.1681 Y-0.2070 
G01 X42.1626 Y-0.2070 
G01 X42.1573 Y-0.2082 
G01 X42.1147 Y-0.2067 
G01 X11.8550 Y-0.0494 
G01 X11.8074 Y-0.0492 
G01 X11.7600 Y-0.0489 
G01 X11.7131 Y-0.0361 
G01 X11.6675 Y-0.0236 
G01 X11.6252 Y0.0011 
G01 X11.5846 Y0.0248 
G01 X11.5502 Y0.0596 
G00 Z2.5400 
G00 X11.9639 Y0.6788 
G01 Z-0.1778 F254.00 
G01 X41.9792 Y0.5228 F508.00 
G01 X54.5127 Y12.2162 
G01 X54.5906 Y40.7413 
G01 X41.8261 Y52.5050 
G01 X41.8195 Y52.5088 
G01 X41.7909 Y52.5374 
G01 X41.7610 Y52.5649 
G01 X41.7570 Y52.5713 
G01 X41.7347 Y52.5936 
G01 X12.0395 Y52.5936 
G01 X0.6006 Y41.1547 
G01 X0.6006 Y41.0102 
G01 X0.5758 Y40.9175 
G01 X0.5278 Y40.8344 
G01 X0.4599 Y40.7666 
G01 X0.3644 Y40.6710 
G01 X0.3644 Y12.5229 
G01 X11.9639 Y0.6788 
G00 Z2.5400 
G00 X11.4583 Y9.6017 
G01 Z-0.1778 F254.00 
G01 X11.4177 Y9.6185 F508.00 
G01 X11.3867 Y9.6495 
G01 X11.3699 Y9.6901 
G01 X11.3699 Y10.8717 
G01 X8.1424 Y10.8717 
G01 X7.9984 Y10.9003 
G01 X7.8628 Y10.9565 
G01 X7.7407 Y11.0381 
G01 X5.7501 Y13.0287 
G01 X5.6127 Y13.0070 
G01 X5.4054 Y13.0070 
G01 X5.2007 Y13.0394 
G01 X5.0035 Y13.1035 
G01 X4.8189 Y13.1976 
G01 X4.6512 Y13.3194 
G01 X4.5046 Y13.4660 
G01 X4.4229 Y13.5785 
G01 X4.2254 Y13.5785 
G01 X4.0814 Y13.6071 
G01 X3.9457 Y13.6633 
G01 X3.8236 Y13.7449 
G01 X2.2764 Y15.2921 
G01 X2.1725 Y15.3959 
G01 X2.0910 Y15.5180 
G01 X2.0348 Y15.6537 
G01 X2.0061 Y15.7977 
G01 X2.0061 Y28.9678 
G01 X2.0348 Y29.1118 
G01 X2.0910 Y29.2474 
G01 X2.1725 Y29.3695 
G01 X2.7112 Y29.9082 
G01 X2.7112 Y29.9869 
G01 X2.7371 Y30.1502 
G01 X2.7882 Y30.3074 
G01 X2.8632 Y30.4547 
G01 X2.9604 Y30.5884 
G01 X3.0773 Y30.7053 
G01 X3.2110 Y30.8025 
G01 X3.3583 Y30.8775 
G01 X3.5155 Y30.9286 
G01 X3.6788 Y30.9545 
G01 X3.8441 Y30.9545 
G01 X4.0073 Y30.9286 
G01 X4.1646 Y30.8775 
G01 X4.3118 Y30.8025 
G01 X4.4456 Y30.7053 
G01 X4.5625 Y30.5884 
G01 X4.6596 Y30.4547 
G01 X4.7347 Y30.3074 
G01 X4.7858 Y30.1502 
G01 X4.8116 Y29.9869 
G01 X4.8116 Y29.8216 
G01 X4.7858 Y29.6583 
G01 X4.7347 Y29.5011 
G01 X4.6596 Y29.3538 
G01 X4.5625 Y29.2201 
G01 X4.4456 Y29.1032 
G01 X4.3118 Y29.0060 
G01 X4.1646 Y28.9310 
G01 X4.0073 Y28.8799 
G01 X3.8441 Y28.8541 
G01 X3.7654 Y28.8541 
G01 X3.4969 Y28.5856 
G01 X3.4969 Y16.1799 
G01 X4.5006 Y15.1762 
G01 X4.5046 Y15.1818 
G01 X4.6512 Y15.3283 
G01 X4.8189 Y15.4502 
G01 X5.0035 Y15.5443 
G01 X5.2007 Y15.6083 
G01 X5.4054 Y15.6408 
G01 X5.6127 Y15.6408 
G01 X5.8174 Y15.6083 
G01 X6.0146 Y15.5443 
G01 X6.1993 Y15.4502 
G01 X6.3670 Y15.3283 
G01 X6.5135 Y15.1818 
G01 X6.6354 Y15.0141 
G01 X6.7295 Y14.8294 
G01 X6.7935 Y14.6322 
G01 X6.8260 Y14.4275 
G01 X6.8260 Y14.2202 
G01 X6.8042 Y14.0829 
G01 X8.5246 Y12.3625 
G01 X11.3699 Y12.3625 
G01 X11.3699 Y13.5440 
G01 X11.3867 Y13.5846 
G01 X11.4177 Y13.6157 
G01 X11.4583 Y13.6325 
G01 X15.3122 Y13.6325 
G01 X15.3528 Y13.6157 
G01 X15.3839 Y13.5846 
G01 X15.4007 Y13.5440 
G01 X15.4007 Y9.6901 
G01 X15.3839 Y9.6495 
G01 X15.3528 Y9.6185 
G01 X15.3122 Y9.6017 
G01 X11.4583 Y9.6017 
G00 Z2.5400 
G00 X11.4583 Y14.6817 
G01 Z-0.1778 F254.00 
G01 X11.4177 Y14.6985 F508.00 
G01 X11.3867 Y14.7295 
G01 X11.3699 Y14.7701 
G01 X11.3699 Y15.9517 
G01 X8.0624 Y15.9517 
G01 X7.9184 Y15.9803 
G01 X7.7828 Y16.0365 
G01 X7.6607 Y16.1181 
G01 X5.7501 Y18.0287 
G01 X5.6127 Y18.0070 
G01 X5.4054 Y18.0070 
G01 X5.2007 Y18.0394 
G01 X5.0035 Y18.1035 
G01 X4.8189 Y18.1976 
G01 X4.6512 Y18.3194 
G01 X4.5046 Y18.4660 
G01 X4.3827 Y18.6337 
G01 X4.2886 Y18.8184 
G01 X4.2246 Y19.0155 
G01 X4.1922 Y19.2202 
G01 X4.1922 Y19.4275 
G01 X4.2246 Y19.6322 
G01 X4.2886 Y19.8294 
G01 X4.3827 Y20.0141 
G01 X4.5046 Y20.1818 
G01 X4.6512 Y20.3283 
G01 X4.8189 Y20.4502 
G01 X5.0035 Y20.5443 
G01 X5.2007 Y20.6083 
G01 X5.4054 Y20.6408 
G01 X5.6127 Y20.6408 
G01 X5.8174 Y20.6083 
G01 X6.0146 Y20.5443 
G01 X6.1993 Y20.4502 
G01 X6.3670 Y20.3283 
G01 X6.5135 Y20.1818 
G01 X6.6354 Y20.0141 
G01 X6.7295 Y19.8294 
G01 X6.7935 Y19.6322 
G01 X6.8260 Y19.4275 
G01 X6.8260 Y19.2202 
G01 X6.8042 Y19.0829 
G01 X8.4446 Y17.4425 
G01 X11.3699 Y17.4425 
G01 X11.3699 Y18.6240 
G01 X11.3867 Y18.6646 
G01 X11.4177 Y18.6957 
G01 X11.4583 Y18.7125 
G01 X15.3122 Y18.7125 
G01 X15.3528 Y18.6957 
G01 X15.3839 Y18.6646 
G01 X15.4007 Y18.6240 
G01 X15.4007 Y14.7701 
G01 X15.3839 Y14.7295 
G01 X15.3528 Y14.6985 
G01 X15.3122 Y14.6817 
G01 X11.4583 Y14.6817 
G00 Z2.5400 
G00 X16.8278 Y16.0405 
G01 Z-0.1778 F254.00 
G01 X16.8278 Y10.7832 F508.00 
G01 X21.7412 Y5.8699 
G01 X40.7699 Y5.8699 
G01 X40.7699 Y8.3440 
G01 X40.7867 Y8.3846 
G01 X40.8177 Y8.4157 
G01 X40.8583 Y8.4325 
G01 X43.2465 Y8.4325 
G01 X52.1076 Y17.2936 
G01 X52.1076 Y28.1681 
G01 X52.1359 Y28.2737 
G01 X52.1906 Y28.3684 
G01 X52.3103 Y28.4881 
G01 X52.3103 Y29.0387 
G01 X52.3271 Y29.0793 
G01 X52.3581 Y29.1103 
G01 X52.3987 Y29.1271 
G01 X52.5555 Y29.1271 
G01 X52.5555 Y31.6733 
G01 X52.3775 Y31.6733 
G01 X52.3369 Y31.6901 
G01 X52.3059 Y31.7212 
G01 X52.2891 Y31.7618 
G01 X52.2891 Y32.8057 
G01 X52.3059 Y32.8462 
G01 X52.3369 Y32.8773 
G01 X52.3775 Y32.8941 
G01 X52.5343 Y32.8941 
G01 X52.5343 Y40.1805 
G01 X48.9605 Y43.7543 
G01 X48.9605 Y42.6031 
G01 X48.9322 Y42.4975 
G01 X48.8775 Y42.4028 
G01 X48.6179 Y42.1432 
G01 X48.6648 Y41.9989 
G01 X48.6907 Y41.8356 
G01 X48.6907 Y41.6703 
G01 X48.6648 Y41.5071 
G01 X48.6138 Y41.3499 
G01 X48.5387 Y41.2026 
G01 X48.4415 Y41.0688 
G01 X48.3247 Y40.9519 
G01 X48.1909 Y40.8548 
G01 X48.0436 Y40.7797 
G01 X47.8864 Y40.7286 
G01 X47.7232 Y40.7028 
G01 X47.5578 Y40.7028 
G01 X47.3946 Y40.7286 
G01 X47.2502 Y40.7755 
G01 X46.0697 Y39.5950 
G01 X46.0697 Y36.5972 
G01 X46.1765 Y36.5972 
G01 X46.2171 Y36.5804 
G01 X46.2481 Y36.5493 
G01 X46.2649 Y36.5087 
G01 X46.2649 Y35.3648 
G01 X46.2481 Y35.3242 
G01 X46.2171 Y35.2932 
G01 X46.1804 Y35.2780 
G01 X46.1804 Y33.0538 
G01 X46.3372 Y33.0538 
G01 X46.3777 Y33.0370 
G01 X46.4088 Y33.0060 
G01 X46.4256 Y32.9654 
G01 X46.4256 Y31.9215 
G01 X46.4088 Y31.8809 
G01 X46.3777 Y31.8498 
G01 X46.3372 Y31.8330 
G01 X45.1932 Y31.8330 
G01 X45.1527 Y31.8498 
G01 X45.1216 Y31.8809 
G01 X45.1048 Y31.9215 
G01 X45.1048 Y32.9654 
G01 X45.1216 Y33.0060 
G01 X45.1527 Y33.0370 
G01 X45.1932 Y33.0538 
G01 X45.3500 Y33.0538 
G01 X45.3500 Y35.2764 
G01 X45.1326 Y35.2764 
G01 X45.0920 Y35.2932 
G01 X45.0610 Y35.3242 
G01 X45.0441 Y35.3648 
G01 X45.0441 Y36.5087 
G01 X45.0610 Y36.5493 
G01 X45.0920 Y36.5804 
G01 X45.1326 Y36.5972 
G01 X45.2393 Y36.5972 
G01 X45.2393 Y39.8217 
G01 X45.2676 Y39.9273 
G01 X45.3223 Y40.0220 
G01 X46.6631 Y41.3627 
G01 X46.6162 Y41.5071 
G01 X46.5903 Y41.6703 
G01 X46.5903 Y41.8356 
G01 X46.6162 Y41.9989 
G01 X46.6672 Y42.1561 
G01 X46.7423 Y42.3034 
G01 X46.8395 Y42.4371 
G01 X46.9563 Y42.5540 
G01 X47.0901 Y42.6512 
G01 X47.2374 Y42.7262 
G01 X47.3946 Y42.7773 
G01 X47.5578 Y42.8032 
G01 X47.7232 Y42.8032 
G01 X47.8864 Y42.7773 
G01 X48.0308 Y42.7304 
G01 X48.1301 Y42.8297 
G01 X48.1301 Y44.5847 
G01 X46.6918 Y46.0230 
G01 X37.5693 Y46.0230 
G01 X37.5693 Y45.7162 
G01 X37.5525 Y45.6757 
G01 X37.5214 Y45.6446 
G01 X37.4808 Y45.6278 
G01 X36.4369 Y45.6278 
G01 X36.3963 Y45.6446 
G01 X36.3653 Y45.6757 
G01 X36.3485 Y45.7162 
G01 X36.3485 Y47.1602 
G01 X36.3653 Y47.2007 
G01 X36.3963 Y47.2318 
G01 X36.4369 Y47.2486 
G01 X37.4808 Y47.2486 
G01 X37.5214 Y47.2318 
G01 X37.5525 Y47.2007 
G01 X37.5693 Y47.1602 
G01 X37.5693 Y46.8534 
G01 X46.9184 Y46.8534 
G01 X47.0240 Y46.8251 
G01 X47.1187 Y46.7704 
G01 X48.8002 Y45.0889 
G01 X53.2817 Y40.6074 
G01 X53.3364 Y40.5127 
G01 X53.3647 Y40.4071 
G01 X53.3647 Y32.8941 
G01 X53.5214 Y32.8941 
G01 X53.5620 Y32.8773 
G01 X53.5931 Y32.8462 
G01 X53.6099 Y32.8057 
G01 X53.6099 Y31.7618 
G01 X53.5931 Y31.7212 
G01 X53.5620 Y31.6901 
G01 X53.5214 Y31.6733 
G01 X53.3859 Y31.6733 
G01 X53.3859 Y29.1271 
G01 X53.5426 Y29.1271 
G01 X53.5832 Y29.1103 
G01 X53.6143 Y29.0793 
G01 X53.6311 Y29.0387 
G01 X53.6311 Y27.9948 
G01 X53.6143 Y27.9542 
G01 X53.5832 Y27.9231 
G01 X53.5426 Y27.9063 
G01 X52.9380 Y27.9063 
G01 X52.9380 Y17.0669 
G01 X52.9098 Y16.9613 
G01 X52.8551 Y16.8667 
G01 X52.7778 Y16.7894 
G01 X44.4209 Y8.4325 
G01 X44.7122 Y8.4325 
G01 X44.7528 Y8.4157 
G01 X44.7839 Y8.3846 
G01 X44.8007 Y8.3440 
G01 X44.8007 Y4.4901 
G01 X44.7839 Y4.4496 
G01 X44.7528 Y4.4185 
G01 X44.7122 Y4.4017 
G01 X40.8583 Y4.4017 
G01 X40.8177 Y4.4185 
G01 X40.7867 Y4.4496 
G01 X40.7699 Y4.4901 
G01 X40.7699 Y5.0395 
G01 X21.5145 Y5.0395 
G01 X21.4089 Y5.0678 
G01 X21.3142 Y5.1224 
G01 X21.2369 Y5.1997 
G01 X16.0804 Y10.3563 
G01 X16.0257 Y10.4510 
G01 X15.9974 Y10.5566 
G01 X15.9974 Y23.2872 
G01 X15.7907 Y23.2872 
G01 X15.7501 Y23.3040 
G01 X15.7190 Y23.3350 
G01 X15.7022 Y23.3756 
G01 X15.7022 Y26.4195 
G01 X15.7190 Y26.4601 
G01 X15.7501 Y26.4912 
G01 X15.7907 Y26.5080 
G01 X17.0346 Y26.5080 
G01 X17.0752 Y26.4912 
G01 X17.1062 Y26.4601 
G01 X17.1230 Y26.4195 
G01 X17.1230 Y23.3756 
G01 X17.1062 Y23.3350 
G01 X17.0752 Y23.3040 
G01 X17.0346 Y23.2872 
G01 X16.8278 Y23.2872 
G01 X16.8278 Y17.2149 
G01 X18.1252 Y18.5122 
G01 X18.1252 Y18.6416 
G01 X17.9684 Y18.6416 
G01 X17.9278 Y18.6584 
G01 X17.8968 Y18.6895 
G01 X17.8800 Y18.7300 
G01 X17.8800 Y19.7740 
G01 X17.8968 Y19.8145 
G01 X17.9278 Y19.8456 
G01 X17.9684 Y19.8624 
G01 X19.1123 Y19.8624 
G01 X19.1529 Y19.8456 
G01 X19.1840 Y19.8145 
G01 X19.2008 Y19.7740 
G01 X19.2008 Y18.7300 
G01 X19.1840 Y18.6895 
G01 X19.1529 Y18.6584 
G01 X19.1123 Y18.6416 
G01 X18.9556 Y18.6416 
G01 X18.9556 Y18.2856 
G01 X18.9273 Y18.1800 
G01 X18.8726 Y18.0853 
G01 X16.8278 Y16.0405 
G00 Z2.5400 
G00 X20.6962 Y16.4897 
G01 Z-0.1778 F254.00 
G01 X20.6416 Y16.5844 F508.00 
G01 X20.6133 Y16.6900 
G01 X20.6133 Y18.6567 
G01 X20.2818 Y18.6567 
G01 X20.2412 Y18.6735 
G01 X20.2102 Y18.7046 
G01 X20.1934 Y18.7452 
G01 X20.1934 Y19.7891 
G01 X20.2102 Y19.8297 
G01 X20.2412 Y19.8607 
G01 X20.2818 Y19.8775 
G01 X21.4257 Y19.8775 
G01 X21.4663 Y19.8607 
G01 X21.4974 Y19.8297 
G01 X21.5142 Y19.7891 
G01 X21.5142 Y18.7452 
G01 X21.4974 Y18.7046 
G01 X21.4663 Y18.6735 
G01 X21.4437 Y18.6642 
G01 X21.4437 Y16.9166 
G01 X21.6699 Y16.6904 
G01 X22.6545 Y16.6904 
G01 X23.0403 Y17.0762 
G01 X23.0403 Y18.7521 
G01 X22.8836 Y18.7521 
G01 X22.8430 Y18.7689 
G01 X22.8119 Y18.8000 
G01 X22.7951 Y18.8406 
G01 X22.7951 Y19.8845 
G01 X22.8119 Y19.9251 
G01 X22.8430 Y19.9561 
G01 X22.8836 Y19.9729 
G01 X24.0275 Y19.9729 
G01 X24.0681 Y19.9561 
G01 X24.0991 Y19.9251 
G01 X24.1159 Y19.8845 
G01 X24.1159 Y18.8406 
G01 X24.0991 Y18.8000 
G01 X24.0681 Y18.7689 
G01 X24.0275 Y18.7521 
G01 X23.8707 Y18.7521 
G01 X23.8707 Y16.8496 
G01 X23.8424 Y16.7440 
G01 X23.8115 Y16.6904 
G01 X36.9796 Y16.6904 
G01 X40.7699 Y20.4807 
G01 X40.7699 Y21.4154 
G01 X36.2175 Y21.4154 
G01 X36.1119 Y21.4437 
G01 X36.0172 Y21.4984 
G01 X35.9399 Y21.5757 
G01 X34.0638 Y23.4518 
G01 X34.0091 Y23.5465 
G01 X33.9808 Y23.6521 
G01 X33.9808 Y26.5881 
G01 X31.7984 Y28.7705 
G01 X26.6804 Y28.7705 
G01 X26.5748 Y28.7988 
G01 X26.4801 Y28.8535 
G01 X26.4028 Y28.9308 
G01 X16.0804 Y39.2533 
G01 X16.0257 Y39.3479 
G01 X15.9974 Y39.4535 
G01 X15.9974 Y39.6872 
G01 X15.7907 Y39.6872 
G01 X15.7501 Y39.7040 
G01 X15.7190 Y39.7350 
G01 X15.7022 Y39.7756 
G01 X15.7022 Y40.8824 
G01 X14.3360 Y40.8824 
G01 X11.7674 Y38.3138 
G01 X11.7674 Y37.8136 
G01 X11.9509 Y37.8136 
G01 X11.9914 Y37.7968 
G01 X12.0225 Y37.7657 
G01 X12.0393 Y37.7251 
G01 X12.0393 Y35.8812 
G01 X12.0225 Y35.8406 
G01 X11.9914 Y35.8096 
G01 X11.9509 Y35.7928 
G01 X10.1370 Y35.7928 
G01 X10.0964 Y35.8096 
G01 X10.0653 Y35.8406 
G01 X10.0485 Y35.8812 
G01 X10.0485 Y37.7251 
G01 X10.0653 Y37.7657 
G01 X10.0964 Y37.7968 
G01 X10.1370 Y37.8136 
G01 X10.9370 Y37.8136 
G01 X10.9370 Y38.5404 
G01 X10.9653 Y38.6460 
G01 X11.0200 Y38.7407 
G01 X11.0973 Y38.8180 
G01 X13.9091 Y41.6298 
G01 X14.0038 Y41.6845 
G01 X14.1094 Y41.7128 
G01 X15.7022 Y41.7128 
G01 X15.7022 Y42.8195 
G01 X15.7190 Y42.8601 
G01 X15.7501 Y42.8912 
G01 X15.7907 Y42.9080 
G01 X17.0346 Y42.9080 
G01 X17.0752 Y42.8912 
G01 X17.1062 Y42.8601 
G01 X17.1230 Y42.8195 
G01 X17.1230 Y39.7756 
G01 X17.1062 Y39.7350 
G01 X17.0752 Y39.7040 
G01 X17.0346 Y39.6872 
G01 X16.8278 Y39.6872 
G01 X16.8278 Y39.6802 
G01 X26.9071 Y29.6009 
G01 X32.0250 Y29.6009 
G01 X32.1306 Y29.5726 
G01 X32.2253 Y29.5180 
G01 X34.6509 Y27.0924 
G01 X34.7282 Y27.0151 
G01 X34.7829 Y26.9204 
G01 X34.8112 Y26.8148 
G01 X34.8112 Y23.8787 
G01 X36.4441 Y22.2458 
G01 X40.7699 Y22.2458 
G01 X40.7699 Y23.7440 
G01 X40.7867 Y23.7846 
G01 X40.8177 Y23.8157 
G01 X40.8583 Y23.8325 
G01 X42.3701 Y23.8325 
G01 X42.3701 Y26.2458 
G01 X42.3409 Y26.2750 
G01 X42.3241 Y26.3155 
G01 X42.3241 Y27.3595 
G01 X42.3409 Y27.4000 
G01 X42.3720 Y27.4311 
G01 X42.4126 Y27.4479 
G01 X43.5565 Y27.4479 
G01 X43.5971 Y27.4311 
G01 X43.6281 Y27.4000 
G01 X43.6449 Y27.3595 
G01 X43.6449 Y26.3155 
G01 X43.6281 Y26.2750 
G01 X43.5971 Y26.2439 
G01 X43.5565 Y26.2271 
G01 X43.2005 Y26.2271 
G01 X43.2005 Y23.8325 
G01 X44.7122 Y23.8325 
G01 X44.7528 Y23.8157 
G01 X44.7839 Y23.7846 
G01 X44.8007 Y23.7440 
G01 X44.8007 Y19.8901 
G01 X44.7839 Y19.8496 
G01 X44.7528 Y19.8185 
G01 X44.7122 Y19.8017 
G01 X41.2653 Y19.8017 
G01 X37.4065 Y15.9429 
G01 X37.3118 Y15.8883 
G01 X37.2062 Y15.8600 
G01 X21.4433 Y15.8600 
G01 X21.3377 Y15.8883 
G01 X21.2430 Y15.9429 
G01 X20.7735 Y16.4124 
G01 X20.6962 Y16.4897 
G00 Z2.5400 
G00 X20.6125 Y14.6472 
G01 Z-0.1778 F254.00 
G01 X20.8576 Y14.6472 F508.00 
G01 X21.1002 Y14.6123 
G01 X21.3354 Y14.5432 
G01 X21.5583 Y14.4414 
G01 X21.7645 Y14.3089 
G01 X21.9497 Y14.1484 
G01 X22.1102 Y13.9632 
G01 X22.2427 Y13.7570 
G01 X22.3446 Y13.5341 
G01 X22.4136 Y13.2989 
G01 X22.4485 Y13.0563 
G01 X22.4485 Y10.9373 
G01 X22.4136 Y10.6947 
G01 X22.3446 Y10.4595 
G01 X22.2427 Y10.2365 
G01 X22.1102 Y10.0304 
G01 X21.9497 Y9.8451 
G01 X21.7645 Y9.6846 
G01 X21.5583 Y9.5521 
G01 X21.3354 Y9.4503 
G01 X21.1002 Y9.3813 
G01 X20.8576 Y9.3464 
G01 X20.6125 Y9.3464 
G01 X20.3699 Y9.3813 
G01 X20.1348 Y9.4503 
G01 X19.9118 Y9.5521 
G01 X19.7056 Y9.6846 
G01 X19.5204 Y9.8451 
G01 X19.3599 Y10.0304 
G01 X19.2274 Y10.2365 
G01 X19.1256 Y10.4595 
G01 X19.0565 Y10.6947 
G01 X19.0217 Y10.9373 
G01 X19.0217 Y13.0051 
G01 X19.0217 Y13.0563 
G01 X19.0565 Y13.2989 
G01 X19.1256 Y13.5341 
G01 X19.2274 Y13.7570 
G01 X19.3599 Y13.9632 
G01 X19.5204 Y14.1484 
G01 X19.7056 Y14.3089 
G01 X19.9118 Y14.4414 
G01 X20.1348 Y14.5432 
G01 X20.3699 Y14.6123 
G01 X20.6125 Y14.6472 
G00 Z2.5400 
G00 X20.6014 Y13.5484 
G01 Z-0.1778 F254.00 
G01 X20.5153 Y13.5231 F508.00 
G01 X20.4336 Y13.4858 
G01 X20.3581 Y13.4373 
G01 X20.2903 Y13.3785 
G01 X20.2315 Y13.3107 
G01 X20.1830 Y13.2352 
G01 X20.1457 Y13.1536 
G01 X20.1204 Y13.0675 
G01 X20.1077 Y12.9786 
G01 X20.1060 Y12.9338 
G01 X20.1060 Y11.0598 
G01 X20.1077 Y11.0149 
G01 X20.1204 Y10.9261 
G01 X20.1457 Y10.8400 
G01 X20.1830 Y10.7583 
G01 X20.2315 Y10.6828 
G01 X20.2903 Y10.6150 
G01 X20.3581 Y10.5562 
G01 X20.4336 Y10.5077 
G01 X20.5153 Y10.4704 
G01 X20.6014 Y10.4451 
G01 X20.6902 Y10.4324 
G01 X20.7799 Y10.4324 
G01 X20.8688 Y10.4451 
G01 X20.9549 Y10.4704 
G01 X21.0365 Y10.5077 
G01 X21.1120 Y10.5562 
G01 X21.1799 Y10.6150 
G01 X21.2386 Y10.6828 
G01 X21.2872 Y10.7583 
G01 X21.3244 Y10.8400 
G01 X21.3497 Y10.9261 
G01 X21.3625 Y11.0149 
G01 X21.3641 Y11.0598 
G01 X21.3641 Y12.9337 
G01 X21.3625 Y12.9786 
G01 X21.3497 Y13.0675 
G01 X21.3244 Y13.1536 
G01 X21.2872 Y13.2352 
G01 X21.2386 Y13.3107 
G01 X21.1799 Y13.3785 
G01 X21.1120 Y13.4373 
G01 X21.0365 Y13.4858 
G01 X20.9549 Y13.5231 
G01 X20.8688 Y13.5484 
G01 X20.7799 Y13.5612 
G01 X20.6902 Y13.5612 
G01 X20.6014 Y13.5484 
G00 Z2.5400 
G00 X22.9587 Y14.0381 
G01 Z-0.1778 F254.00 
G01 X22.9576 Y14.0426 F508.00 
G01 X22.9587 Y14.1094 
G01 X22.9587 Y14.1764 
G01 X22.9598 Y14.1808 
G01 X22.9599 Y14.1853 
G01 X22.9783 Y14.2496 
G01 X22.9956 Y14.3143 
G01 X22.9979 Y14.3182 
G01 X22.9991 Y14.3226 
G01 X23.0335 Y14.3799 
G01 X23.0670 Y14.4379 
G01 X23.0702 Y14.4411 
G01 X23.0725 Y14.4450 
G01 X23.1207 Y14.4916 
G01 X23.1679 Y14.5388 
G01 X23.1719 Y14.5411 
G01 X23.1751 Y14.5443 
G01 X23.2336 Y14.5768 
G01 X23.2916 Y14.6102 
G01 X23.2960 Y14.6114 
G01 X23.2999 Y14.6136 
G01 X23.3648 Y14.6298 
G01 X23.4295 Y14.6472 
G01 X23.4340 Y14.6472 
G01 X23.4384 Y14.6483 
G01 X23.5053 Y14.6472 
G01 X23.5722 Y14.6472 
G01 X23.5766 Y14.6460 
G01 X23.5812 Y14.6459 
G01 X23.6455 Y14.6276 
G01 X23.7101 Y14.6102 
G01 X23.7141 Y14.6080 
G01 X23.7184 Y14.6067 
G01 X23.7758 Y14.5723 
G01 X23.8338 Y14.5388 
G01 X23.8370 Y14.5356 
G01 X23.8409 Y14.5333 
G01 X23.8874 Y14.4852 
G01 X23.9347 Y14.4379 
G01 X23.9370 Y14.4340 
G01 X23.9402 Y14.4307 
G01 X23.9727 Y14.3722 
G01 X24.0061 Y14.3143 
G01 X24.0073 Y14.3099 
G01 X25.3011 Y11.9810 
G01 X25.3011 Y14.1764 
G01 X25.3380 Y14.3143 
G01 X25.4094 Y14.4379 
G01 X25.5104 Y14.5388 
G01 X25.6340 Y14.6102 
G01 X25.7719 Y14.6472 
G01 X25.9147 Y14.6472 
G01 X26.0526 Y14.6102 
G01 X26.1762 Y14.5388 
G01 X26.2772 Y14.4379 
G01 X26.3485 Y14.3143 
G01 X26.3855 Y14.1764 
G01 X26.3855 Y9.9554 
G01 X26.3866 Y9.9510 
G01 X26.3855 Y9.8842 
G01 X26.3855 Y9.8172 
G01 X26.3843 Y9.8128 
G01 X26.3842 Y9.8083 
G01 X26.3659 Y9.7440 
G01 X26.3485 Y9.6793 
G01 X26.3463 Y9.6754 
G01 X26.3450 Y9.6710 
G01 X26.3106 Y9.6136 
G01 X26.2772 Y9.5557 
G01 X26.2739 Y9.5524 
G01 X26.2716 Y9.5485 
G01 X26.2235 Y9.5020 
G01 X26.1762 Y9.4547 
G01 X26.1723 Y9.4524 
G01 X26.1690 Y9.4493 
G01 X26.1105 Y9.4168 
G01 X26.0526 Y9.3833 
G01 X26.0482 Y9.3822 
G01 X26.0442 Y9.3799 
G01 X25.9793 Y9.3637 
G01 X25.9147 Y9.3464 
G01 X25.9101 Y9.3464 
G01 X25.9057 Y9.3453 
G01 X25.8389 Y9.3464 
G01 X25.7719 Y9.3464 
G01 X25.7675 Y9.3476 
G01 X25.7630 Y9.3476 
G01 X25.6987 Y9.3660 
G01 X25.6340 Y9.3833 
G01 X25.6301 Y9.3856 
G01 X25.6257 Y9.3869 
G01 X25.5683 Y9.4212 
G01 X25.5104 Y9.4547 
G01 X25.5072 Y9.4579 
G01 X25.5033 Y9.4603 
G01 X25.4567 Y9.5084 
G01 X25.4094 Y9.5557 
G01 X25.4072 Y9.5596 
G01 X25.4040 Y9.5629 
G01 X25.3715 Y9.6214 
G01 X25.3380 Y9.6793 
G01 X25.3369 Y9.6837 
G01 X24.0431 Y12.0126 
G01 X24.0431 Y9.8172 
G01 X24.0061 Y9.6793 
G01 X23.9347 Y9.5557 
G01 X23.8338 Y9.4547 
G01 X23.7101 Y9.3833 
G01 X23.5722 Y9.3464 
G01 X23.4295 Y9.3464 
G01 X23.2916 Y9.3833 
G01 X23.1679 Y9.4547 
G01 X23.0670 Y9.5557 
G01 X22.9956 Y9.6793 
G01 X22.9587 Y9.8172 
G01 X22.9587 Y14.0381 
G00 Z2.5400 
G00 X29.2659 Y13.9632 
G01 Z-0.1778 F254.00 
G01 X29.4264 Y14.1484 F508.00 
G01 X29.6116 Y14.3089 
G01 X29.8178 Y14.4414 
G01 X30.0408 Y14.5432 
G01 X30.2759 Y14.6123 
G01 X30.5185 Y14.6472 
G01 X30.7636 Y14.6472 
G01 X31.0062 Y14.6123 
G01 X31.2414 Y14.5432 
G01 X31.4643 Y14.4414 
G01 X31.6705 Y14.3089 
G01 X31.8557 Y14.1484 
G01 X32.0162 Y13.9632 
G01 X32.1487 Y13.7570 
G01 X32.2506 Y13.5341 
G01 X32.3196 Y13.2989 
G01 X32.3545 Y13.0563 
G01 X32.3545 Y10.9373 
G01 X32.3196 Y10.6947 
G01 X32.2506 Y10.4595 
G01 X32.1487 Y10.2365 
G01 X32.0162 Y10.0304 
G01 X31.8557 Y9.8451 
G01 X31.6705 Y9.6846 
G01 X31.4643 Y9.5521 
G01 X31.2414 Y9.4503 
G01 X31.0062 Y9.3813 
G01 X30.7636 Y9.3464 
G01 X30.5185 Y9.3464 
G01 X30.2759 Y9.3813 
G01 X30.0408 Y9.4503 
G01 X29.8178 Y9.5521 
G01 X29.6116 Y9.6846 
G01 X29.4264 Y9.8451 
G01 X29.2659 Y10.0304 
G01 X29.1334 Y10.2365 
G01 X29.0316 Y10.4595 
G01 X28.9625 Y10.6947 
G01 X28.9276 Y10.9373 
G01 X28.9276 Y13.0051 
G01 X28.9276 Y13.0563 
G01 X28.9625 Y13.2989 
G01 X29.0316 Y13.5341 
G01 X29.1334 Y13.7570 
G01 X29.2659 Y13.9632 
G00 Z2.5400 
G00 X30.1963 Y13.3785 
G01 Z-0.1778 F254.00 
G01 X30.1375 Y13.3107 F508.00 
G01 X30.0890 Y13.2352 
G01 X30.0517 Y13.1536 
G01 X30.0264 Y13.0675 
G01 X30.0136 Y12.9786 
G01 X30.0120 Y12.9338 
G01 X30.0120 Y11.0598 
G01 X30.0136 Y11.0149 
G01 X30.0264 Y10.9261 
G01 X30.0517 Y10.8400 
G01 X30.0890 Y10.7583 
G01 X30.1375 Y10.6828 
G01 X30.1963 Y10.6150 
G01 X30.2641 Y10.5562 
G01 X30.3396 Y10.5077 
G01 X30.4213 Y10.4704 
G01 X30.5074 Y10.4451 
G01 X30.5962 Y10.4324 
G01 X30.6859 Y10.4324 
G01 X30.7748 Y10.4451 
G01 X30.8609 Y10.4704 
G01 X30.9425 Y10.5077 
G01 X31.0180 Y10.5562 
G01 X31.0859 Y10.6150 
G01 X31.1446 Y10.6828 
G01 X31.1931 Y10.7583 
G01 X31.2304 Y10.8400 
G01 X31.2557 Y10.9261 
G01 X31.2685 Y11.0149 
G01 X31.2701 Y11.0598 
G01 X31.2701 Y12.9338 
G01 X31.2685 Y12.9786 
G01 X31.2557 Y13.0675 
G01 X31.2304 Y13.1536 
G01 X31.1931 Y13.2352 
G01 X31.1446 Y13.3107 
G01 X31.0859 Y13.3785 
G01 X31.0180 Y13.4373 
G01 X30.9425 Y13.4858 
G01 X30.8609 Y13.5231 
G01 X30.7748 Y13.5484 
G01 X30.6859 Y13.5612 
G01 X30.5962 Y13.5612 
G01 X30.5074 Y13.5484 
G01 X30.4213 Y13.5231 
G01 X30.3396 Y13.4858 
G01 X30.2641 Y13.4373 
G01 X30.1963 Y13.3785 
G00 Z2.5400 
G00 X32.8712 Y14.1764 
G01 Z-0.1778 F254.00 
G01 X32.9082 Y14.3143 F508.00 
G01 X32.9796 Y14.4379 
G01 X33.0805 Y14.5388 
G01 X33.2041 Y14.6102 
G01 X33.3421 Y14.6472 
G01 X35.3588 Y14.6472 
G01 X35.4967 Y14.6102 
G01 X35.6203 Y14.5388 
G01 X35.7213 Y14.4379 
G01 X35.7926 Y14.3143 
G01 X35.8296 Y14.1764 
G01 X35.8296 Y14.0336 
G01 X35.7926 Y13.8957 
G01 X35.7213 Y13.7721 
G01 X35.6203 Y13.6711 
G01 X35.4967 Y13.5997 
G01 X35.3588 Y13.5628 
G01 X33.9556 Y13.5628 
G01 X33.9556 Y12.7732 
G01 X35.3588 Y12.7732 
G01 X35.4967 Y12.7363 
G01 X35.6203 Y12.6649 
G01 X35.7213 Y12.5639 
G01 X35.7926 Y12.4403 
G01 X35.8296 Y12.3024 
G01 X35.8296 Y12.1596 
G01 X35.7926 Y12.0217 
G01 X35.7213 Y11.8981 
G01 X35.6203 Y11.7972 
G01 X35.4967 Y11.7258 
G01 X35.3588 Y11.6888 
G01 X33.9556 Y11.6888 
G01 X33.9556 Y9.8172 
G01 X33.9187 Y9.6793 
G01 X33.8473 Y9.5557 
G01 X33.7463 Y9.4547 
G01 X33.6227 Y9.3833 
G01 X33.4848 Y9.3464 
G01 X33.3421 Y9.3464 
G01 X33.2041 Y9.3833 
G01 X33.0805 Y9.4547 
G01 X32.9796 Y9.5557 
G01 X32.9082 Y9.6793 
G01 X32.8712 Y9.8172 
G01 X32.8712 Y12.1596 
G01 X32.8712 Y14.1764 
G00 Z2.5400 
G00 X36.1808 Y14.1764 
G01 Z-0.1778 F254.00 
G01 X36.2177 Y14.3143 F508.00 
G01 X36.2891 Y14.4379 
G01 X36.3900 Y14.5388 
G01 X36.5137 Y14.6102 
G01 X36.6516 Y14.6472 
G01 X38.0167 Y14.6472 
G01 X38.2593 Y14.6123 
G01 X38.4945 Y14.5432 
G01 X38.7174 Y14.4414 
G01 X38.9236 Y14.3089 
G01 X39.1088 Y14.1484 
G01 X39.2693 Y13.9632 
G01 X39.4019 Y13.7570 
G01 X39.5037 Y13.5341 
G01 X39.5727 Y13.2989 
G01 X39.6076 Y13.0563 
G01 X39.6076 Y12.8112 
G01 X39.5727 Y12.5686 
G01 X39.5037 Y12.3334 
G01 X39.4019 Y12.1105 
G01 X39.2693 Y11.9043 
G01 X39.1088 Y11.7191 
G01 X38.9236 Y11.5586 
G01 X38.8578 Y11.5163 
G01 X39.5823 Y10.0672 
G01 X39.6109 Y9.9273 
G01 X39.6023 Y9.7848 
G01 X39.5572 Y9.6494 
G01 X39.4785 Y9.5303 
G01 X39.3717 Y9.4355 
G01 X39.2440 Y9.3717 
G01 X39.1042 Y9.3431 
G01 X38.9617 Y9.3516 
G01 X38.8262 Y9.3968 
G01 X38.7071 Y9.4754 
G01 X38.6124 Y9.5823 
G01 X37.7933 Y11.2203 
G01 X37.2652 Y11.2203 
G01 X37.2652 Y9.8172 
G01 X37.2282 Y9.6793 
G01 X37.1568 Y9.5557 
G01 X37.0559 Y9.4547 
G01 X36.9322 Y9.3833 
G01 X36.7943 Y9.3464 
G01 X36.6516 Y9.3464 
G01 X36.5137 Y9.3833 
G01 X36.3900 Y9.4547 
G01 X36.2891 Y9.5557 
G01 X36.2177 Y9.6793 
G01 X36.1808 Y9.8172 
G01 X36.1808 Y14.0336 
G01 X36.1808 Y14.1764 
G00 Z2.5400 
G00 X37.2652 Y13.5628 
G01 Z-0.1778 F254.00 
G01 X37.2652 Y12.3047 F508.00 
G01 X37.8943 Y12.3047 
G01 X37.9391 Y12.3063 
G01 X38.0279 Y12.3191 
G01 X38.1140 Y12.3444 
G01 X38.1956 Y12.3817 
G01 X38.2711 Y12.4302 
G01 X38.3390 Y12.4890 
G01 X38.3977 Y12.5568 
G01 X38.4463 Y12.6323 
G01 X38.4835 Y12.7139 
G01 X38.5088 Y12.8000 
G01 X38.5216 Y12.8889 
G01 X38.5216 Y12.9786 
G01 X38.5088 Y13.0675 
G01 X38.4835 Y13.1536 
G01 X38.4463 Y13.2352 
G01 X38.3977 Y13.3107 
G01 X38.3390 Y13.3785 
G01 X38.2711 Y13.4373 
G01 X38.1956 Y13.4858 
G01 X38.1140 Y13.5231 
G01 X38.0279 Y13.5484 
G01 X37.9391 Y13.5612 
G01 X37.8942 Y13.5628 
G01 X37.2652 Y13.5628 
G00 Z2.5400 
G00 X40.1102 Y14.1764 
G01 Z-0.1778 F254.00 
G01 X40.1472 Y14.3143 F508.00 
G01 X40.2186 Y14.4379 
G01 X40.3195 Y14.5388 
G01 X40.4431 Y14.6102 
G01 X40.5810 Y14.6472 
G01 X42.5978 Y14.6472 
G01 X42.7357 Y14.6102 
G01 X42.8593 Y14.5388 
G01 X42.9602 Y14.4379 
G01 X43.0316 Y14.3143 
G01 X43.0686 Y14.1764 
G01 X43.0686 Y14.0336 
G01 X43.0316 Y13.8957 
G01 X42.9602 Y13.7721 
G01 X42.8593 Y13.6711 
G01 X42.7357 Y13.5997 
G01 X42.5978 Y13.5628 
G01 X41.1946 Y13.5628 
G01 X41.1946 Y12.7732 
G01 X42.1293 Y12.7732 
G01 X42.2672 Y12.7363 
G01 X42.3908 Y12.6649 
G01 X42.4918 Y12.5639 
G01 X42.5631 Y12.4403 
G01 X42.6001 Y12.3024 
G01 X42.6001 Y12.1596 
G01 X42.5631 Y12.0217 
G01 X42.4918 Y11.8981 
G01 X42.3908 Y11.7972 
G01 X42.2672 Y11.7258 
G01 X42.1293 Y11.6888 
G01 X41.1946 Y11.6888 
G01 X41.1946 Y10.4308 
G01 X42.5978 Y10.4308 
G01 X42.7357 Y10.3938 
G01 X42.8593 Y10.3224 
G01 X42.9602 Y10.2215 
G01 X43.0316 Y10.0979 
G01 X43.0686 Y9.9600 
G01 X43.0686 Y9.8172 
G01 X43.0316 Y9.6793 
G01 X42.9602 Y9.5557 
G01 X42.8593 Y9.4547 
G01 X42.7357 Y9.3833 
G01 X42.5978 Y9.3464 
G01 X40.7238 Y9.3464 
G01 X40.5810 Y9.3464 
G01 X40.4431 Y9.3833 
G01 X40.3195 Y9.4547 
G01 X40.2186 Y9.5557 
G01 X40.1472 Y9.6793 
G01 X40.1102 Y9.8172 
G01 X40.1102 Y14.1764 
G00 Z2.5400 
G00 X40.2353 Y24.9365 
G01 Z-0.1778 F254.00 
G01 X36.2175 Y24.9365 F508.00 
G01 X36.1119 Y24.9648 
G01 X36.0172 Y25.0194 
G01 X35.9399 Y25.0968 
G01 X35.7054 Y25.3313 
G01 X35.6507 Y25.4259 
G01 X35.6224 Y25.5315 
G01 X35.6224 Y27.9966 
G01 X33.5965 Y30.0225 
G01 X31.8398 Y30.0225 
G01 X31.7342 Y30.0508 
G01 X31.6395 Y30.1054 
G01 X31.5622 Y30.1827 
G01 X26.0804 Y35.6646 
G01 X26.0257 Y35.7593 
G01 X25.9974 Y35.8649 
G01 X25.9974 Y39.6872 
G01 X25.7907 Y39.6872 
G01 X25.7501 Y39.7040 
G01 X25.7190 Y39.7350 
G01 X25.7022 Y39.7756 
G01 X25.7022 Y42.8195 
G01 X25.7190 Y42.8601 
G01 X25.7501 Y42.8912 
G01 X25.7907 Y42.9080 
G01 X27.0346 Y42.9080 
G01 X27.0752 Y42.8912 
G01 X27.1062 Y42.8601 
G01 X27.1230 Y42.8195 
G01 X27.1230 Y39.7756 
G01 X27.1062 Y39.7350 
G01 X27.0752 Y39.7040 
G01 X27.0346 Y39.6872 
G01 X26.8278 Y39.6872 
G01 X26.8278 Y36.0915 
G01 X32.0665 Y30.8529 
G01 X33.8232 Y30.8529 
G01 X33.9288 Y30.8246 
G01 X34.0234 Y30.7699 
G01 X36.2926 Y28.5008 
G01 X36.3699 Y28.4235 
G01 X36.4245 Y28.3288 
G01 X36.4528 Y28.2232 
G01 X36.4528 Y25.7669 
G01 X39.9219 Y25.7669 
G01 X39.9219 Y28.1456 
G01 X39.9502 Y28.2511 
G01 X40.0049 Y28.3458 
G01 X40.6303 Y28.9712 
G01 X40.7076 Y29.0485 
G01 X40.8022 Y29.1032 
G01 X40.9078 Y29.1315 
G01 X42.3729 Y29.1315 
G01 X42.4126 Y29.1479 
G01 X43.5565 Y29.1479 
G01 X43.5971 Y29.1311 
G01 X43.6281 Y29.1000 
G01 X43.6449 Y29.0595 
G01 X43.6449 Y28.0155 
G01 X43.6281 Y27.9750 
G01 X43.5971 Y27.9439 
G01 X43.5565 Y27.9271 
G01 X42.4126 Y27.9271 
G01 X42.3720 Y27.9439 
G01 X42.3409 Y27.9750 
G01 X42.3241 Y28.0155 
G01 X42.3241 Y28.3011 
G01 X41.1345 Y28.3011 
G01 X40.7523 Y27.9189 
G01 X40.7523 Y25.4535 
G01 X40.7240 Y25.3479 
G01 X40.6694 Y25.2532 
G01 X40.5921 Y25.1759 
G01 X40.5129 Y25.0968 
G01 X40.4356 Y25.0194 
G01 X40.3409 Y24.9648 
G01 X40.2353 Y24.9365 
G00 Z2.5400 
G00 X46.8931 Y25.9474 
G01 Z-0.1778 F254.00 
G01 X46.8384 Y26.0420 F508.00 
G01 X46.8101 Y26.1476 
G01 X46.8101 Y26.2893 
G01 X46.6534 Y26.2893 
G01 X46.6128 Y26.3061 
G01 X46.5817 Y26.3371 
G01 X46.5649 Y26.3777 
G01 X46.5649 Y27.4216 
G01 X46.5817 Y27.4622 
G01 X46.6128 Y27.4932 
G01 X46.6534 Y27.5101 
G01 X47.7973 Y27.5101 
G01 X47.8379 Y27.4932 
G01 X47.8689 Y27.4622 
G01 X47.8857 Y27.4216 
G01 X47.8857 Y26.3777 
G01 X47.8689 Y26.3371 
G01 X47.8379 Y26.3061 
G01 X47.7973 Y26.2893 
G01 X47.7255 Y26.2893 
G01 X48.5609 Y25.4539 
G01 X49.9359 Y25.4539 
G01 X50.6824 Y26.2004 
G01 X50.6824 Y27.9131 
G01 X50.6581 Y27.9231 
G01 X50.6271 Y27.9542 
G01 X50.6103 Y27.9948 
G01 X50.6103 Y29.0387 
G01 X50.6271 Y29.0793 
G01 X50.6581 Y29.1103 
G01 X50.6987 Y29.1271 
G01 X50.8343 Y29.1271 
G01 X50.8343 Y31.6733 
G01 X50.6775 Y31.6733 
G01 X50.6369 Y31.6901 
G01 X50.6059 Y31.7212 
G01 X50.5891 Y31.7618 
G01 X50.5891 Y32.8057 
G01 X50.6059 Y32.8462 
G01 X50.6369 Y32.8773 
G01 X50.6775 Y32.8941 
G01 X50.7098 Y32.8941 
G01 X50.7098 Y33.9433 
G01 X49.2540 Y35.3990 
G01 X49.1994 Y35.4937 
G01 X49.1711 Y35.5993 
G01 X49.1711 Y39.1532 
G01 X49.0358 Y39.2221 
G01 X48.9021 Y39.3193 
G01 X48.7852 Y39.4361 
G01 X48.6880 Y39.5699 
G01 X48.6130 Y39.7172 
G01 X48.5619 Y39.8744 
G01 X48.5361 Y40.0377 
G01 X48.5361 Y40.2030 
G01 X48.5619 Y40.3662 
G01 X48.6130 Y40.5234 
G01 X48.6880 Y40.6707 
G01 X48.7852 Y40.8045 
G01 X48.9021 Y40.9214 
G01 X49.0358 Y41.0185 
G01 X49.1831 Y41.0936 
G01 X49.3403 Y41.1446 
G01 X49.5036 Y41.1705 
G01 X49.6689 Y41.1705 
G01 X49.8322 Y41.1446 
G01 X49.9894 Y41.0936 
G01 X50.1367 Y41.0185 
G01 X50.2704 Y40.9214 
G01 X50.3873 Y40.8045 
G01 X50.4845 Y40.6707 
G01 X50.5595 Y40.5234 
G01 X50.6106 Y40.3662 
G01 X50.6365 Y40.2030 
G01 X50.6365 Y40.0377 
G01 X50.6106 Y39.8744 
G01 X50.5595 Y39.7172 
G01 X50.4845 Y39.5699 
G01 X50.3873 Y39.4361 
G01 X50.2704 Y39.3193 
G01 X50.1367 Y39.2221 
G01 X50.0015 Y39.1532 
G01 X50.0015 Y35.8259 
G01 X51.3799 Y34.4475 
G01 X51.4572 Y34.3702 
G01 X51.5119 Y34.2755 
G01 X51.5402 Y34.1699 
G01 X51.5402 Y32.8941 
G01 X51.8214 Y32.8941 
G01 X51.8620 Y32.8773 
G01 X51.8931 Y32.8462 
G01 X51.9099 Y32.8057 
G01 X51.9099 Y31.7618 
G01 X51.8931 Y31.7212 
G01 X51.8620 Y31.6901 
G01 X51.8214 Y31.6733 
G01 X51.6647 Y31.6733 
G01 X51.6647 Y29.1271 
G01 X51.8426 Y29.1271 
G01 X51.8832 Y29.1103 
G01 X51.9143 Y29.0793 
G01 X51.9311 Y29.0387 
G01 X51.9311 Y27.9948 
G01 X51.9143 Y27.9542 
G01 X51.8832 Y27.9231 
G01 X51.8426 Y27.9063 
G01 X51.4112 Y27.9063 
G01 X51.4112 Y26.1769 
G01 X51.4337 Y26.1379 
G01 X51.4620 Y26.0323 
G01 X51.4620 Y25.9230 
G01 X51.4337 Y25.8174 
G01 X51.3790 Y25.7227 
G01 X50.3628 Y24.7065 
G01 X50.2681 Y24.6518 
G01 X50.1625 Y24.6235 
G01 X48.3342 Y24.6235 
G01 X48.2287 Y24.6518 
G01 X48.1340 Y24.7065 
G01 X48.0567 Y24.7838 
G01 X46.8931 Y25.9474 
G00 Z2.5400 
G00 X46.6534 Y27.9893 
G01 Z-0.1778 F254.00 
G01 X46.6128 Y28.0061 F508.00 
G01 X46.5817 Y28.0371 
G01 X46.5649 Y28.0777 
G01 X46.5649 Y29.1216 
G01 X46.5817 Y29.1622 
G01 X46.6128 Y29.1932 
G01 X46.6534 Y29.2101 
G01 X46.8101 Y29.2101 
G01 X46.8101 Y29.2403 
G01 X46.1844 Y29.8660 
G01 X43.8784 Y29.8660 
G01 X43.7728 Y29.8943 
G01 X43.6781 Y29.9489 
G01 X43.6008 Y30.0262 
G01 X43.5462 Y30.1209 
G01 X43.5179 Y30.2265 
G01 X43.5179 Y31.8330 
G01 X43.4932 Y31.8330 
G01 X43.4527 Y31.8498 
G01 X43.4216 Y31.8809 
G01 X43.4048 Y31.9215 
G01 X43.4048 Y32.1351 
G01 X42.4713 Y32.1351 
G01 X42.3657 Y32.1634 
G01 X42.2710 Y32.2181 
G01 X42.1937 Y32.2954 
G01 X41.8028 Y32.6862 
G01 X41.7482 Y32.7809 
G01 X41.7199 Y32.8865 
G01 X41.7199 Y40.9854 
G01 X40.7112 Y41.9941 
G01 X32.0665 Y41.9941 
G01 X31.1230 Y41.0507 
G01 X31.1230 Y39.7756 
G01 X31.1062 Y39.7350 
G01 X31.0752 Y39.7040 
G01 X31.0346 Y39.6872 
G01 X29.7907 Y39.6872 
G01 X29.7501 Y39.7040 
G01 X29.7190 Y39.7350 
G01 X29.7022 Y39.7756 
G01 X29.7022 Y42.8195 
G01 X29.7190 Y42.8601 
G01 X29.7501 Y42.8912 
G01 X29.7907 Y42.9080 
G01 X31.0346 Y42.9080 
G01 X31.0752 Y42.8912 
G01 X31.1062 Y42.8601 
G01 X31.1230 Y42.8195 
G01 X31.1230 Y42.2250 
G01 X31.5622 Y42.6643 
G01 X31.6395 Y42.7416 
G01 X31.7342 Y42.7962 
G01 X31.8398 Y42.8245 
G01 X40.9378 Y42.8245 
G01 X41.0434 Y42.7962 
G01 X41.1381 Y42.7416 
G01 X42.3900 Y41.4896 
G01 X42.4673 Y41.4123 
G01 X42.5220 Y41.3176 
G01 X42.5503 Y41.2120 
G01 X42.5503 Y33.1132 
G01 X42.6979 Y32.9655 
G01 X43.4049 Y32.9655 
G01 X43.4216 Y33.0060 
G01 X43.4527 Y33.0370 
G01 X43.4932 Y33.0538 
G01 X44.6372 Y33.0538 
G01 X44.6777 Y33.0370 
G01 X44.7088 Y33.0060 
G01 X44.7256 Y32.9654 
G01 X44.7256 Y31.9215 
G01 X44.7088 Y31.8809 
G01 X44.6777 Y31.8498 
G01 X44.6372 Y31.8330 
G01 X44.3483 Y31.8330 
G01 X44.3483 Y30.6964 
G01 X46.4111 Y30.6964 
G01 X46.5167 Y30.6681 
G01 X46.6114 Y30.6134 
G01 X46.6887 Y30.5361 
G01 X47.5576 Y29.6672 
G01 X47.6122 Y29.5725 
G01 X47.6405 Y29.4670 
G01 X47.6405 Y29.2101 
G01 X47.7973 Y29.2101 
G01 X47.8379 Y29.1932 
G01 X47.8689 Y29.1622 
G01 X47.8857 Y29.1216 
G01 X47.8857 Y28.0777 
G01 X47.8689 Y28.0371 
G01 X47.8379 Y28.0061 
G01 X47.7973 Y27.9893 
G01 X46.6534 Y27.9893 
G00 Z2.5400 
G00 X44.5171 Y35.2932 
G01 Z-0.1778 F254.00 
G01 X44.4765 Y35.2764 F508.00 
G01 X43.4326 Y35.2764 
G01 X43.3920 Y35.2932 
G01 X43.3610 Y35.3242 
G01 X43.3441 Y35.3648 
G01 X43.3441 Y36.5087 
G01 X43.3610 Y36.5493 
G01 X43.3920 Y36.5804 
G01 X43.4326 Y36.5972 
G01 X43.7524 Y36.5972 
G01 X43.7524 Y41.7598 
G01 X43.7807 Y41.8654 
G01 X43.8353 Y41.9600 
G01 X43.9126 Y42.0373 
G01 X44.7675 Y42.8922 
G01 X44.7215 Y42.9825 
G01 X44.6704 Y43.1397 
G01 X44.6446 Y43.3030 
G01 X44.6446 Y43.4683 
G01 X44.6704 Y43.6316 
G01 X44.6977 Y43.7155 
G01 X20.8278 Y43.7155 
G01 X20.8278 Y42.9080 
G01 X21.0346 Y42.9080 
G01 X21.0752 Y42.8912 
G01 X21.1062 Y42.8601 
G01 X21.1230 Y42.8195 
G01 X21.1230 Y39.7756 
G01 X21.1062 Y39.7350 
G01 X21.0752 Y39.7040 
G01 X21.0346 Y39.6872 
G01 X19.7907 Y39.6872 
G01 X19.7501 Y39.7040 
G01 X19.7190 Y39.7350 
G01 X19.7022 Y39.7756 
G01 X19.7022 Y42.8195 
G01 X19.7190 Y42.8601 
G01 X19.7501 Y42.8912 
G01 X19.7907 Y42.9080 
G01 X19.9974 Y42.9080 
G01 X19.9974 Y43.9604 
G01 X20.0257 Y44.0660 
G01 X20.0804 Y44.1607 
G01 X20.3054 Y44.3857 
G01 X20.3827 Y44.4630 
G01 X20.4773 Y44.5176 
G01 X20.5829 Y44.5459 
G01 X45.0044 Y44.5459 
G01 X45.1100 Y44.5176 
G01 X45.2046 Y44.4630 
G01 X45.3045 Y44.3631 
G01 X45.4488 Y44.4100 
G01 X45.6121 Y44.4359 
G01 X45.7774 Y44.4359 
G01 X45.9407 Y44.4100 
G01 X46.0979 Y44.3589 
G01 X46.2452 Y44.2839 
G01 X46.3789 Y44.1867 
G01 X46.4958 Y44.0698 
G01 X46.5930 Y43.9361 
G01 X46.6680 Y43.7888 
G01 X46.7191 Y43.6316 
G01 X46.7449 Y43.4683 
G01 X46.7449 Y43.3030 
G01 X46.7191 Y43.1397 
G01 X46.6680 Y42.9825 
G01 X46.5930 Y42.8352 
G01 X46.4958 Y42.7015 
G01 X46.3789 Y42.5846 
G01 X46.2452 Y42.4875 
G01 X46.0979 Y42.4124 
G01 X45.9407 Y42.3613 
G01 X45.7774 Y42.3355 
G01 X45.6121 Y42.3355 
G01 X45.4488 Y42.3613 
G01 X45.4203 Y42.3706 
G01 X44.5828 Y41.5331 
G01 X44.5828 Y36.0951 
G01 X44.5649 Y36.0286 
G01 X44.5649 Y35.3648 
G01 X44.5481 Y35.3242 
G01 X44.5171 Y35.2932 
G00 Z2.5400 
G00 X35.6214 Y45.6446 
G01 Z-0.1778 F254.00 
G01 X35.5808 Y45.6278 F508.00 
G01 X34.5369 Y45.6278 
G01 X34.4963 Y45.6446 
G01 X34.4653 Y45.6757 
G01 X34.4485 Y45.7162 
G01 X34.4485 Y46.0609 
G01 X27.3200 Y46.0609 
G01 X27.3200 Y45.9042 
G01 X27.3032 Y45.8636 
G01 X27.2721 Y45.8325 
G01 X27.2316 Y45.8157 
G01 X26.1876 Y45.8157 
G01 X26.1471 Y45.8325 
G01 X26.1160 Y45.8636 
G01 X26.0992 Y45.9042 
G01 X26.0992 Y47.0481 
G01 X26.1160 Y47.0887 
G01 X26.1471 Y47.1197 
G01 X26.1876 Y47.1365 
G01 X27.2316 Y47.1365 
G01 X27.2721 Y47.1197 
G01 X27.3032 Y47.0887 
G01 X27.3200 Y47.0481 
G01 X27.3200 Y46.8913 
G01 X34.4485 Y46.8913 
G01 X34.4485 Y47.1602 
G01 X34.4653 Y47.2007 
G01 X34.4963 Y47.2318 
G01 X34.5369 Y47.2486 
G01 X35.5808 Y47.2486 
G01 X35.6214 Y47.2318 
G01 X35.6525 Y47.2007 
G01 X35.6693 Y47.1602 
G01 X35.6693 Y45.7162 
G01 X35.6525 Y45.6757 
G01 X35.6214 Y45.6446 
G00 Z2.5400 
G00 X35.4869 Y47.8278 
G01 Z-0.1778 F254.00 
G01 X35.4463 Y47.8446 F508.00 
G01 X35.4153 Y47.8757 
G01 X35.3985 Y47.9162 
G01 X35.3985 Y49.3602 
G01 X35.4153 Y49.4007 
G01 X35.4463 Y49.4318 
G01 X35.4869 Y49.4486 
G01 X35.5937 Y49.4486 
G01 X35.5937 Y49.4670 
G01 X34.7171 Y50.3436 
G01 X32.2014 Y50.3436 
G01 X32.2014 Y49.2767 
G01 X32.2194 Y49.2647 
G01 X32.3398 Y49.1443 
G01 X32.4344 Y49.0027 
G01 X32.4996 Y48.8454 
G01 X32.5328 Y48.6784 
G01 X32.5328 Y48.5081 
G01 X32.4996 Y48.3411 
G01 X32.4344 Y48.1838 
G01 X32.3398 Y48.0422 
G01 X32.2194 Y47.9218 
G01 X32.0778 Y47.8272 
G01 X31.9205 Y47.7621 
G01 X31.7535 Y47.7289 
G01 X31.5833 Y47.7289 
G01 X31.4163 Y47.7621 
G01 X31.2589 Y47.8272 
G01 X31.1174 Y47.9218 
G01 X30.9970 Y48.0422 
G01 X30.9024 Y48.1838 
G01 X30.8372 Y48.3411 
G01 X30.8040 Y48.5081 
G01 X30.8040 Y48.6784 
G01 X30.8372 Y48.8454 
G01 X30.9024 Y49.0027 
G01 X30.9970 Y49.1443 
G01 X31.1174 Y49.2647 
G01 X31.2589 Y49.3593 
G01 X31.3710 Y49.4057 
G01 X31.3710 Y50.7377 
G01 X31.3993 Y50.8433 
G01 X31.4539 Y50.9379 
G01 X31.5312 Y51.0152 
G01 X31.6070 Y51.0910 
G01 X31.7017 Y51.1457 
G01 X31.8073 Y51.1739 
G01 X34.9438 Y51.1739 
G01 X35.0494 Y51.1457 
G01 X35.1440 Y51.0910 
G01 X35.2213 Y51.0137 
G01 X36.3411 Y49.8939 
G01 X36.3958 Y49.7993 
G01 X36.4241 Y49.6937 
G01 X36.4241 Y49.4486 
G01 X36.5308 Y49.4486 
G01 X36.5714 Y49.4318 
G01 X36.6024 Y49.4007 
G01 X36.6193 Y49.3602 
G01 X36.6193 Y47.9162 
G01 X36.6024 Y47.8757 
G01 X36.5714 Y47.8446 
G01 X36.5308 Y47.8278 
G01 X35.4869 Y47.8278 
G00 Z2.5400 
G00 X29.6794 Y47.9218 
G01 Z-0.1778 F254.00 
G01 X29.5378 Y47.8272 F508.00 
G01 X29.3805 Y47.7621 
G01 X29.2135 Y47.7289 
G01 X29.0433 Y47.7289 
G01 X28.8763 Y47.7621 
G01 X28.7189 Y47.8272 
G01 X28.5774 Y47.9218 
G01 X28.4570 Y48.0422 
G01 X28.3624 Y48.1838 
G01 X28.2972 Y48.3411 
G01 X28.2640 Y48.5081 
G01 X28.2640 Y48.5133 
G01 X23.3108 Y48.5133 
G01 X23.0056 Y48.2080 
G01 X23.0056 Y46.8634 
G01 X22.9773 Y46.7578 
G01 X22.9226 Y46.6631 
G01 X22.8453 Y46.5858 
G01 X22.7148 Y46.4553 
G01 X22.6201 Y46.4006 
G01 X22.5145 Y46.3723 
G01 X16.6773 Y46.3723 
G01 X14.2277 Y43.9227 
G01 X14.1330 Y43.8680 
G01 X14.0274 Y43.8397 
G01 X13.2561 Y43.8397 
G01 X11.4591 Y42.0427 
G01 X11.4591 Y41.8976 
G01 X11.9509 Y41.8976 
G01 X11.9914 Y41.8808 
G01 X12.0225 Y41.8497 
G01 X12.0393 Y41.8091 
G01 X12.0393 Y39.9652 
G01 X12.0225 Y39.9246 
G01 X11.9914 Y39.8936 
G01 X11.9509 Y39.8768 
G01 X10.1370 Y39.8768 
G01 X10.0964 Y39.8936 
G01 X10.0653 Y39.9246 
G01 X10.0485 Y39.9652 
G01 X10.0485 Y41.8091 
G01 X10.0653 Y41.8497 
G01 X10.0964 Y41.8808 
G01 X10.1370 Y41.8976 
G01 X10.6287 Y41.8976 
G01 X10.6287 Y42.2694 
G01 X10.6570 Y42.3750 
G01 X10.7117 Y42.4696 
G01 X12.7519 Y44.5099 
G01 X12.8292 Y44.5872 
G01 X12.9239 Y44.6418 
G01 X13.0295 Y44.6701 
G01 X13.8008 Y44.6701 
G01 X16.1731 Y47.0425 
G01 X16.2504 Y47.1198 
G01 X16.3451 Y47.1744 
G01 X16.4507 Y47.2027 
G01 X22.1752 Y47.2027 
G01 X22.1752 Y48.4347 
G01 X22.2035 Y48.5403 
G01 X22.2582 Y48.6350 
G01 X22.8066 Y49.1834 
G01 X22.8839 Y49.2607 
G01 X22.9786 Y49.3154 
G01 X23.0842 Y49.3437 
G01 X28.6956 Y49.3437 
G01 X28.7189 Y49.3593 
G01 X28.8763 Y49.4244 
G01 X29.0433 Y49.4576 
G01 X29.2135 Y49.4576 
G01 X29.3805 Y49.4244 
G01 X29.5378 Y49.3593 
G01 X29.6794 Y49.2647 
G01 X29.7998 Y49.1443 
G01 X29.8944 Y49.0027 
G01 X29.9596 Y48.8454 
G01 X29.9928 Y48.6784 
G01 X29.9928 Y48.5081 
G01 X29.9596 Y48.3411 
G01 X29.8944 Y48.1838 
G01 X29.7998 Y48.0422 
G01 X29.6794 Y47.9218 
G00 Z2.5400 
G00 X25.6032 Y47.0887 
G01 Z-0.1778 F254.00 
G01 X25.6200 Y47.0481 F508.00 
G01 X25.6200 Y45.9042 
G01 X25.6032 Y45.8636 
G01 X25.5721 Y45.8325 
G01 X25.5316 Y45.8157 
G01 X24.9364 Y45.8157 
G01 X24.1711 Y45.0504 
G01 X24.0764 Y44.9958 
G01 X23.9708 Y44.9675 
G01 X19.1680 Y44.9675 
G01 X18.8278 Y44.6273 
G01 X18.8278 Y42.9080 
G01 X19.0346 Y42.9080 
G01 X19.0752 Y42.8912 
G01 X19.1062 Y42.8601 
G01 X19.1230 Y42.8195 
G01 X19.1230 Y39.7756 
G01 X19.1062 Y39.7350 
G01 X19.0752 Y39.7040 
G01 X19.0346 Y39.6872 
G01 X17.7907 Y39.6872 
G01 X17.7501 Y39.7040 
G01 X17.7190 Y39.7350 
G01 X17.7022 Y39.7756 
G01 X17.7022 Y42.8195 
G01 X17.7190 Y42.8601 
G01 X17.7501 Y42.8912 
G01 X17.7907 Y42.9080 
G01 X17.9974 Y42.9080 
G01 X17.9974 Y44.8540 
G01 X18.0257 Y44.9596 
G01 X18.0804 Y45.0542 
G01 X18.6637 Y45.6376 
G01 X18.7410 Y45.7149 
G01 X18.8357 Y45.7696 
G01 X18.9413 Y45.7979 
G01 X23.7441 Y45.7979 
G01 X24.3992 Y46.4529 
G01 X24.3992 Y47.0481 
G01 X24.4160 Y47.0887 
G01 X24.4471 Y47.1197 
G01 X24.4876 Y47.1365 
G01 X25.5316 Y47.1365 
G01 X25.5721 Y47.1197 
G01 X25.6032 Y47.0887 
G00 Z2.5400 
G00 X25.1062 Y42.8601 
G01 Z-0.1778 F254.00 
G01 X25.1230 Y42.8195 F508.00 
G01 X25.1230 Y39.7756 
G01 X25.1062 Y39.7350 
G01 X25.0752 Y39.7040 
G01 X25.0346 Y39.6872 
G01 X23.7907 Y39.6872 
G01 X23.7501 Y39.7040 
G01 X23.7190 Y39.7350 
G01 X23.7022 Y39.7756 
G01 X23.7022 Y42.8195 
G01 X23.7190 Y42.8601 
G01 X23.7501 Y42.8912 
G01 X23.7907 Y42.9080 
G01 X25.0346 Y42.9080 
G01 X25.0752 Y42.8912 
G01 X25.1062 Y42.8601 
G00 Z2.5400 
G00 X23.1062 Y42.8601 
G01 Z-0.1778 F254.00 
G01 X23.1230 Y42.8195 F508.00 
G01 X23.1230 Y39.7756 
G01 X23.1062 Y39.7350 
G01 X23.0752 Y39.7040 
G01 X23.0346 Y39.6872 
G01 X21.7907 Y39.6872 
G01 X21.7501 Y39.7040 
G01 X21.7190 Y39.7350 
G01 X21.7022 Y39.7756 
G01 X21.7022 Y42.8195 
G01 X21.7190 Y42.8601 
G01 X21.7501 Y42.8912 
G01 X21.7907 Y42.9080 
G01 X23.0346 Y42.9080 
G01 X23.0752 Y42.8912 
G01 X23.1062 Y42.8601 
G00 Z2.5400 
G00 X27.7190 Y42.8601 
G01 Z-0.1778 F254.00 
G01 X27.7501 Y42.8912 F508.00 
G01 X27.7907 Y42.9080 
G01 X29.0346 Y42.9080 
G01 X29.0752 Y42.8912 
G01 X29.1062 Y42.8601 
G01 X29.1230 Y42.8195 
G01 X29.1230 Y39.7756 
G01 X29.1062 Y39.7350 
G01 X29.0752 Y39.7040 
G01 X29.0346 Y39.6872 
G01 X27.7907 Y39.6872 
G01 X27.7501 Y39.7040 
G01 X27.7190 Y39.7350 
G01 X27.7022 Y39.7756 
G01 X27.7022 Y42.8195 
G01 X27.7190 Y42.8601 
G00 Z2.5400 
G00 X19.5194 Y47.9218 
G01 Z-0.1778 F254.00 
G01 X19.3778 Y47.8272 F508.00 
G01 X19.2205 Y47.7621 
G01 X19.0535 Y47.7289 
G01 X18.8833 Y47.7289 
G01 X18.7163 Y47.7621 
G01 X18.5589 Y47.8272 
G01 X18.5281 Y47.8479 
G01 X15.0426 Y47.8479 
G01 X15.0426 Y47.4853 
G01 X15.0140 Y47.3413 
G01 X14.9578 Y47.2056 
G01 X14.8762 Y47.0835 
G01 X13.7432 Y45.9506 
G01 X13.6394 Y45.8467 
G01 X13.5173 Y45.7651 
G01 X13.3816 Y45.7090 
G01 X13.2376 Y45.6803 
G01 X11.6968 Y45.6803 
G01 X4.8457 Y38.8292 
G01 X4.8457 Y38.1504 
G01 X5.7624 Y37.2337 
G01 X5.8663 Y37.1299 
G01 X5.8705 Y37.1235 
G01 X9.3772 Y33.6168 
G01 X9.4810 Y33.5130 
G01 X9.5626 Y33.3909 
G01 X9.6188 Y33.2553 
G01 X9.6474 Y33.1112 
G01 X9.6474 Y30.5816 
G01 X9.7396 Y30.4547 
G01 X9.8147 Y30.3074 
G01 X9.8658 Y30.1502 
G01 X9.8916 Y29.9869 
G01 X9.8916 Y29.8216 
G01 X9.8658 Y29.6583 
G01 X9.8147 Y29.5011 
G01 X9.7396 Y29.3538 
G01 X9.6425 Y29.2201 
G01 X9.5256 Y29.1032 
G01 X9.3918 Y29.0060 
G01 X9.2446 Y28.9310 
G01 X9.0873 Y28.8799 
G01 X8.9241 Y28.8541 
G01 X8.7588 Y28.8541 
G01 X8.5955 Y28.8799 
G01 X8.4383 Y28.9310 
G01 X8.2910 Y29.0060 
G01 X8.1573 Y29.1032 
G01 X8.0404 Y29.2201 
G01 X7.9432 Y29.3538 
G01 X7.8682 Y29.5011 
G01 X7.8171 Y29.6583 
G01 X7.7912 Y29.8216 
G01 X7.7912 Y29.9869 
G01 X7.8171 Y30.1502 
G01 X7.8682 Y30.3074 
G01 X7.9432 Y30.4547 
G01 X8.0404 Y30.5884 
G01 X8.1566 Y30.7047 
G01 X8.1566 Y32.7291 
G01 X4.7083 Y36.1774 
G01 X4.7040 Y36.1838 
G01 X3.5213 Y37.3665 
G01 X3.4398 Y37.4886 
G01 X3.3836 Y37.6242 
G01 X3.3549 Y37.7682 
G01 X3.3549 Y39.2114 
G01 X3.3836 Y39.3554 
G01 X3.4398 Y39.4910 
G01 X3.5213 Y39.6131 
G01 X3.6252 Y39.7169 
G01 X10.9129 Y47.0047 
G01 X11.0350 Y47.0863 
G01 X11.1707 Y47.1425 
G01 X11.3147 Y47.1711 
G01 X12.8555 Y47.1711 
G01 X13.5518 Y47.8675 
G01 X13.5518 Y48.3346 
G01 X13.5805 Y48.4786 
G01 X13.6366 Y48.6142 
G01 X13.7182 Y48.7363 
G01 X13.8220 Y48.8401 
G01 X14.0503 Y49.0684 
G01 X14.1541 Y49.1722 
G01 X14.2762 Y49.2538 
G01 X14.4119 Y49.3100 
G01 X14.5559 Y49.3386 
G01 X18.5281 Y49.3386 
G01 X18.5589 Y49.3593 
G01 X18.7163 Y49.4244 
G01 X18.8833 Y49.4576 
G01 X19.0535 Y49.4576 
G01 X19.2205 Y49.4244 
G01 X19.3778 Y49.3593 
G01 X19.5194 Y49.2647 
G01 X19.6398 Y49.1443 
G01 X19.7344 Y49.0027 
G01 X19.7996 Y48.8454 
G01 X19.8328 Y48.6784 
G01 X19.8328 Y48.5081 
G01 X19.7996 Y48.3411 
G01 X19.7344 Y48.1838 
G01 X19.6398 Y48.0422 
G01 X19.5194 Y47.9218 
G00 Z2.5400 
G00 X11.8994 Y47.9218 
G01 Z-0.1778 F254.00 
G01 X11.7578 Y47.8272 F508.00 
G01 X11.6005 Y47.7621 
G01 X11.4335 Y47.7289 
G01 X11.2633 Y47.7289 
G01 X11.2268 Y47.7361 
G01 X10.1777 Y47.7361 
G01 X2.5218 Y40.0802 
G01 X2.5218 Y36.8057 
G01 X6.9453 Y32.3822 
G01 X7.0269 Y32.2601 
G01 X7.0831 Y32.1245 
G01 X7.1117 Y31.9805 
G01 X7.1117 Y28.1059 
G01 X7.0831 Y27.9619 
G01 X7.0269 Y27.8263 
G01 X6.9453 Y27.7042 
G01 X6.8415 Y27.6003 
G01 X6.2545 Y27.0133 
G01 X6.2545 Y25.6408 
G01 X6.7375 Y25.6408 
G01 X6.7781 Y25.6240 
G01 X6.8092 Y25.5929 
G01 X6.8260 Y25.5523 
G01 X6.8260 Y23.0954 
G01 X6.8092 Y23.0548 
G01 X6.7781 Y23.0238 
G01 X6.7375 Y23.0070 
G01 X4.2806 Y23.0070 
G01 X4.2400 Y23.0238 
G01 X4.2090 Y23.0548 
G01 X4.1922 Y23.0954 
G01 X4.1922 Y25.5523 
G01 X4.2090 Y25.5929 
G01 X4.2400 Y25.6240 
G01 X4.2806 Y25.6408 
G01 X4.7637 Y25.6408 
G01 X4.7637 Y27.3955 
G01 X4.7923 Y27.5395 
G01 X4.8485 Y27.6752 
G01 X4.9301 Y27.7973 
G01 X5.6209 Y28.4881 
G01 X5.6209 Y31.5983 
G01 X1.3013 Y35.9180 
G01 X1.1974 Y36.0218 
G01 X1.1159 Y36.1439 
G01 X1.0597 Y36.2795 
G01 X1.0310 Y36.4235 
G01 X1.0310 Y40.4624 
G01 X1.0597 Y40.6064 
G01 X1.1159 Y40.7421 
G01 X1.1974 Y40.8641 
G01 X9.2900 Y48.9567 
G01 X9.3938 Y49.0605 
G01 X9.5159 Y49.1421 
G01 X9.6515 Y49.1983 
G01 X9.7955 Y49.2269 
G01 X10.7596 Y49.2269 
G01 X10.7974 Y49.2647 
G01 X10.9389 Y49.3593 
G01 X11.0963 Y49.4244 
G01 X11.2633 Y49.4576 
G01 X11.4335 Y49.4576 
G01 X11.6005 Y49.4244 
G01 X11.7578 Y49.3593 
G01 X11.8994 Y49.2647 
G01 X12.0198 Y49.1443 
G01 X12.1144 Y49.0027 
G01 X12.1796 Y48.8454 
G01 X12.2128 Y48.6784 
G01 X12.2128 Y48.5081 
G01 X12.1796 Y48.3411 
G01 X12.1144 Y48.1838 
G01 X12.0198 Y48.0422 
G01 X11.8994 Y47.9218 
G00 Z2.5400 
G00 X12.7501 Y38.4911 
G01 Z-0.1778 F254.00 
G01 X12.7907 Y38.5080 F508.00 
G01 X15.8346 Y38.5080 
G01 X15.8752 Y38.4911 
G01 X15.9062 Y38.4601 
G01 X15.9230 Y38.4195 
G01 X15.9230 Y37.1756 
G01 X15.9062 Y37.1350 
G01 X15.8752 Y37.1040 
G01 X15.8346 Y37.0872 
G01 X12.7907 Y37.0872 
G01 X12.7501 Y37.1040 
G01 X12.7190 Y37.1350 
G01 X12.7022 Y37.1756 
G01 X12.7022 Y38.4195 
G01 X12.7190 Y38.4601 
G01 X12.7501 Y38.4911 
G00 Z2.5400 
G00 X12.7501 Y36.4911 
G01 Z-0.1778 F254.00 
G01 X12.7907 Y36.5080 F508.00 
G01 X15.8346 Y36.5080 
G01 X15.8752 Y36.4911 
G01 X15.9062 Y36.4601 
G01 X15.9230 Y36.4195 
G01 X15.9230 Y35.1756 
G01 X15.9062 Y35.1350 
G01 X15.8752 Y35.1040 
G01 X15.8346 Y35.0872 
G01 X12.7907 Y35.0872 
G01 X12.7501 Y35.1040 
G01 X12.7190 Y35.1350 
G01 X12.7022 Y35.1756 
G01 X12.7022 Y36.4195 
G01 X12.7190 Y36.4601 
G01 X12.7501 Y36.4911 
G00 Z2.5400 
G00 X12.7501 Y34.4911 
G01 Z-0.1778 F254.00 
G01 X12.7907 Y34.5080 F508.00 
G01 X15.8346 Y34.5080 
G01 X15.8752 Y34.4911 
G01 X15.9062 Y34.4601 
G01 X15.9230 Y34.4195 
G01 X15.9230 Y33.1756 
G01 X15.9062 Y33.1350 
G01 X15.8752 Y33.1040 
G01 X15.8346 Y33.0872 
G01 X12.7907 Y33.0872 
G01 X12.7501 Y33.1040 
G01 X12.7190 Y33.1350 
G01 X12.7022 Y33.1756 
G01 X12.7022 Y34.4195 
G01 X12.7190 Y34.4601 
G01 X12.7501 Y34.4911 
G00 Z2.5400 
G00 X12.7501 Y32.4911 
G01 Z-0.1778 F254.00 
G01 X12.7907 Y32.5080 F508.00 
G01 X15.8346 Y32.5080 
G01 X15.8752 Y32.4911 
G01 X15.9062 Y32.4601 
G01 X15.9230 Y32.4195 
G01 X15.9230 Y31.1756 
G01 X15.9062 Y31.1350 
G01 X15.8752 Y31.1040 
G01 X15.8346 Y31.0872 
G01 X12.7907 Y31.0872 
G01 X12.7501 Y31.1040 
G01 X12.7190 Y31.1350 
G01 X12.7022 Y31.1756 
G01 X12.7022 Y32.4195 
G01 X12.7190 Y32.4601 
G01 X12.7501 Y32.4911 
G00 Z2.5400 
G00 X12.7501 Y30.4912 
G01 Z-0.1778 F254.00 
G01 X12.7907 Y30.5080 F508.00 
G01 X15.8346 Y30.5080 
G01 X15.8752 Y30.4912 
G01 X15.9062 Y30.4601 
G01 X15.9230 Y30.4195 
G01 X15.9230 Y29.1756 
G01 X15.9062 Y29.1350 
G01 X15.8752 Y29.1040 
G01 X15.8346 Y29.0872 
G01 X12.7907 Y29.0872 
G01 X12.7501 Y29.1040 
G01 X12.7190 Y29.1350 
G01 X12.7022 Y29.1756 
G01 X12.7022 Y30.4195 
G01 X12.7190 Y30.4601 
G01 X12.7501 Y30.4912 
G00 Z2.5400 
G00 X12.7501 Y28.4912 
G01 Z-0.1778 F254.00 
G01 X12.7907 Y28.5080 F508.00 
G01 X15.8346 Y28.5080 
G01 X15.8752 Y28.4912 
G01 X15.9062 Y28.4601 
G01 X15.9230 Y28.4195 
G01 X15.9230 Y27.1756 
G01 X15.9062 Y27.1350 
G01 X15.8752 Y27.1040 
G01 X15.8346 Y27.0872 
G01 X12.7907 Y27.0872 
G01 X12.7501 Y27.1040 
G01 X12.7190 Y27.1350 
G01 X12.7022 Y27.1756 
G01 X12.7022 Y28.4195 
G01 X12.7190 Y28.4601 
G01 X12.7501 Y28.4912 
G00 Z2.5400 
G00 X17.7501 Y26.4912 
G01 Z-0.1778 F254.00 
G01 X17.7907 Y26.5080 F508.00 
G01 X19.0346 Y26.5080 
G01 X19.0752 Y26.4912 
G01 X19.1062 Y26.4601 
G01 X19.1230 Y26.4195 
G01 X19.1230 Y23.3756 
G01 X19.1062 Y23.3350 
G01 X19.0752 Y23.3040 
G01 X19.0346 Y23.2872 
G01 X18.8278 Y23.2872 
G01 X18.8278 Y21.5624 
G01 X19.1123 Y21.5624 
G01 X19.1529 Y21.5456 
G01 X19.1840 Y21.5145 
G01 X19.2008 Y21.4740 
G01 X19.2008 Y20.4300 
G01 X19.1840 Y20.3895 
G01 X19.1529 Y20.3584 
G01 X19.1123 Y20.3416 
G01 X17.9684 Y20.3416 
G01 X17.9278 Y20.3584 
G01 X17.8968 Y20.3895 
G01 X17.8800 Y20.4300 
G01 X17.8800 Y21.4740 
G01 X17.8968 Y21.5145 
G01 X17.9278 Y21.5456 
G01 X17.9684 Y21.5624 
G01 X17.9974 Y21.5624 
G01 X17.9974 Y23.2872 
G01 X17.7907 Y23.2872 
G01 X17.7501 Y23.3040 
G01 X17.7190 Y23.3350 
G01 X17.7022 Y23.3756 
G01 X17.7022 Y26.4195 
G01 X17.7190 Y26.4601 
G01 X17.7501 Y26.4912 
G00 Z2.5400 
G00 X19.7501 Y26.4912 
G01 Z-0.1778 F254.00 
G01 X19.7907 Y26.5080 F508.00 
G01 X21.0346 Y26.5080 
G01 X21.0752 Y26.4912 
G01 X21.1062 Y26.4601 
G01 X21.1230 Y26.4195 
G01 X21.1230 Y23.3756 
G01 X21.1062 Y23.3350 
G01 X21.0752 Y23.3040 
G01 X21.0346 Y23.2872 
G01 X20.8278 Y23.2872 
G01 X20.8278 Y23.2235 
G01 X21.3700 Y22.6812 
G01 X21.4473 Y22.6039 
G01 X21.5020 Y22.5093 
G01 X21.5303 Y22.4037 
G01 X21.5303 Y21.1738 
G01 X21.5142 Y21.1136 
G01 X21.5142 Y20.4452 
G01 X21.4974 Y20.4046 
G01 X21.4663 Y20.3735 
G01 X21.4257 Y20.3567 
G01 X20.2818 Y20.3567 
G01 X20.2412 Y20.3735 
G01 X20.2102 Y20.4046 
G01 X20.1934 Y20.4452 
G01 X20.1934 Y21.4891 
G01 X20.2102 Y21.5297 
G01 X20.2412 Y21.5607 
G01 X20.2818 Y21.5775 
G01 X20.6999 Y21.5775 
G01 X20.6999 Y22.1770 
G01 X20.0804 Y22.7965 
G01 X20.0257 Y22.8912 
G01 X19.9974 Y22.9968 
G01 X19.9974 Y23.2872 
G01 X19.7907 Y23.2872 
G01 X19.7501 Y23.3040 
G01 X19.7190 Y23.3350 
G01 X19.7022 Y23.3756 
G01 X19.7022 Y26.4195 
G01 X19.7190 Y26.4601 
G01 X19.7501 Y26.4912 
G00 Z2.5400 
G00 X21.7501 Y26.4912 
G01 Z-0.1778 F254.00 
G01 X21.7907 Y26.5080 F508.00 
G01 X23.0346 Y26.5080 
G01 X23.0752 Y26.4912 
G01 X23.1062 Y26.4601 
G01 X23.1230 Y26.4195 
G01 X23.1230 Y23.3756 
G01 X23.1062 Y23.3350 
G01 X23.0752 Y23.3040 
G01 X23.0346 Y23.2872 
G01 X22.8278 Y23.2872 
G01 X22.8278 Y22.2774 
G01 X23.4323 Y21.6729 
G01 X24.0275 Y21.6729 
G01 X24.0681 Y21.6561 
G01 X24.0991 Y21.6251 
G01 X24.1159 Y21.5845 
G01 X24.1159 Y20.5406 
G01 X24.0991 Y20.5000 
G01 X24.0681 Y20.4689 
G01 X24.0275 Y20.4521 
G01 X22.8836 Y20.4521 
G01 X22.8430 Y20.4689 
G01 X22.8119 Y20.5000 
G01 X22.7951 Y20.5406 
G01 X22.7951 Y21.1358 
G01 X22.0804 Y21.8505 
G01 X22.0257 Y21.9452 
G01 X21.9974 Y22.0508 
G01 X21.9974 Y23.2872 
G01 X21.7907 Y23.2872 
G01 X21.7501 Y23.3040 
G01 X21.7190 Y23.3350 
G01 X21.7022 Y23.3756 
G01 X21.7022 Y26.4195 
G01 X21.7190 Y26.4601 
G01 X21.7501 Y26.4912 
G00 Z2.5400 
G00 X23.7501 Y26.4912 
G01 Z-0.1778 F254.00 
G01 X23.7907 Y26.5080 F508.00 
G01 X25.0346 Y26.5080 
G01 X25.0752 Y26.4912 
G01 X25.1062 Y26.4601 
G01 X25.1230 Y26.4195 
G01 X25.1230 Y23.3756 
G01 X25.1062 Y23.3350 
G01 X25.0752 Y23.3040 
G01 X25.0346 Y23.2872 
G01 X23.7907 Y23.2872 
G01 X23.7501 Y23.3040 
G01 X23.7190 Y23.3350 
G01 X23.7022 Y23.3756 
G01 X23.7022 Y26.4195 
G01 X23.7190 Y26.4601 
G01 X23.7501 Y26.4912 
G00 Z2.5400 
G00 X25.7501 Y26.4912 
G01 Z-0.1778 F254.00 
G01 X25.7907 Y26.5080 F508.00 
G01 X27.0346 Y26.5080 
G01 X27.0752 Y26.4912 
G01 X27.1062 Y26.4601 
G01 X27.1230 Y26.4195 
G01 X27.1230 Y23.3756 
G01 X27.1062 Y23.3350 
G01 X27.0752 Y23.3040 
G01 X27.0346 Y23.2872 
G01 X25.7907 Y23.2872 
G01 X25.7501 Y23.3040 
G01 X25.7190 Y23.3350 
G01 X25.7022 Y23.3756 
G01 X25.7022 Y26.4195 
G01 X25.7190 Y26.4601 
G01 X25.7501 Y26.4912 
G00 Z2.5400 
G00 X27.7501 Y26.4912 
G01 Z-0.1778 F254.00 
G01 X27.7907 Y26.5080 F508.00 
G01 X29.0346 Y26.5080 
G01 X29.0752 Y26.4912 
G01 X29.1062 Y26.4601 
G01 X29.1230 Y26.4195 
G01 X29.1230 Y23.3756 
G01 X29.1062 Y23.3350 
G01 X29.0752 Y23.3040 
G01 X29.0346 Y23.2872 
G01 X27.7907 Y23.2872 
G01 X27.7501 Y23.3040 
G01 X27.7190 Y23.3350 
G01 X27.7022 Y23.3756 
G01 X27.7022 Y26.4195 
G01 X27.7190 Y26.4601 
G01 X27.7501 Y26.4912 
G00 Z2.5400 
G00 X29.7501 Y26.4912 
G01 Z-0.1778 F254.00 
G01 X29.7907 Y26.5080 F508.00 
G01 X31.0346 Y26.5080 
G01 X31.0752 Y26.4912 
G01 X31.1062 Y26.4601 
G01 X31.1230 Y26.4195 
G01 X31.1230 Y23.3756 
G01 X31.1062 Y23.3350 
G01 X31.0752 Y23.3040 
G01 X31.0346 Y23.2872 
G01 X29.7907 Y23.2872 
G01 X29.7501 Y23.3040 
G01 X29.7190 Y23.3350 
G01 X29.7022 Y23.3756 
G01 X29.7022 Y26.4195 
G01 X29.7190 Y26.4601 
G01 X29.7501 Y26.4912 
G00 Z2.5400 
G00 X29.8915 Y21.4901 
G01 Z-0.1778 F254.00 
G01 X29.9862 Y21.5448 F508.00 
G01 X30.0918 Y21.5731 
G01 X30.2011 Y21.5731 
G01 X30.3067 Y21.5448 
G01 X30.4014 Y21.4901 
G01 X30.4787 Y21.4128 
G01 X30.5334 Y21.3181 
G01 X30.5617 Y21.2125 
G01 X30.5617 Y20.1507 
G01 X31.5093 Y20.1507 
G01 X31.5093 Y21.2125 
G01 X31.5375 Y21.3181 
G01 X31.5922 Y21.4128 
G01 X31.6695 Y21.4901 
G01 X31.7642 Y21.5448 
G01 X31.8698 Y21.5731 
G01 X31.9791 Y21.5731 
G01 X32.0847 Y21.5448 
G01 X32.1794 Y21.4901 
G01 X32.2567 Y21.4128 
G01 X32.3114 Y21.3181 
G01 X32.3396 Y21.2125 
G01 X32.3396 Y17.9028 
G01 X32.3114 Y17.7972 
G01 X32.2567 Y17.7025 
G01 X32.1794 Y17.6252 
G01 X32.0847 Y17.5706 
G01 X31.9791 Y17.5423 
G01 X31.8698 Y17.5423 
G01 X31.7642 Y17.5706 
G01 X31.6695 Y17.6252 
G01 X31.5922 Y17.7025 
G01 X31.5375 Y17.7972 
G01 X31.5093 Y17.9028 
G01 X31.5093 Y19.3203 
G01 X30.5617 Y19.3203 
G01 X30.5617 Y17.9028 
G01 X30.5334 Y17.7972 
G01 X30.4787 Y17.7025 
G01 X30.4014 Y17.6252 
G01 X30.3067 Y17.5706 
G01 X30.2011 Y17.5423 
G01 X30.0918 Y17.5423 
G01 X29.9862 Y17.5706 
G01 X29.8915 Y17.6252 
G01 X29.8142 Y17.7025 
G01 X29.7595 Y17.7972 
G01 X29.7313 Y17.9028 
G01 X29.7313 Y21.2125 
G01 X29.7595 Y21.3181 
G01 X29.8142 Y21.4128 
G01 X29.8915 Y21.4901 
G00 Z2.5400 
G00 X28.9986 Y21.2462 
G01 Z-0.1778 F254.00 
G01 X28.9986 Y21.2462 F508.00 
G01 X29.1253 Y21.0952 
G01 X29.2239 Y20.9245 
G01 X29.2913 Y20.7393 
G01 X29.3255 Y20.5452 
G01 X29.3255 Y20.3481 
G01 X29.2913 Y20.1540 
G01 X29.2239 Y19.9688 
G01 X29.1253 Y19.7981 
G01 X29.1112 Y19.7813 
G01 X29.2318 Y19.6503 
G01 X29.3501 Y19.4693 
G01 X29.4369 Y19.2714 
G01 X29.4899 Y19.0619 
G01 X29.5078 Y18.8465 
G01 X29.4899 Y18.6311 
G01 X29.4369 Y18.4215 
G01 X29.3501 Y18.2236 
G01 X29.2318 Y18.0427 
G01 X29.0855 Y17.8836 
G01 X28.9149 Y17.7509 
G01 X28.7248 Y17.6480 
G01 X28.5204 Y17.5778 
G01 X28.3072 Y17.5423 
G01 X28.2538 Y17.5423 
G01 X27.2555 Y17.5423 
G01 X27.1499 Y17.5706 
G01 X27.0552 Y17.6252 
G01 X26.9779 Y17.7025 
G01 X26.9232 Y17.7972 
G01 X26.8949 Y17.9028 
G01 X26.8949 Y21.2125 
G01 X26.9232 Y21.3181 
G01 X26.9779 Y21.4128 
G01 X27.0552 Y21.4901 
G01 X27.1499 Y21.5448 
G01 X27.2555 Y21.5731 
G01 X28.2977 Y21.5731 
G01 X28.4918 Y21.5388 
G01 X28.6770 Y21.4714 
G01 X28.8477 Y21.3729 
G01 X28.9986 Y21.2462 
G00 Z2.5400 
G00 X28.4084 Y20.6560 
G01 Z-0.1778 F254.00 
G01 X28.3689 Y20.6891 F508.00 
G01 X28.3242 Y20.7149 
G01 X28.2757 Y20.7326 
G01 X28.2249 Y20.7415 
G01 X28.1991 Y20.7427 
G01 X27.7253 Y20.7427 
G01 X27.7253 Y20.1507 
G01 X28.1991 Y20.1507 
G01 X28.2249 Y20.1518 
G01 X28.2757 Y20.1607 
G01 X28.3242 Y20.1784 
G01 X28.3689 Y20.2042 
G01 X28.4084 Y20.2373 
G01 X28.4416 Y20.2769 
G01 X28.4674 Y20.3216 
G01 X28.4850 Y20.3700 
G01 X28.4940 Y20.4209 
G01 X28.4940 Y20.4725 
G01 X28.4850 Y20.5233 
G01 X28.4674 Y20.5718 
G01 X28.4416 Y20.6164 
G01 X28.4084 Y20.6560 
G00 Z2.5400 
G00 X28.3894 Y19.2803 
G01 Z-0.1778 F254.00 
G01 X28.3154 Y19.3058 F508.00 
G01 X28.2382 Y19.3186 
G01 X28.1991 Y19.3203 
G01 X27.7253 Y19.3203 
G01 X27.7253 Y18.3727 
G01 X28.1991 Y18.3727 
G01 X28.2382 Y18.3743 
G01 X28.3154 Y18.3871 
G01 X28.3894 Y18.4126 
G01 X28.4583 Y18.4498 
G01 X28.5200 Y18.4979 
G01 X28.5730 Y18.5554 
G01 X28.6158 Y18.6209 
G01 X28.6472 Y18.6926 
G01 X28.6665 Y18.7685 
G01 X28.6729 Y18.8465 
G01 X28.6665 Y18.9244 
G01 X28.6472 Y19.0003 
G01 X28.6158 Y19.0720 
G01 X28.5730 Y19.1375 
G01 X28.5200 Y19.1950 
G01 X28.4583 Y19.2431 
G01 X28.3894 Y19.2803 
G00 Z2.5400 
G00 X0.3124 Y0.0411 
G01 Z-0.1778 F254.00 
G01 X0.3124 Y-0.1127 F508.00 
G01 X0.2911 Y-0.1921 
G01 X0.2500 Y-0.2634 
G01 X0.1918 Y-0.3216 
G01 X0.1206 Y-0.3627 
G01 X0.0411 Y-0.3840 
G01 X-0.0411 Y-0.3840 
G01 X-0.1206 Y-0.3627 
G01 X-0.1918 Y-0.3216 
G01 X-0.2500 Y-0.2634 
G01 X-0.2911 Y-0.1921 
G01 X-0.2959 Y-0.1742 
G01 X-0.3269 Y-0.1206 
G01 X-0.3482 Y-0.0411 
G01 X-0.3482 Y0.0411 
G01 X-0.3269 Y0.1206 
G01 X-0.2858 Y0.1918 
G01 X-0.2276 Y0.2500 
G01 X-0.1564 Y0.2911 
G01 X-0.0769 Y0.3124 
G01 X-0.0411 Y0.3124 
G01 X0.0411 Y0.3124 
G01 X0.1206 Y0.2911 
G01 X0.1918 Y0.2500 
G01 X0.2500 Y0.1918 
G01 X0.2911 Y0.1206 
G01 X0.3124 Y0.0411 
G00 Z2.5400 
G00 X11.4145 Y0.0167 
G01 Z-0.1778 F254.00 
G01 X-0.1503 Y11.8253 F508.00 
G01 X-0.1897 Y11.8359 
G01 X-0.3017 Y11.9006 
G01 X-0.3932 Y11.9921 
G01 X-0.4579 Y12.1041 
G01 X-0.4914 Y12.2291 
G01 X-0.4914 Y40.7573 
G01 X-0.4914 Y40.8867 
G01 X-0.4579 Y41.0117 
G01 X-0.3932 Y41.1237 
G01 X-0.2552 Y41.2617 
G01 X-0.2552 Y41.3703 
G01 X-0.2217 Y41.4953 
G01 X-0.1570 Y41.6073 
G01 X11.6656 Y53.4300 
G01 X11.7777 Y53.4947 
G01 X11.9027 Y53.5282 
G01 X12.0321 Y53.5282 
G01 X12.1570 Y53.4947 
G01 X12.2355 Y53.4494 
G01 X41.9504 Y53.4494 
G01 X42.0753 Y53.4159 
G01 X42.1874 Y53.3512 
G01 X42.3836 Y53.1549 
G01 X55.2488 Y41.2984 
G01 X55.2582 Y41.2930 
G01 X55.2963 Y41.2547 
G01 X55.3360 Y41.2181 
G01 X55.3418 Y41.2089 
G01 X55.3495 Y41.2012 
G01 X55.3764 Y41.1544 
G01 X55.4052 Y41.1088 
G01 X55.4085 Y41.0984 
G01 X55.4139 Y41.0890 
G01 X55.4277 Y41.0368 
G01 X55.4438 Y40.9852 
G01 X55.4442 Y40.9744 
G01 X55.4470 Y40.9639 
G01 X55.4469 Y40.9099 
G01 X55.4491 Y40.8560 
G01 X55.4467 Y40.8454 
G01 X55.3683 Y12.1128 
G01 X55.3700 Y12.1050 
G01 X55.3681 Y12.0482 
G01 X55.3679 Y11.9914 
G01 X55.3658 Y11.9837 
G01 X55.3656 Y11.9757 
G01 X55.3490 Y11.9214 
G01 X55.3341 Y11.8665 
G01 X55.3301 Y11.8596 
G01 X55.3278 Y11.8520 
G01 X55.2977 Y11.8038 
G01 X55.2691 Y11.7546 
G01 X55.2634 Y11.7490 
G01 X55.2592 Y11.7422 
G01 X55.2177 Y11.7034 
G01 X55.1774 Y11.6634 
G01 X55.1704 Y11.6594 
G01 X42.4625 Y-0.1967 
G01 X42.4217 Y-0.2372 
G01 X42.4153 Y-0.2408 
G01 X42.4099 Y-0.2458 
G01 X42.3592 Y-0.2728 
G01 X42.3093 Y-0.3013 
G01 X42.3022 Y-0.3031 
G01 X42.2957 Y-0.3066 
G01 X42.2397 Y-0.3195 
G01 X42.1841 Y-0.3341 
G01 X42.1768 Y-0.3341 
G01 X42.1696 Y-0.3357 
G01 X42.1123 Y-0.3337 
G01 X11.8707 Y-0.1765 
G01 X11.8062 Y-0.1762 
G01 X11.7427 Y-0.1758 
G01 X11.7401 Y-0.1755 
G01 X11.6788 Y-0.1584 
G01 X11.6179 Y-0.1417 
G01 X11.5605 Y-0.1082 
G01 X11.5061 Y-0.0764 
G01 X11.4594 Y-0.0292 
G01 X11.4151 Y0.0155 
G00 Z2.5400 
G00 X12.0175 Y0.8055 
G01 Z-0.1778 F254.00 
G01 X41.9294 Y0.6500 F508.00 
G01 X54.3859 Y12.2715 
G01 X54.4635 Y40.6857 
G01 X41.7504 Y52.4020 
G01 X41.7415 Y52.4071 
G01 X41.7029 Y52.4458 
G01 X41.6803 Y52.4666 
G01 X12.0921 Y52.4666 
G01 X0.7276 Y41.1020 
G01 X0.7276 Y40.9935 
G01 X0.6941 Y40.8685 
G01 X0.6294 Y40.7565 
G01 X0.5379 Y40.6650 
G01 X0.4914 Y40.6184 
G01 X0.4914 Y12.5748 
G01 X12.0175 Y0.8055 
G00 Z2.5400 
G00 X11.4330 Y9.4747 
G01 Z-0.1778 F254.00 
G01 X11.3458 Y9.5108 F508.00 
G01 X11.2790 Y9.5776 
G01 X11.2429 Y9.6649 
G01 X11.2429 Y10.7447 
G01 X8.1299 Y10.7447 
G01 X7.9614 Y10.7782 
G01 X7.8026 Y10.8440 
G01 X7.6597 Y10.9395 
G01 X5.7060 Y12.8932 
G01 X5.6227 Y12.8800 
G01 X5.3954 Y12.8800 
G01 X5.1709 Y12.9155 
G01 X4.9548 Y12.9858 
G01 X4.7523 Y13.0889 
G01 X4.5684 Y13.2225 
G01 X4.4077 Y13.3832 
G01 X4.3581 Y13.4515 
G01 X4.2129 Y13.4515 
G01 X4.0443 Y13.4850 
G01 X3.8855 Y13.5508 
G01 X3.7427 Y13.6462 
G01 X2.1954 Y15.1935 
G01 X2.0739 Y15.3150 
G01 X1.9784 Y15.4579 
G01 X1.9127 Y15.6166 
G01 X1.8791 Y15.7852 
G01 X1.8791 Y28.9803 
G01 X1.9127 Y29.1488 
G01 X1.9784 Y29.3076 
G01 X2.0739 Y29.4505 
G01 X2.1954 Y29.5720 
G01 X2.5842 Y29.9608 
G01 X2.5842 Y29.9969 
G01 X2.6132 Y30.1799 
G01 X2.6705 Y30.3561 
G01 X2.7546 Y30.5212 
G01 X2.8635 Y30.6712 
G01 X2.9945 Y30.8022 
G01 X3.1444 Y30.9111 
G01 X3.3095 Y30.9952 
G01 X3.4858 Y31.0525 
G01 X3.6688 Y31.0815 
G01 X3.8541 Y31.0815 
G01 X4.0371 Y31.0525 
G01 X4.2133 Y30.9952 
G01 X4.3784 Y30.9111 
G01 X4.5283 Y30.8022 
G01 X4.6593 Y30.6712 
G01 X4.7683 Y30.5212 
G01 X4.8524 Y30.3561 
G01 X4.9096 Y30.1799 
G01 X4.9386 Y29.9969 
G01 X4.9386 Y29.8116 
G01 X4.9096 Y29.6286 
G01 X4.8524 Y29.4524 
G01 X4.7683 Y29.2873 
G01 X4.6593 Y29.1374 
G01 X4.5283 Y29.0063 
G01 X4.3784 Y28.8974 
G01 X4.2133 Y28.8133 
G01 X4.0371 Y28.7560 
G01 X3.8541 Y28.7271 
G01 X3.8180 Y28.7271 
G01 X3.6239 Y28.5330 
G01 X3.6239 Y16.2325 
G01 X4.4998 Y15.3566 
G01 X4.5684 Y15.4252 
G01 X4.7523 Y15.5588 
G01 X4.9548 Y15.6620 
G01 X5.1709 Y15.7322 
G01 X5.3954 Y15.7678 
G01 X5.6227 Y15.7678 
G01 X5.8472 Y15.7322 
G01 X6.0633 Y15.6620 
G01 X6.2658 Y15.5588 
G01 X6.4497 Y15.4252 
G01 X6.6104 Y15.2645 
G01 X6.7440 Y15.0806 
G01 X6.8472 Y14.8781 
G01 X6.9174 Y14.6620 
G01 X6.9530 Y14.4375 
G01 X6.9530 Y14.2102 
G01 X6.9398 Y14.1269 
G01 X8.5772 Y12.4895 
G01 X11.2429 Y12.4895 
G01 X11.2429 Y13.5693 
G01 X11.2790 Y13.6566 
G01 X11.3458 Y13.7233 
G01 X11.4330 Y13.7595 
G01 X15.3375 Y13.7595 
G01 X15.4247 Y13.7233 
G01 X15.4915 Y13.6566 
G01 X15.5277 Y13.5693 
G01 X15.5277 Y9.6649 
G01 X15.4915 Y9.5776 
G01 X15.4247 Y9.5108 
G01 X15.3375 Y9.4747 
G01 X11.4330 Y9.4747 
G00 Z2.5400 
G00 X11.4330 Y14.5547 
G01 Z-0.1778 F254.00 
G01 X11.3458 Y14.5908 F508.00 
G01 X11.2790 Y14.6576 
G01 X11.2429 Y14.7449 
G01 X11.2429 Y15.8247 
G01 X8.0499 Y15.8247 
G01 X7.8814 Y15.8582 
G01 X7.7226 Y15.9240 
G01 X7.5797 Y16.0194 
G01 X5.7060 Y17.8932 
G01 X5.6227 Y17.8800 
G01 X5.3954 Y17.8800 
G01 X5.1709 Y17.9155 
G01 X4.9548 Y17.9858 
G01 X4.7523 Y18.0889 
G01 X4.5684 Y18.2225 
G01 X4.4077 Y18.3832 
G01 X4.2741 Y18.5671 
G01 X4.1709 Y18.7696 
G01 X4.1007 Y18.9858 
G01 X4.0652 Y19.2102 
G01 X4.0652 Y19.4375 
G01 X4.1007 Y19.6620 
G01 X4.1709 Y19.8781 
G01 X4.2741 Y20.0806 
G01 X4.4077 Y20.2645 
G01 X4.5684 Y20.4252 
G01 X4.7523 Y20.5588 
G01 X4.9548 Y20.6620 
G01 X5.1709 Y20.7322 
G01 X5.3954 Y20.7678 
G01 X5.6227 Y20.7678 
G01 X5.8472 Y20.7322 
G01 X6.0633 Y20.6620 
G01 X6.2658 Y20.5588 
G01 X6.4497 Y20.4252 
G01 X6.6104 Y20.2645 
G01 X6.7440 Y20.0806 
G01 X6.8472 Y19.8781 
G01 X6.9174 Y19.6620 
G01 X6.9530 Y19.4375 
G01 X6.9530 Y19.2102 
G01 X6.9398 Y19.1269 
G01 X8.4972 Y17.5695 
G01 X11.2429 Y17.5695 
G01 X11.2429 Y18.6493 
G01 X11.2790 Y18.7366 
G01 X11.3458 Y18.8033 
G01 X11.4330 Y18.8395 
G01 X15.3375 Y18.8395 
G01 X15.4247 Y18.8033 
G01 X15.4915 Y18.7366 
G01 X15.5277 Y18.6493 
G01 X15.5277 Y14.7449 
G01 X15.4915 Y14.6576 
G01 X15.4247 Y14.5908 
G01 X15.3375 Y14.5547 
G01 X11.4330 Y14.5547 
G00 Z2.5400 
G00 X16.9548 Y15.9879 
G01 Z-0.1778 F254.00 
G01 X16.9548 Y10.8358 F508.00 
G01 X21.7938 Y5.9969 
G01 X40.6429 Y5.9969 
G01 X40.6429 Y8.3693 
G01 X40.6790 Y8.4566 
G01 X40.7458 Y8.5233 
G01 X40.8330 Y8.5595 
G01 X43.1939 Y8.5595 
G01 X51.9806 Y17.3462 
G01 X51.9806 Y27.8410 
G01 X51.9552 Y27.8155 
G01 X51.8679 Y27.7793 
G01 X51.5382 Y27.7793 
G01 X51.5382 Y26.2109 
G01 X51.5520 Y26.1869 
G01 X51.5890 Y26.0490 
G01 X51.5890 Y25.9063 
G01 X51.5520 Y25.7684 
G01 X51.4806 Y25.6447 
G01 X50.4408 Y24.6048 
G01 X50.3171 Y24.5335 
G01 X50.1792 Y24.4965 
G01 X48.3175 Y24.4965 
G01 X48.1796 Y24.5335 
G01 X48.0560 Y24.6048 
G01 X47.9550 Y24.7058 
G01 X46.7914 Y25.8694 
G01 X46.7201 Y25.9930 
G01 X46.6831 Y26.1309 
G01 X46.6831 Y26.1623 
G01 X46.6281 Y26.1623 
G01 X46.5408 Y26.1984 
G01 X46.4741 Y26.2652 
G01 X46.4379 Y26.3524 
G01 X46.4379 Y27.4469 
G01 X46.4741 Y27.5341 
G01 X46.5408 Y27.6009 
G01 X46.6281 Y27.6371 
G01 X47.8225 Y27.6371 
G01 X47.9098 Y27.6009 
G01 X47.9766 Y27.5341 
G01 X48.0127 Y27.4469 
G01 X48.0127 Y26.3524 
G01 X47.9766 Y26.2652 
G01 X47.9529 Y26.2415 
G01 X48.6135 Y25.5809 
G01 X49.8832 Y25.5809 
G01 X50.5554 Y26.2530 
G01 X50.5554 Y27.8463 
G01 X50.5194 Y27.8822 
G01 X50.4833 Y27.9695 
G01 X50.4833 Y29.0639 
G01 X50.5194 Y29.1512 
G01 X50.5862 Y29.2180 
G01 X50.6735 Y29.2541 
G01 X50.7073 Y29.2541 
G01 X50.7073 Y31.5463 
G01 X50.6523 Y31.5463 
G01 X50.5650 Y31.5825 
G01 X50.4982 Y31.6492 
G01 X50.4621 Y31.7365 
G01 X50.4621 Y32.8309 
G01 X50.4982 Y32.9182 
G01 X50.5650 Y32.9850 
G01 X50.5828 Y32.9923 
G01 X50.5828 Y33.8907 
G01 X49.1524 Y35.3210 
G01 X49.0810 Y35.4447 
G01 X49.0441 Y35.5826 
G01 X49.0441 Y39.0754 
G01 X48.9693 Y39.1135 
G01 X48.8194 Y39.2224 
G01 X48.6883 Y39.3534 
G01 X48.5794 Y39.5033 
G01 X48.4953 Y39.6684 
G01 X48.4380 Y39.8446 
G01 X48.4091 Y40.0277 
G01 X48.4091 Y40.2130 
G01 X48.4380 Y40.3960 
G01 X48.4953 Y40.5722 
G01 X48.5794 Y40.7373 
G01 X48.6883 Y40.8872 
G01 X48.8194 Y41.0182 
G01 X48.9693 Y41.1271 
G01 X49.1344 Y41.2113 
G01 X49.3106 Y41.2685 
G01 X49.4936 Y41.2975 
G01 X49.6789 Y41.2975 
G01 X49.8619 Y41.2685 
G01 X50.0381 Y41.2113 
G01 X50.2032 Y41.1271 
G01 X50.3531 Y41.0182 
G01 X50.4842 Y40.8872 
G01 X50.5931 Y40.7373 
G01 X50.6772 Y40.5722 
G01 X50.7345 Y40.3960 
G01 X50.7635 Y40.2130 
G01 X50.7635 Y40.0277 
G01 X50.7345 Y39.8446 
G01 X50.6772 Y39.6684 
G01 X50.5931 Y39.5033 
G01 X50.4842 Y39.3534 
G01 X50.3531 Y39.2224 
G01 X50.2032 Y39.1135 
G01 X50.1285 Y39.0754 
G01 X50.1285 Y35.8785 
G01 X51.4579 Y34.5491 
G01 X51.5588 Y34.4482 
G01 X51.6302 Y34.3245 
G01 X51.6672 Y34.1866 
G01 X51.6672 Y33.0211 
G01 X51.8467 Y33.0211 
G01 X51.9340 Y32.9850 
G01 X52.0007 Y32.9182 
G01 X52.0369 Y32.8309 
G01 X52.0369 Y31.7365 
G01 X52.0007 Y31.6492 
G01 X51.9340 Y31.5825 
G01 X51.8467 Y31.5463 
G01 X51.7917 Y31.5463 
G01 X51.7917 Y29.2541 
G01 X51.8679 Y29.2541 
G01 X51.9552 Y29.2180 
G01 X52.0219 Y29.1512 
G01 X52.0581 Y29.0639 
G01 X52.0581 Y28.3928 
G01 X52.0890 Y28.4464 
G01 X52.1833 Y28.5407 
G01 X52.1833 Y29.0639 
G01 X52.2194 Y29.1512 
G01 X52.2862 Y29.2180 
G01 X52.3735 Y29.2541 
G01 X52.4285 Y29.2541 
G01 X52.4285 Y31.5463 
G01 X52.3523 Y31.5463 
G01 X52.2650 Y31.5825 
G01 X52.1982 Y31.6492 
G01 X52.1621 Y31.7365 
G01 X52.1621 Y32.8309 
G01 X52.1982 Y32.9182 
G01 X52.2650 Y32.9850 
G01 X52.3523 Y33.0211 
G01 X52.4073 Y33.0211 
G01 X52.4073 Y40.1279 
G01 X49.0875 Y43.4477 
G01 X49.0875 Y42.5864 
G01 X49.0505 Y42.4485 
G01 X48.9791 Y42.3248 
G01 X48.7628 Y42.1085 
G01 X48.7887 Y42.0286 
G01 X48.8177 Y41.8456 
G01 X48.8177 Y41.6603 
G01 X48.7887 Y41.4773 
G01 X48.7315 Y41.3011 
G01 X48.6473 Y41.1360 
G01 X48.5384 Y40.9861 
G01 X48.4074 Y40.8551 
G01 X48.2575 Y40.7462 
G01 X48.0924 Y40.6620 
G01 X47.9162 Y40.6048 
G01 X47.7332 Y40.5758 
G01 X47.5479 Y40.5758 
G01 X47.3648 Y40.6048 
G01 X47.2850 Y40.6307 
G01 X46.1967 Y39.5424 
G01 X46.1967 Y36.7242 
G01 X46.2018 Y36.7242 
G01 X46.2890 Y36.6880 
G01 X46.3558 Y36.6212 
G01 X46.3919 Y36.5340 
G01 X46.3919 Y35.3395 
G01 X46.3558 Y35.2523 
G01 X46.3074 Y35.2039 
G01 X46.3074 Y33.1808 
G01 X46.3624 Y33.1808 
G01 X46.4497 Y33.1447 
G01 X46.5165 Y33.0779 
G01 X46.5526 Y32.9907 
G01 X46.5526 Y31.8962 
G01 X46.5165 Y31.8090 
G01 X46.4497 Y31.7422 
G01 X46.3624 Y31.7060 
G01 X45.1680 Y31.7060 
G01 X45.0807 Y31.7422 
G01 X45.0140 Y31.8090 
G01 X44.9778 Y31.8962 
G01 X44.9778 Y32.9907 
G01 X45.0140 Y33.0779 
G01 X45.0807 Y33.1447 
G01 X45.1680 Y33.1808 
G01 X45.2230 Y33.1808 
G01 X45.2230 Y35.1494 
G01 X45.1073 Y35.1494 
G01 X45.0201 Y35.1855 
G01 X44.9533 Y35.2523 
G01 X44.9171 Y35.3395 
G01 X44.9171 Y36.5340 
G01 X44.9533 Y36.6212 
G01 X45.0201 Y36.6880 
G01 X45.1073 Y36.7242 
G01 X45.1123 Y36.7242 
G01 X45.1123 Y39.8384 
G01 X45.1493 Y39.9763 
G01 X45.2207 Y40.0999 
G01 X46.5182 Y41.3975 
G01 X46.4923 Y41.4773 
G01 X46.4633 Y41.6603 
G01 X46.4633 Y41.8456 
G01 X46.4923 Y42.0286 
G01 X46.5496 Y42.2049 
G01 X46.6337 Y42.3700 
G01 X46.7426 Y42.5199 
G01 X46.8736 Y42.6509 
G01 X47.0235 Y42.7598 
G01 X47.1886 Y42.8439 
G01 X47.3648 Y42.9012 
G01 X47.5479 Y42.9302 
G01 X47.7332 Y42.9302 
G01 X47.9162 Y42.9012 
G01 X47.9960 Y42.8753 
G01 X48.0031 Y42.8823 
G01 X48.0031 Y44.5321 
G01 X46.6392 Y45.8960 
G01 X37.6963 Y45.8960 
G01 X37.6963 Y45.6910 
G01 X37.6601 Y45.6037 
G01 X37.5933 Y45.5369 
G01 X37.5061 Y45.5008 
G01 X36.4116 Y45.5008 
G01 X36.3244 Y45.5369 
G01 X36.2576 Y45.6037 
G01 X36.2215 Y45.6910 
G01 X36.2215 Y47.1854 
G01 X36.2576 Y47.2727 
G01 X36.3244 Y47.3395 
G01 X36.4116 Y47.3756 
G01 X37.5061 Y47.3756 
G01 X37.5933 Y47.3395 
G01 X37.6601 Y47.2727 
G01 X37.6963 Y47.1854 
G01 X37.6963 Y46.9804 
G01 X46.9351 Y46.9804 
G01 X47.0730 Y46.9434 
G01 X47.1967 Y46.8721 
G01 X48.8782 Y45.1906 
G01 X53.3833 Y40.6854 
G01 X53.4547 Y40.5617 
G01 X53.4917 Y40.4238 
G01 X53.4917 Y33.0211 
G01 X53.5467 Y33.0211 
G01 X53.6340 Y32.9850 
G01 X53.7007 Y32.9182 
G01 X53.7369 Y32.8309 
G01 X53.7369 Y31.7365 
G01 X53.7007 Y31.6492 
G01 X53.6340 Y31.5825 
G01 X53.5467 Y31.5463 
G01 X53.5129 Y31.5463 
G01 X53.5129 Y29.2541 
G01 X53.5679 Y29.2541 
G01 X53.6552 Y29.2180 
G01 X53.7219 Y29.1512 
G01 X53.7581 Y29.0639 
G01 X53.7581 Y27.9695 
G01 X53.7219 Y27.8822 
G01 X53.6552 Y27.8155 
G01 X53.5679 Y27.7793 
G01 X53.0650 Y27.7793 
G01 X53.0650 Y17.0502 
G01 X53.0281 Y16.9123 
G01 X52.9567 Y16.7887 
G01 X52.8558 Y16.6877 
G01 X44.7275 Y8.5595 
G01 X44.7375 Y8.5595 
G01 X44.8247 Y8.5233 
G01 X44.8915 Y8.4566 
G01 X44.9277 Y8.3693 
G01 X44.9277 Y4.4649 
G01 X44.8915 Y4.3776 
G01 X44.8247 Y4.3108 
G01 X44.7375 Y4.2747 
G01 X40.8330 Y4.2747 
G01 X40.7458 Y4.3108 
G01 X40.6790 Y4.3776 
G01 X40.6429 Y4.4649 
G01 X40.6429 Y4.9125 
G01 X21.4978 Y4.9125 
G01 X21.3599 Y4.9494 
G01 X21.2363 Y5.0208 
G01 X21.1353 Y5.1218 
G01 X15.9787 Y10.2783 
G01 X15.9074 Y10.4019 
G01 X15.8704 Y10.5398 
G01 X15.8704 Y23.1602 
G01 X15.7654 Y23.1602 
G01 X15.6781 Y23.1963 
G01 X15.6114 Y23.2631 
G01 X15.5752 Y23.3503 
G01 X15.5752 Y26.4448 
G01 X15.6114 Y26.5320 
G01 X15.6781 Y26.5988 
G01 X15.7654 Y26.6350 
G01 X17.0598 Y26.6350 
G01 X17.1471 Y26.5988 
G01 X17.2139 Y26.5320 
G01 X17.2500 Y26.4448 
G01 X17.2500 Y23.3503 
G01 X17.2139 Y23.2631 
G01 X17.1471 Y23.1963 
G01 X17.0598 Y23.1602 
G01 X16.9548 Y23.1602 
G01 X16.9548 Y17.5215 
G01 X17.9479 Y18.5146 
G01 X17.9431 Y18.5146 
G01 X17.8559 Y18.5507 
G01 X17.7891 Y18.6175 
G01 X17.7530 Y18.7048 
G01 X17.7530 Y19.7992 
G01 X17.7891 Y19.8865 
G01 X17.8559 Y19.9533 
G01 X17.9431 Y19.9894 
G01 X19.1376 Y19.9894 
G01 X19.2248 Y19.9533 
G01 X19.2916 Y19.8865 
G01 X19.3278 Y19.7992 
G01 X19.3278 Y18.7048 
G01 X19.2916 Y18.6175 
G01 X19.2248 Y18.5507 
G01 X19.1376 Y18.5146 
G01 X19.0826 Y18.5146 
G01 X19.0826 Y18.2689 
G01 X19.0456 Y18.1310 
G01 X18.9742 Y18.0073 
G01 X16.9548 Y15.9879 
G00 Z2.5400 
G00 X20.5946 Y16.4117 
G01 Z-0.1778 F254.00 
G01 X20.5232 Y16.5354 F508.00 
G01 X20.4863 Y16.6732 
G01 X20.4863 Y18.5297 
G01 X20.2565 Y18.5297 
G01 X20.1693 Y18.5659 
G01 X20.1025 Y18.6327 
G01 X20.0664 Y18.7199 
G01 X20.0664 Y19.8144 
G01 X20.1025 Y19.9016 
G01 X20.1693 Y19.9684 
G01 X20.2565 Y20.0045 
G01 X21.4510 Y20.0045 
G01 X21.5382 Y19.9684 
G01 X21.6050 Y19.9016 
G01 X21.6412 Y19.8144 
G01 X21.6412 Y18.7199 
G01 X21.6050 Y18.6327 
G01 X21.5707 Y18.5983 
G01 X21.5707 Y16.9692 
G01 X21.7225 Y16.8174 
G01 X22.6018 Y16.8174 
G01 X22.9133 Y17.1288 
G01 X22.9133 Y18.6251 
G01 X22.8583 Y18.6251 
G01 X22.7711 Y18.6613 
G01 X22.7043 Y18.7281 
G01 X22.6681 Y18.8153 
G01 X22.6681 Y19.9098 
G01 X22.7043 Y19.9970 
G01 X22.7711 Y20.0638 
G01 X22.8583 Y20.0999 
G01 X24.0528 Y20.0999 
G01 X24.1400 Y20.0638 
G01 X24.2068 Y19.9970 
G01 X24.2429 Y19.9098 
G01 X24.2429 Y18.8153 
G01 X24.2068 Y18.7281 
G01 X24.1400 Y18.6613 
G01 X24.0528 Y18.6251 
G01 X23.9977 Y18.6251 
G01 X23.9977 Y16.8329 
G01 X23.9936 Y16.8174 
G01 X36.9270 Y16.8174 
G01 X40.6429 Y20.5333 
G01 X40.6429 Y21.2884 
G01 X36.2008 Y21.2884 
G01 X36.0629 Y21.3254 
G01 X35.9392 Y21.3968 
G01 X35.8383 Y21.4977 
G01 X33.9621 Y23.3738 
G01 X33.8907 Y23.4975 
G01 X33.8538 Y23.6354 
G01 X33.8538 Y26.5355 
G01 X31.7458 Y28.6435 
G01 X26.6637 Y28.6435 
G01 X26.5258 Y28.6805 
G01 X26.4021 Y28.7519 
G01 X26.3012 Y28.8528 
G01 X15.9787 Y39.1753 
G01 X15.9074 Y39.2989 
G01 X15.8704 Y39.4368 
G01 X15.8704 Y39.5602 
G01 X15.7654 Y39.5602 
G01 X15.6781 Y39.5963 
G01 X15.6114 Y39.6631 
G01 X15.5752 Y39.7503 
G01 X15.5752 Y40.7554 
G01 X14.3886 Y40.7554 
G01 X11.8944 Y38.2612 
G01 X11.8944 Y37.9406 
G01 X11.9761 Y37.9406 
G01 X12.0634 Y37.9044 
G01 X12.1302 Y37.8376 
G01 X12.1663 Y37.7504 
G01 X12.1663 Y35.8559 
G01 X12.1302 Y35.7687 
G01 X12.0634 Y35.7019 
G01 X11.9761 Y35.6658 
G01 X10.1117 Y35.6658 
G01 X10.0244 Y35.7019 
G01 X9.9577 Y35.7687 
G01 X9.9215 Y35.8559 
G01 X9.9215 Y37.7504 
G01 X9.9577 Y37.8376 
G01 X10.0244 Y37.9044 
G01 X10.1117 Y37.9406 
G01 X10.8100 Y37.9406 
G01 X10.8100 Y38.5571 
G01 X10.8469 Y38.6950 
G01 X10.9183 Y38.8187 
G01 X11.0193 Y38.9196 
G01 X11.8494 Y39.7498 
G01 X10.1117 Y39.7498 
G01 X10.0244 Y39.7859 
G01 X9.9577 Y39.8527 
G01 X9.9215 Y39.9399 
G01 X9.9215 Y41.8344 
G01 X9.9577 Y41.9216 
G01 X10.0244 Y41.9884 
G01 X10.1117 Y42.0246 
G01 X10.5017 Y42.0246 
G01 X10.5017 Y42.2861 
G01 X10.5387 Y42.4240 
G01 X10.6100 Y42.5476 
G01 X12.6503 Y44.5879 
G01 X12.7512 Y44.6888 
G01 X12.8749 Y44.7602 
G01 X13.0128 Y44.7971 
G01 X13.7482 Y44.7971 
G01 X16.0715 Y47.1204 
G01 X16.1724 Y47.2214 
G01 X16.2961 Y47.2928 
G01 X16.4340 Y47.3297 
G01 X22.0482 Y47.3297 
G01 X22.0482 Y48.4514 
G01 X22.0852 Y48.5893 
G01 X22.1565 Y48.7129 
G01 X22.7050 Y49.2614 
G01 X22.8059 Y49.3623 
G01 X22.9296 Y49.4337 
G01 X23.0675 Y49.4707 
G01 X28.6571 Y49.4707 
G01 X28.8392 Y49.5465 
G01 X29.0308 Y49.5846 
G01 X29.2260 Y49.5846 
G01 X29.4176 Y49.5465 
G01 X29.5980 Y49.4718 
G01 X29.7604 Y49.3633 
G01 X29.8985 Y49.2252 
G01 X30.0070 Y49.0629 
G01 X30.0817 Y48.8824 
G01 X30.1198 Y48.6909 
G01 X30.1198 Y48.4956 
G01 X30.0817 Y48.3041 
G01 X30.0070 Y48.1236 
G01 X29.8985 Y47.9613 
G01 X29.7604 Y47.8232 
G01 X29.5980 Y47.7147 
G01 X29.4176 Y47.6399 
G01 X29.2260 Y47.6018 
G01 X29.0308 Y47.6018 
G01 X28.8392 Y47.6399 
G01 X28.6588 Y47.7147 
G01 X28.4964 Y47.8232 
G01 X28.3583 Y47.9613 
G01 X28.2498 Y48.1236 
G01 X28.1751 Y48.3041 
G01 X28.1587 Y48.3863 
G01 X23.3634 Y48.3863 
G01 X23.1326 Y48.1554 
G01 X23.1326 Y46.8467 
G01 X23.0956 Y46.7088 
G01 X23.0243 Y46.5851 
G01 X22.9233 Y46.4842 
G01 X22.7928 Y46.3537 
G01 X22.6691 Y46.2823 
G01 X22.5312 Y46.2453 
G01 X16.7299 Y46.2453 
G01 X14.3057 Y43.8211 
G01 X14.1821 Y43.7497 
G01 X14.0442 Y43.7127 
G01 X13.3087 Y43.7127 
G01 X11.6206 Y42.0246 
G01 X11.9761 Y42.0246 
G01 X12.0634 Y41.9884 
G01 X12.1302 Y41.9216 
G01 X12.1663 Y41.8344 
G01 X12.1663 Y40.0666 
G01 X13.8311 Y41.7314 
G01 X13.9547 Y41.8028 
G01 X14.0926 Y41.8398 
G01 X15.5752 Y41.8398 
G01 X15.5752 Y42.8448 
G01 X15.6114 Y42.9320 
G01 X15.6781 Y42.9988 
G01 X15.7654 Y43.0350 
G01 X17.0598 Y43.0350 
G01 X17.1471 Y42.9988 
G01 X17.2139 Y42.9320 
G01 X17.2500 Y42.8448 
G01 X17.2500 Y39.7503 
G01 X17.2139 Y39.6631 
G01 X17.1471 Y39.5963 
G01 X17.1076 Y39.5800 
G01 X26.9597 Y29.7279 
G01 X32.0418 Y29.7279 
G01 X32.1797 Y29.6910 
G01 X32.3033 Y29.6196 
G01 X34.7289 Y27.1940 
G01 X34.8299 Y27.0930 
G01 X34.9012 Y26.9694 
G01 X34.9382 Y26.8315 
G01 X34.9382 Y23.9313 
G01 X36.4967 Y22.3728 
G01 X40.6429 Y22.3728 
G01 X40.6429 Y23.7693 
G01 X40.6790 Y23.8566 
G01 X40.7458 Y23.9233 
G01 X40.8330 Y23.9595 
G01 X42.2431 Y23.9595 
G01 X42.2431 Y26.1932 
G01 X42.2333 Y26.2030 
G01 X42.1971 Y26.2903 
G01 X42.1971 Y27.3847 
G01 X42.2333 Y27.4720 
G01 X42.3001 Y27.5388 
G01 X42.3873 Y27.5749 
G01 X43.5818 Y27.5749 
G01 X43.6690 Y27.5388 
G01 X43.7358 Y27.4720 
G01 X43.7719 Y27.3847 
G01 X43.7719 Y26.2903 
G01 X43.7358 Y26.2030 
G01 X43.6690 Y26.1362 
G01 X43.5818 Y26.1001 
G01 X43.3275 Y26.1001 
G01 X43.3275 Y23.9595 
G01 X44.7375 Y23.9595 
G01 X44.8247 Y23.9233 
G01 X44.8915 Y23.8566 
G01 X44.9277 Y23.7693 
G01 X44.9277 Y19.8649 
G01 X44.8915 Y19.7776 
G01 X44.8247 Y19.7108 
G01 X44.7375 Y19.6747 
G01 X41.3179 Y19.6747 
G01 X37.4845 Y15.8413 
G01 X37.3608 Y15.7699 
G01 X37.2229 Y15.7330 
G01 X21.4265 Y15.7330 
G01 X21.2887 Y15.7699 
G01 X21.1650 Y15.8413 
G01 X20.6955 Y16.3108 
G01 X20.5946 Y16.4117 
G00 Z2.5400 
G00 X20.6034 Y14.7742 
G01 Z-0.1778 F254.00 
G01 X20.8667 Y14.7742 F508.00 
G01 X21.1273 Y14.7367 
G01 X21.3799 Y14.6625 
G01 X21.6193 Y14.5532 
G01 X21.8408 Y14.4108 
G01 X22.0398 Y14.2385 
G01 X22.2122 Y14.0395 
G01 X22.3545 Y13.8180 
G01 X22.4639 Y13.5786 
G01 X22.5380 Y13.3260 
G01 X22.5755 Y13.0654 
G01 X22.5755 Y12.8678 
G01 X22.5755 Y10.9282 
G01 X22.5380 Y10.6676 
G01 X22.4639 Y10.4150 
G01 X22.3545 Y10.1755 
G01 X22.2122 Y9.9541 
G01 X22.0398 Y9.7551 
G01 X21.8408 Y9.5827 
G01 X21.6193 Y9.4404 
G01 X21.3799 Y9.3310 
G01 X21.1273 Y9.2568 
G01 X20.8667 Y9.2194 
G01 X20.6034 Y9.2194 
G01 X20.3429 Y9.2568 
G01 X20.0903 Y9.3310 
G01 X19.8508 Y9.4404 
G01 X19.6293 Y9.5827 
G01 X19.4304 Y9.7551 
G01 X19.2580 Y9.9541 
G01 X19.1156 Y10.1755 
G01 X19.0063 Y10.4150 
G01 X18.9321 Y10.6676 
G01 X18.8947 Y10.9282 
G01 X18.8947 Y13.0654 
G01 X18.9321 Y13.3260 
G01 X19.0063 Y13.5786 
G01 X19.1156 Y13.8180 
G01 X19.2580 Y14.0395 
G01 X19.4304 Y14.2384 
G01 X19.6293 Y14.4108 
G01 X19.8508 Y14.5532 
G01 X20.0903 Y14.6625 
G01 X20.3429 Y14.7367 
G01 X20.6034 Y14.7742 
G00 Z2.5400 
G00 X20.6284 Y13.4243 
G01 Z-0.1778 F254.00 
G01 X20.5596 Y13.4041 F508.00 
G01 X20.4945 Y13.3744 
G01 X20.4342 Y13.3356 
G01 X20.3801 Y13.2887 
G01 X20.3332 Y13.2346 
G01 X20.2945 Y13.1743 
G01 X20.2647 Y13.1092 
G01 X20.2445 Y13.0405 
G01 X20.2343 Y12.9696 
G01 X20.2330 Y12.9338 
G01 X20.2330 Y11.0598 
G01 X20.2343 Y11.0240 
G01 X20.2445 Y10.9531 
G01 X20.2647 Y10.8844 
G01 X20.2945 Y10.8192 
G01 X20.3332 Y10.7589 
G01 X20.3801 Y10.7048 
G01 X20.4342 Y10.6579 
G01 X20.4945 Y10.6192 
G01 X20.5596 Y10.5894 
G01 X20.6284 Y10.5692 
G01 X20.6993 Y10.5591 
G01 X20.7709 Y10.5591 
G01 X20.8418 Y10.5692 
G01 X20.9105 Y10.5894 
G01 X20.9757 Y10.6192 
G01 X21.0359 Y10.6579 
G01 X21.0901 Y10.7048 
G01 X21.1370 Y10.7589 
G01 X21.1757 Y10.8192 
G01 X21.2054 Y10.8844 
G01 X21.2256 Y10.9531 
G01 X21.2358 Y11.0240 
G01 X21.2371 Y11.0598 
G01 X21.2371 Y12.9337 
G01 X21.2358 Y12.9696 
G01 X21.2256 Y13.0405 
G01 X21.2054 Y13.1092 
G01 X21.1757 Y13.1743 
G01 X21.1370 Y13.2346 
G01 X21.0901 Y13.2887 
G01 X21.0359 Y13.3356 
G01 X20.9757 Y13.3744 
G01 X20.9105 Y13.4041 
G01 X20.8418 Y13.4243 
G01 X20.7709 Y13.4345 
G01 X20.6993 Y13.4345 
G01 X20.6284 Y13.4243 
G00 Z2.5400 
G00 X22.8317 Y14.0666 
G01 Z-0.1778 F254.00 
G01 X22.8285 Y14.0941 F508.00 
G01 X22.8317 Y14.1324 
G01 X22.8317 Y14.1709 
G01 X22.8370 Y14.1979 
G01 X22.8393 Y14.2254 
G01 X22.8499 Y14.2624 
G01 X22.8574 Y14.3002 
G01 X22.8679 Y14.3257 
G01 X22.8755 Y14.3522 
G01 X22.8931 Y14.3864 
G01 X22.9078 Y14.4220 
G01 X22.9231 Y14.4449 
G01 X22.9358 Y14.4694 
G01 X22.9597 Y14.4996 
G01 X22.9810 Y14.5316 
G01 X23.0006 Y14.5511 
G01 X23.0177 Y14.5727 
G01 X23.0471 Y14.5976 
G01 X23.0743 Y14.6248 
G01 X23.0972 Y14.6401 
G01 X23.1182 Y14.6580 
G01 X23.1519 Y14.6766 
G01 X23.1839 Y14.6980 
G01 X23.2094 Y14.7086 
G01 X23.2335 Y14.7220 
G01 X23.2701 Y14.7337 
G01 X23.3057 Y14.7485 
G01 X23.3327 Y14.7538 
G01 X23.3590 Y14.7623 
G01 X23.3972 Y14.7667 
G01 X23.4349 Y14.7742 
G01 X23.4625 Y14.7742 
G01 X23.4899 Y14.7773 
G01 X23.5283 Y14.7742 
G01 X23.5668 Y14.7742 
G01 X23.5938 Y14.7688 
G01 X23.6213 Y14.7665 
G01 X23.6583 Y14.7560 
G01 X23.6960 Y14.7485 
G01 X23.7216 Y14.7379 
G01 X23.7481 Y14.7303 
G01 X23.7823 Y14.7127 
G01 X23.8178 Y14.6980 
G01 X23.8408 Y14.6827 
G01 X23.8653 Y14.6701 
G01 X23.8955 Y14.6462 
G01 X23.9274 Y14.6248 
G01 X23.9470 Y14.6053 
G01 X23.9686 Y14.5881 
G01 X23.9934 Y14.5588 
G01 X24.0207 Y14.5316 
G01 X24.0360 Y14.5086 
G01 X24.0538 Y14.4876 
G01 X24.0725 Y14.4540 
G01 X24.0939 Y14.4220 
G01 X24.1044 Y14.3965 
G01 X25.1741 Y12.4711 
G01 X25.1741 Y14.1709 
G01 X25.1998 Y14.3002 
G01 X25.2503 Y14.4220 
G01 X25.3235 Y14.5316 
G01 X25.4167 Y14.6248 
G01 X25.5263 Y14.6980 
G01 X25.6481 Y14.7485 
G01 X25.7774 Y14.7742 
G01 X25.9092 Y14.7742 
G01 X26.0385 Y14.7485 
G01 X26.1603 Y14.6980 
G01 X26.2699 Y14.6248 
G01 X26.3631 Y14.5316 
G01 X26.4363 Y14.4220 
G01 X26.4868 Y14.3002 
G01 X26.5125 Y14.1709 
G01 X26.5125 Y9.9269 
G01 X26.5156 Y9.8995 
G01 X26.5125 Y9.8611 
G01 X26.5125 Y9.8227 
G01 X26.5071 Y9.7956 
G01 X26.5049 Y9.7681 
G01 X26.4943 Y9.7311 
G01 X26.4868 Y9.6934 
G01 X26.4762 Y9.6679 
G01 X26.4686 Y9.6414 
G01 X26.4511 Y9.6072 
G01 X26.4363 Y9.5716 
G01 X26.4210 Y9.5487 
G01 X26.4084 Y9.5241 
G01 X26.3845 Y9.4940 
G01 X26.3631 Y9.4620 
G01 X26.3436 Y9.4425 
G01 X26.3264 Y9.4209 
G01 X26.2971 Y9.3960 
G01 X26.2699 Y9.3688 
G01 X26.2469 Y9.3534 
G01 X26.2259 Y9.3356 
G01 X26.1923 Y9.3169 
G01 X26.1603 Y9.2955 
G01 X26.1348 Y9.2850 
G01 X26.1107 Y9.2716 
G01 X26.0741 Y9.2598 
G01 X26.0385 Y9.2451 
G01 X26.0114 Y9.2397 
G01 X25.9852 Y9.2313 
G01 X25.9469 Y9.2269 
G01 X25.9092 Y9.2194 
G01 X25.8816 Y9.2194 
G01 X25.8542 Y9.2162 
G01 X25.8159 Y9.2194 
G01 X25.7774 Y9.2194 
G01 X25.7503 Y9.2248 
G01 X25.7228 Y9.2270 
G01 X25.6858 Y9.2376 
G01 X25.6481 Y9.2451 
G01 X25.6226 Y9.2557 
G01 X25.5961 Y9.2632 
G01 X25.5619 Y9.2808 
G01 X25.5263 Y9.2955 
G01 X25.5034 Y9.3109 
G01 X25.4788 Y9.3235 
G01 X25.4487 Y9.3474 
G01 X25.4167 Y9.3688 
G01 X25.3972 Y9.3883 
G01 X25.3756 Y9.4054 
G01 X25.3507 Y9.4348 
G01 X25.3235 Y9.4620 
G01 X25.3082 Y9.4849 
G01 X25.2903 Y9.5060 
G01 X25.2716 Y9.5396 
G01 X25.2503 Y9.5716 
G01 X25.2397 Y9.5971 
G01 X24.1700 Y11.5225 
G01 X24.1700 Y9.8227 
G01 X24.1443 Y9.6934 
G01 X24.0939 Y9.5716 
G01 X24.0207 Y9.4620 
G01 X23.9274 Y9.3688 
G01 X23.8178 Y9.2955 
G01 X23.6960 Y9.2451 
G01 X23.5668 Y9.2194 
G01 X23.4349 Y9.2194 
G01 X23.3057 Y9.2451 
G01 X23.1839 Y9.2955 
G01 X23.0743 Y9.3688 
G01 X22.9810 Y9.4620 
G01 X22.9078 Y9.5716 
G01 X22.8574 Y9.6934 
G01 X22.8317 Y9.8227 
G01 X22.8317 Y14.0666 
G00 Z2.5400 
G00 X22.8583 Y20.3251 
G01 Z-0.1778 F254.00 
G01 X22.7711 Y20.3613 F508.00 
G01 X22.7043 Y20.4281 
G01 X22.6681 Y20.5153 
G01 X22.6681 Y21.0832 
G01 X21.9788 Y21.7725 
G01 X21.9074 Y21.8962 
G01 X21.8704 Y22.0341 
G01 X21.8704 Y23.1602 
G01 X21.7654 Y23.1602 
G01 X21.6781 Y23.1963 
G01 X21.6114 Y23.2631 
G01 X21.5752 Y23.3503 
G01 X21.5752 Y26.4448 
G01 X21.6114 Y26.5320 
G01 X21.6781 Y26.5988 
G01 X21.7654 Y26.6350 
G01 X23.0598 Y26.6350 
G01 X23.1471 Y26.5988 
G01 X23.2139 Y26.5320 
G01 X23.2500 Y26.4448 
G01 X23.2500 Y23.3503 
G01 X23.2139 Y23.2631 
G01 X23.1471 Y23.1963 
G01 X23.0598 Y23.1602 
G01 X22.9548 Y23.1602 
G01 X22.9548 Y22.3300 
G01 X23.4849 Y21.7999 
G01 X24.0528 Y21.7999 
G01 X24.1400 Y21.7638 
G01 X24.2068 Y21.6970 
G01 X24.2429 Y21.6098 
G01 X24.2429 Y20.5153 
G01 X24.2068 Y20.4281 
G01 X24.1400 Y20.3613 
G01 X24.0528 Y20.3251 
G01 X22.8583 Y20.3251 
G00 Z2.5400 
G00 X21.6050 Y20.3327 
G01 Z-0.1778 F254.00 
G01 X21.5382 Y20.2659 F508.00 
G01 X21.4510 Y20.2297 
G01 X20.2565 Y20.2297 
G01 X20.1693 Y20.2659 
G01 X20.1025 Y20.3327 
G01 X20.0664 Y20.4199 
G01 X20.0664 Y21.5144 
G01 X20.1025 Y21.6016 
G01 X20.1693 Y21.6684 
G01 X20.2565 Y21.7045 
G01 X20.5729 Y21.7045 
G01 X20.5729 Y22.1244 
G01 X19.9788 Y22.7186 
G01 X19.9074 Y22.8422 
G01 X19.8704 Y22.9801 
G01 X19.8704 Y23.1602 
G01 X19.7654 Y23.1602 
G01 X19.6781 Y23.1963 
G01 X19.6114 Y23.2631 
G01 X19.5752 Y23.3503 
G01 X19.5752 Y26.4448 
G01 X19.6114 Y26.5320 
G01 X19.6781 Y26.5988 
G01 X19.7654 Y26.6350 
G01 X21.0598 Y26.6350 
G01 X21.1471 Y26.5988 
G01 X21.2139 Y26.5320 
G01 X21.2500 Y26.4448 
G01 X21.2500 Y23.3503 
G01 X21.2139 Y23.2631 
G01 X21.1471 Y23.1963 
G01 X21.0675 Y23.1633 
G01 X21.4480 Y22.7829 
G01 X21.5490 Y22.6819 
G01 X21.6203 Y22.5583 
G01 X21.6573 Y22.4204 
G01 X21.6573 Y21.1571 
G01 X21.6412 Y21.0969 
G01 X21.6412 Y20.4199 
G01 X21.6050 Y20.3327 
G00 Z2.5400 
G00 X19.2916 Y20.3175 
G01 Z-0.1778 F254.00 
G01 X19.2248 Y20.2507 F508.00 
G01 X19.1376 Y20.2146 
G01 X17.9431 Y20.2146 
G01 X17.8559 Y20.2507 
G01 X17.7891 Y20.3175 
G01 X17.7530 Y20.4048 
G01 X17.7530 Y21.4992 
G01 X17.7891 Y21.5865 
G01 X17.8559 Y21.6533 
G01 X17.8704 Y21.6593 
G01 X17.8704 Y23.1602 
G01 X17.7654 Y23.1602 
G01 X17.6781 Y23.1963 
G01 X17.6114 Y23.2631 
G01 X17.5752 Y23.3503 
G01 X17.5752 Y26.4448 
G01 X17.6114 Y26.5320 
G01 X17.6781 Y26.5988 
G01 X17.7654 Y26.6350 
G01 X19.0598 Y26.6350 
G01 X19.1471 Y26.5988 
G01 X19.2139 Y26.5320 
G01 X19.2500 Y26.4448 
G01 X19.2500 Y23.3503 
G01 X19.2139 Y23.2631 
G01 X19.1471 Y23.1963 
G01 X19.0598 Y23.1602 
G01 X18.9548 Y23.1602 
G01 X18.9548 Y21.6894 
G01 X19.1376 Y21.6894 
G01 X19.2248 Y21.6533 
G01 X19.2916 Y21.5865 
G01 X19.3278 Y21.4992 
G01 X19.3278 Y20.4048 
G01 X19.2916 Y20.3175 
G00 Z2.5400 
G00 X23.6114 Y23.2631 
G01 Z-0.1778 F254.00 
G01 X23.5752 Y23.3503 F508.00 
G01 X23.5752 Y26.4448 
G01 X23.6114 Y26.5320 
G01 X23.6781 Y26.5988 
G01 X23.7654 Y26.6350 
G01 X25.0598 Y26.6350 
G01 X25.1471 Y26.5988 
G01 X25.2139 Y26.5320 
G01 X25.2500 Y26.4448 
G01 X25.2500 Y23.3503 
G01 X25.2139 Y23.2631 
G01 X25.1471 Y23.1963 
G01 X25.0598 Y23.1602 
G01 X23.7654 Y23.1602 
G01 X23.6781 Y23.1963 
G01 X23.6114 Y23.2631 
G00 Z2.5400 
G00 X25.6114 Y23.2631 
G01 Z-0.1778 F254.00 
G01 X25.5752 Y23.3503 F508.00 
G01 X25.5752 Y26.4448 
G01 X25.6114 Y26.5320 
G01 X25.6781 Y26.5988 
G01 X25.7654 Y26.6350 
G01 X27.0598 Y26.6350 
G01 X27.1471 Y26.5988 
G01 X27.2139 Y26.5320 
G01 X27.2500 Y26.4448 
G01 X27.2500 Y23.3503 
G01 X27.2139 Y23.2631 
G01 X27.1471 Y23.1963 
G01 X27.0598 Y23.1602 
G01 X25.7654 Y23.1602 
G01 X25.6781 Y23.1963 
G01 X25.6114 Y23.2631 
G00 Z2.5400 
G00 X27.6114 Y23.2631 
G01 Z-0.1778 F254.00 
G01 X27.5752 Y23.3503 F508.00 
G01 X27.5752 Y26.4448 
G01 X27.6114 Y26.5320 
G01 X27.6781 Y26.5988 
G01 X27.7654 Y26.6350 
G01 X29.0598 Y26.6350 
G01 X29.1471 Y26.5988 
G01 X29.2139 Y26.5320 
G01 X29.2500 Y26.4448 
G01 X29.2500 Y23.3503 
G01 X29.2139 Y23.2631 
G01 X29.1471 Y23.1963 
G01 X29.0598 Y23.1602 
G01 X27.7654 Y23.1602 
G01 X27.6781 Y23.1963 
G01 X27.6114 Y23.2631 
G00 Z2.5400 
G00 X27.2387 Y21.7001 
G01 Z-0.1778 F254.00 
G01 X28.3030 Y21.7001 F508.00 
G01 X28.5079 Y21.6659 
G01 X28.7043 Y21.5984 
G01 X28.8870 Y21.4996 
G01 X29.0509 Y21.3720 
G01 X29.1916 Y21.2191 
G01 X29.3052 Y21.0452 
G01 X29.3887 Y20.8550 
G01 X29.4397 Y20.6537 
G01 X29.4568 Y20.4467 
G01 X29.4397 Y20.2396 
G01 X29.3887 Y20.0383 
G01 X29.3052 Y19.8481 
G01 X29.2722 Y19.7974 
G01 X29.2908 Y19.7788 
G01 X29.4232 Y19.5966 
G01 X29.5255 Y19.3958 
G01 X29.5951 Y19.1816 
G01 X29.6043 Y19.1237 
G01 X29.6043 Y21.2292 
G01 X29.6412 Y21.3671 
G01 X29.7126 Y21.4908 
G01 X29.8135 Y21.5917 
G01 X29.9372 Y21.6631 
G01 X30.0751 Y21.7001 
G01 X30.2178 Y21.7001 
G01 X30.3557 Y21.6631 
G01 X30.4794 Y21.5917 
G01 X30.5803 Y21.4908 
G01 X30.6517 Y21.3671 
G01 X30.6886 Y21.2292 
G01 X30.6886 Y20.2777 
G01 X31.3823 Y20.2777 
G01 X31.3823 Y21.2292 
G01 X31.4192 Y21.3671 
G01 X31.4906 Y21.4908 
G01 X31.5915 Y21.5917 
G01 X31.7152 Y21.6631 
G01 X31.8531 Y21.7001 
G01 X31.9958 Y21.7001 
G01 X32.1337 Y21.6631 
G01 X32.2574 Y21.5917 
G01 X32.3583 Y21.4908 
G01 X32.4297 Y21.3671 
G01 X32.4667 Y21.2292 
G01 X32.4667 Y17.8861 
G01 X32.4297 Y17.7482 
G01 X32.3583 Y17.6245 
G01 X32.2574 Y17.5236 
G01 X32.1337 Y17.4522 
G01 X31.9958 Y17.4153 
G01 X31.8531 Y17.4153 
G01 X31.7152 Y17.4522 
G01 X31.5915 Y17.5236 
G01 X31.4906 Y17.6245 
G01 X31.4192 Y17.7482 
G01 X31.3823 Y17.8861 
G01 X31.3823 Y19.1933 
G01 X30.6886 Y19.1933 
G01 X30.6886 Y17.8861 
G01 X30.6517 Y17.7482 
G01 X30.5803 Y17.6245 
G01 X30.4794 Y17.5236 
G01 X30.3557 Y17.4522 
G01 X30.2178 Y17.4153 
G01 X30.0751 Y17.4153 
G01 X29.9372 Y17.4522 
G01 X29.8135 Y17.5236 
G01 X29.7126 Y17.6245 
G01 X29.6412 Y17.7482 
G01 X29.6043 Y17.8861 
G01 X29.6043 Y18.5693 
G01 X29.5951 Y18.5113 
G01 X29.5255 Y18.2971 
G01 X29.4232 Y18.0963 
G01 X29.2908 Y17.9141 
G01 X29.1315 Y17.7548 
G01 X28.9492 Y17.6224 
G01 X28.7485 Y17.5201 
G01 X28.5343 Y17.4505 
G01 X28.3118 Y17.4153 
G01 X28.2705 Y17.4153 
G01 X27.2387 Y17.4153 
G01 X27.1008 Y17.4522 
G01 X26.9772 Y17.5236 
G01 X26.8763 Y17.6245 
G01 X26.8049 Y17.7482 
G01 X26.7679 Y17.8861 
G01 X26.7679 Y21.2292 
G01 X26.8049 Y21.3671 
G01 X26.8763 Y21.4908 
G01 X26.9772 Y21.5917 
G01 X27.1008 Y21.6631 
G01 X27.2387 Y21.7001 
G00 Z2.5400 
G00 X27.8523 Y20.6157 
G01 Z-0.1778 F254.00 
G01 X27.8523 Y20.2777 F508.00 
G01 X28.1991 Y20.2777 
G01 X28.2131 Y20.2782 
G01 X28.2406 Y20.2828 
G01 X28.2670 Y20.2919 
G01 X28.2916 Y20.3052 
G01 X28.3136 Y20.3223 
G01 X28.3325 Y20.3429 
G01 X28.3478 Y20.3662 
G01 X28.3590 Y20.3918 
G01 X28.3658 Y20.4188 
G01 X28.3681 Y20.4467 
G01 X28.3658 Y20.4745 
G01 X28.3590 Y20.5015 
G01 X28.3478 Y20.5271 
G01 X28.3325 Y20.5505 
G01 X28.3136 Y20.5710 
G01 X28.2916 Y20.5881 
G01 X28.2670 Y20.6014 
G01 X28.2406 Y20.6105 
G01 X28.2131 Y20.6151 
G01 X28.1991 Y20.6157 
G01 X27.8523 Y20.6157 
G00 Z2.5400 
G00 X27.8523 Y19.1933 
G01 Z-0.1778 F254.00 
G01 X27.8523 Y18.4997 F508.00 
G01 X28.1991 Y18.4997 
G01 X28.2263 Y18.5007 
G01 X28.2801 Y18.5092 
G01 X28.3318 Y18.5261 
G01 X28.3803 Y18.5508 
G01 X28.4244 Y18.5827 
G01 X28.4628 Y18.6212 
G01 X28.4948 Y18.6653 
G01 X28.5195 Y18.7137 
G01 X28.5363 Y18.7655 
G01 X28.5449 Y18.8192 
G01 X28.5449 Y18.8737 
G01 X28.5363 Y18.9274 
G01 X28.5195 Y18.9792 
G01 X28.4948 Y19.0277 
G01 X28.4628 Y19.0717 
G01 X28.4244 Y19.1102 
G01 X28.3803 Y19.1422 
G01 X28.3318 Y19.1669 
G01 X28.2801 Y19.1837 
G01 X28.2263 Y19.1922 
G01 X28.1991 Y19.1933 
G01 X27.8523 Y19.1933 
G00 Z2.5400 
G00 X29.6114 Y23.2631 
G01 Z-0.1778 F254.00 
G01 X29.5752 Y23.3503 F508.00 
G01 X29.5752 Y26.4448 
G01 X29.6114 Y26.5320 
G01 X29.6781 Y26.5988 
G01 X29.7654 Y26.6350 
G01 X31.0598 Y26.6350 
G01 X31.1471 Y26.5988 
G01 X31.2139 Y26.5320 
G01 X31.2500 Y26.4448 
G01 X31.2500 Y23.3503 
G01 X31.2139 Y23.2631 
G01 X31.1471 Y23.1963 
G01 X31.0598 Y23.1602 
G01 X29.7654 Y23.1602 
G01 X29.6781 Y23.1963 
G01 X29.6114 Y23.2631 
G00 Z2.5400 
G00 X35.6038 Y25.2533 
G01 Z-0.1778 F254.00 
G01 X35.5324 Y25.3769 F508.00 
G01 X35.4954 Y25.5148 
G01 X35.4954 Y27.9440 
G01 X33.5439 Y29.8955 
G01 X31.8231 Y29.8955 
G01 X31.6852 Y29.9324 
G01 X31.5616 Y30.0038 
G01 X31.4606 Y30.1048 
G01 X25.9788 Y35.5866 
G01 X25.9074 Y35.7102 
G01 X25.8704 Y35.8481 
G01 X25.8704 Y39.5602 
G01 X25.7654 Y39.5602 
G01 X25.6781 Y39.5963 
G01 X25.6114 Y39.6631 
G01 X25.5752 Y39.7503 
G01 X25.5752 Y42.8448 
G01 X25.6114 Y42.9320 
G01 X25.6781 Y42.9988 
G01 X25.7654 Y43.0350 
G01 X27.0598 Y43.0350 
G01 X27.1471 Y42.9988 
G01 X27.2139 Y42.9320 
G01 X27.2500 Y42.8448 
G01 X27.2500 Y39.7503 
G01 X27.2139 Y39.6631 
G01 X27.1471 Y39.5963 
G01 X27.0598 Y39.5602 
G01 X26.9548 Y39.5602 
G01 X26.9548 Y36.1441 
G01 X32.1191 Y30.9799 
G01 X33.8399 Y30.9799 
G01 X33.9778 Y30.9429 
G01 X34.1014 Y30.8715 
G01 X36.3705 Y28.6024 
G01 X36.4715 Y28.5015 
G01 X36.5429 Y28.3778 
G01 X36.5798 Y28.2399 
G01 X36.5798 Y25.8939 
G01 X39.7949 Y25.8939 
G01 X39.7949 Y28.1623 
G01 X39.8319 Y28.3002 
G01 X39.9033 Y28.4238 
G01 X40.5286 Y29.0492 
G01 X40.6296 Y29.1501 
G01 X40.7532 Y29.2215 
G01 X40.8911 Y29.2585 
G01 X42.3477 Y29.2585 
G01 X42.3873 Y29.2749 
G01 X43.5818 Y29.2749 
G01 X43.6690 Y29.2387 
G01 X43.7358 Y29.1720 
G01 X43.7719 Y29.0847 
G01 X43.7719 Y27.9903 
G01 X43.7358 Y27.9030 
G01 X43.6690 Y27.8362 
G01 X43.5818 Y27.8001 
G01 X42.3873 Y27.8001 
G01 X42.3001 Y27.8362 
G01 X42.2333 Y27.9030 
G01 X42.1971 Y27.9903 
G01 X42.1971 Y28.1741 
G01 X41.1871 Y28.1741 
G01 X40.8793 Y27.8663 
G01 X40.8793 Y25.4368 
G01 X40.8424 Y25.2989 
G01 X40.7710 Y25.1753 
G01 X40.6700 Y25.0743 
G01 X40.5135 Y24.9178 
G01 X40.3899 Y24.8464 
G01 X40.2520 Y24.8095 
G01 X36.2008 Y24.8095 
G01 X36.0629 Y24.8464 
G01 X35.9392 Y24.9178 
G01 X35.8383 Y25.0188 
G01 X35.7047 Y25.1523 
G01 X35.6038 Y25.2533 
G00 Z2.5400 
G00 X35.6044 Y14.6980 
G01 Z-0.1778 F254.00 
G01 X35.7140 Y14.6248 F508.00 
G01 X35.8072 Y14.5316 
G01 X35.8804 Y14.4220 
G01 X35.9309 Y14.3002 
G01 X35.9566 Y14.1709 
G01 X35.9566 Y14.0391 
G01 X35.9309 Y13.9098 
G01 X35.8804 Y13.7880 
G01 X35.8072 Y13.6784 
G01 X35.7140 Y13.5852 
G01 X35.6044 Y13.5119 
G01 X35.4826 Y13.4615 
G01 X35.3533 Y13.4358 
G01 X34.0826 Y13.4358 
G01 X34.0826 Y12.9002 
G01 X35.3533 Y12.9002 
G01 X35.4826 Y12.8745 
G01 X35.6044 Y12.8241 
G01 X35.7140 Y12.7508 
G01 X35.8072 Y12.6576 
G01 X35.8804 Y12.5480 
G01 X35.9309 Y12.4262 
G01 X35.9566 Y12.2969 
G01 X35.9566 Y12.1651 
G01 X35.9309 Y12.0358 
G01 X35.8804 Y11.9140 
G01 X35.8072 Y11.8044 
G01 X35.7140 Y11.7112 
G01 X35.6044 Y11.6380 
G01 X35.4826 Y11.5875 
G01 X35.3533 Y11.5618 
G01 X34.0826 Y11.5618 
G01 X34.0826 Y9.8227 
G01 X34.0569 Y9.6934 
G01 X34.0065 Y9.5716 
G01 X33.9332 Y9.4620 
G01 X33.8400 Y9.3688 
G01 X33.7304 Y9.2955 
G01 X33.6086 Y9.2451 
G01 X33.4793 Y9.2194 
G01 X33.3475 Y9.2194 
G01 X33.2182 Y9.2451 
G01 X33.0964 Y9.2955 
G01 X32.9868 Y9.3688 
G01 X32.8936 Y9.4620 
G01 X32.8204 Y9.5716 
G01 X32.7700 Y9.6934 
G01 X32.7442 Y9.8227 
G01 X32.7442 Y12.1651 
G01 X32.7442 Y14.1709 
G01 X32.7700 Y14.3002 
G01 X32.8204 Y14.4220 
G01 X32.8936 Y14.5316 
G01 X32.9868 Y14.6248 
G01 X33.0964 Y14.6980 
G01 X33.2182 Y14.7485 
G01 X33.3475 Y14.7742 
G01 X35.3533 Y14.7742 
G01 X35.4826 Y14.7485 
G01 X35.6044 Y14.6980 
G00 Z2.5400 
G00 X36.2964 Y14.6248 
G01 Z-0.1778 F254.00 
G01 X36.4060 Y14.6980 F508.00 
G01 X36.5278 Y14.7485 
G01 X36.6570 Y14.7742 
G01 X38.0258 Y14.7742 
G01 X38.2864 Y14.7367 
G01 X38.5390 Y14.6625 
G01 X38.7784 Y14.5532 
G01 X38.9999 Y14.4108 
G01 X39.1989 Y14.2385 
G01 X39.3713 Y14.0395 
G01 X39.5136 Y13.8180 
G01 X39.6230 Y13.5786 
G01 X39.6971 Y13.3260 
G01 X39.7346 Y13.0654 
G01 X39.7346 Y12.8021 
G01 X39.6971 Y12.5415 
G01 X39.6230 Y12.2889 
G01 X39.5136 Y12.0495 
G01 X39.3713 Y11.8280 
G01 X39.1989 Y11.6291 
G01 X39.0206 Y11.4746 
G01 X39.6934 Y10.1289 
G01 X39.7282 Y10.0018 
G01 X39.7376 Y9.8703 
G01 X39.7211 Y9.7395 
G01 X39.6794 Y9.6144 
G01 X39.6141 Y9.4999 
G01 X39.5278 Y9.4003 
G01 X39.4236 Y9.3195 
G01 X39.3057 Y9.2606 
G01 X39.1786 Y9.2257 
G01 X39.0471 Y9.2164 
G01 X38.9163 Y9.2329 
G01 X38.7912 Y9.2746 
G01 X38.6767 Y9.3398 
G01 X38.5771 Y9.4262 
G01 X38.4963 Y9.5304 
G01 X37.7148 Y11.0933 
G01 X37.3922 Y11.0933 
G01 X37.3922 Y9.8227 
G01 X37.3664 Y9.6934 
G01 X37.3160 Y9.5716 
G01 X37.2428 Y9.4620 
G01 X37.1495 Y9.3688 
G01 X37.0399 Y9.2955 
G01 X36.9182 Y9.2451 
G01 X36.7889 Y9.2194 
G01 X36.6570 Y9.2194 
G01 X36.5278 Y9.2451 
G01 X36.4060 Y9.2955 
G01 X36.2964 Y9.3688 
G01 X36.2032 Y9.4620 
G01 X36.1299 Y9.5716 
G01 X36.0795 Y9.6934 
G01 X36.0538 Y9.8227 
G01 X36.0538 Y14.0391 
G01 X36.0538 Y14.1709 
G01 X36.0795 Y14.3002 
G01 X36.1299 Y14.4220 
G01 X36.2032 Y14.5316 
G01 X36.2964 Y14.6248 
G00 Z2.5400 
G00 X37.3922 Y13.4358 
G01 Z-0.1778 F254.00 
G01 X37.3922 Y12.4317 F508.00 
G01 X37.8943 Y12.4317 
G01 X37.9300 Y12.4330 
G01 X38.0009 Y12.4432 
G01 X38.0696 Y12.4634 
G01 X38.1348 Y12.4931 
G01 X38.1950 Y12.5319 
G01 X38.2492 Y12.5788 
G01 X38.2961 Y12.6329 
G01 X38.3348 Y12.6932 
G01 X38.3646 Y12.7583 
G01 X38.3847 Y12.8270 
G01 X38.3949 Y12.8979 
G01 X38.3949 Y12.9696 
G01 X38.3847 Y13.0405 
G01 X38.3646 Y13.1092 
G01 X38.3348 Y13.1743 
G01 X38.2961 Y13.2346 
G01 X38.2492 Y13.2887 
G01 X38.1950 Y13.3356 
G01 X38.1348 Y13.3744 
G01 X38.0696 Y13.4041 
G01 X38.0009 Y13.4243 
G01 X37.9300 Y13.4345 
G01 X37.8942 Y13.4358 
G01 X37.3922 Y13.4358 
G00 Z2.5400 
G00 X39.9832 Y14.1709 
G01 Z-0.1778 F254.00 
G01 X40.0089 Y14.3002 F508.00 
G01 X40.0594 Y14.4220 
G01 X40.1326 Y14.5316 
G01 X40.2258 Y14.6248 
G01 X40.3354 Y14.6980 
G01 X40.4572 Y14.7485 
G01 X40.5865 Y14.7742 
G01 X42.5923 Y14.7742 
G01 X42.7216 Y14.7485 
G01 X42.8434 Y14.6980 
G01 X42.9530 Y14.6248 
G01 X43.0462 Y14.5316 
G01 X43.1194 Y14.4220 
G01 X43.1699 Y14.3002 
G01 X43.1956 Y14.1709 
G01 X43.1956 Y14.0391 
G01 X43.1699 Y13.9098 
G01 X43.1194 Y13.7880 
G01 X43.0462 Y13.6784 
G01 X42.9530 Y13.5852 
G01 X42.8434 Y13.5119 
G01 X42.7216 Y13.4615 
G01 X42.5923 Y13.4358 
G01 X41.3216 Y13.4358 
G01 X41.3216 Y12.9002 
G01 X42.1238 Y12.9002 
G01 X42.2531 Y12.8745 
G01 X42.3749 Y12.8241 
G01 X42.4845 Y12.7508 
G01 X42.5777 Y12.6576 
G01 X42.6509 Y12.5480 
G01 X42.7014 Y12.4262 
G01 X42.7271 Y12.2969 
G01 X42.7271 Y12.1651 
G01 X42.7014 Y12.0358 
G01 X42.6509 Y11.9140 
G01 X42.5777 Y11.8044 
G01 X42.4845 Y11.7112 
G01 X42.3749 Y11.6380 
G01 X42.2531 Y11.5875 
G01 X42.1238 Y11.5618 
G01 X41.3216 Y11.5618 
G01 X41.3216 Y10.5578 
G01 X42.5923 Y10.5578 
G01 X42.7216 Y10.5321 
G01 X42.8434 Y10.4816 
G01 X42.9530 Y10.4084 
G01 X43.0462 Y10.3152 
G01 X43.1194 Y10.2056 
G01 X43.1699 Y10.0838 
G01 X43.1956 Y9.9545 
G01 X43.1956 Y9.8227 
G01 X43.1699 Y9.6934 
G01 X43.1194 Y9.5716 
G01 X43.0462 Y9.4620 
G01 X42.9530 Y9.3688 
G01 X42.8434 Y9.2955 
G01 X42.7216 Y9.2451 
G01 X42.5923 Y9.2194 
G01 X40.7183 Y9.2194 
G01 X40.5865 Y9.2194 
G01 X40.4572 Y9.2451 
G01 X40.3354 Y9.2955 
G01 X40.2258 Y9.3688 
G01 X40.1326 Y9.4620 
G01 X40.0594 Y9.5716 
G01 X40.0089 Y9.6934 
G01 X39.9832 Y9.8227 
G01 X39.9832 Y14.1709 
G00 Z2.5400 
G00 X32.1182 Y14.0395 
G01 Z-0.1778 F254.00 
G01 X32.2605 Y13.8180 F508.00 
G01 X32.3699 Y13.5786 
G01 X32.4440 Y13.3260 
G01 X32.4815 Y13.0654 
G01 X32.4815 Y12.8678 
G01 X32.4815 Y10.9282 
G01 X32.4440 Y10.6676 
G01 X32.3699 Y10.4150 
G01 X32.2605 Y10.1755 
G01 X32.1182 Y9.9541 
G01 X31.9458 Y9.7551 
G01 X31.7468 Y9.5827 
G01 X31.5253 Y9.4404 
G01 X31.2859 Y9.3310 
G01 X31.0333 Y9.2568 
G01 X30.7727 Y9.2194 
G01 X30.5094 Y9.2194 
G01 X30.2489 Y9.2568 
G01 X29.9963 Y9.3310 
G01 X29.7568 Y9.4404 
G01 X29.5353 Y9.5827 
G01 X29.3364 Y9.7551 
G01 X29.1640 Y9.9541 
G01 X29.0216 Y10.1755 
G01 X28.9123 Y10.4150 
G01 X28.8381 Y10.6676 
G01 X28.8007 Y10.9282 
G01 X28.8007 Y13.0654 
G01 X28.8381 Y13.3260 
G01 X28.9123 Y13.5786 
G01 X29.0216 Y13.8180 
G01 X29.1640 Y14.0395 
G01 X29.3364 Y14.2384 
G01 X29.5353 Y14.4108 
G01 X29.7568 Y14.5532 
G01 X29.9963 Y14.6625 
G01 X30.2489 Y14.7367 
G01 X30.5094 Y14.7742 
G01 X30.7727 Y14.7742 
G01 X31.0333 Y14.7367 
G01 X31.2859 Y14.6625 
G01 X31.5253 Y14.5532 
G01 X31.7468 Y14.4108 
G01 X31.9458 Y14.2385 
G01 X32.1182 Y14.0395 
G00 Z2.5400 
G00 X30.9961 Y13.2887 
G01 Z-0.1778 F254.00 
G01 X30.9419 Y13.3356 F508.00 
G01 X30.8817 Y13.3744 
G01 X30.8165 Y13.4041 
G01 X30.7478 Y13.4243 
G01 X30.6769 Y13.4345 
G01 X30.6053 Y13.4345 
G01 X30.5344 Y13.4243 
G01 X30.4656 Y13.4041 
G01 X30.4005 Y13.3744 
G01 X30.3402 Y13.3356 
G01 X30.2861 Y13.2887 
G01 X30.2392 Y13.2346 
G01 X30.2005 Y13.1743 
G01 X30.1707 Y13.1092 
G01 X30.1505 Y13.0405 
G01 X30.1403 Y12.9696 
G01 X30.1390 Y12.9338 
G01 X30.1390 Y11.0598 
G01 X30.1403 Y11.0240 
