(.../EAGLE-8.3.2/ulp/pcb-gcode-3/pcb-gcode.ulp)
(Copyright 2005 - 2012 by John Johnson)
(See readme.txt for licensing terms.)
(This file generated from the board:)
(.../Documents/eagle/BHOnOff/BHONoff.brd)
(Current profile is .../pcb-gcode-3/profiles/generic.pp  )
(This file generated 17/11/2017 16:14)
(Settings from pcb-machine.h)
(spindle on time = 3.0000)
(  Tool Size)
(0.1700 )
(spindle speed = 30000.0000)
(tool change at 0.0000 0.0000 3.4000 )
(feed rate xy = F508.00 )
(feed rate z  = F254.00 )
(Z Axis Settings)
(  High     Up        Down     Drill)
(8.7000 	2.5400 	-0.1778 	-0.2794 )
(Settings from pcb-defaults.h)
(isolate min = 0.0254)
(isolate max = 0.5000)
(isolate step = 0.1270)
(Generated top outlines, top drill, )
(Unit of measure: mm)
(Metric Mode)
G21
(Absolute Coordinates)
G90
S30000
G00 Z8.7000 
G00 X0.0000 Y0.0000 
M03
G04 P3.000000
G00 Z2.5400 
G00 X-0.2212 Y0.0369 
G01 Z-0.1778 F254.00 
G01 X-0.1930 Y0.1050 F508.00 
G01 X-0.1854 Y0.1126 
G01 X-0.1854 Y42.9431 
G01 X-0.1572 Y43.0113 
G01 X-0.1050 Y43.0634 
G01 X-0.0369 Y43.0916 
G01 X42.2928 Y43.0916 
G01 X42.3262 Y43.0778 
G01 X42.3596 Y43.0916 
G01 X42.4334 Y43.0916 
G01 X42.5015 Y43.0634 
G01 X42.5537 Y43.0113 
G01 X42.5819 Y42.9431 
G01 X42.5819 Y-0.1084 
G01 X42.5537 Y-0.1766 
G01 X42.5015 Y-0.2287 
G01 X42.4334 Y-0.2570 
G01 X-0.0369 Y-0.2570 
G01 X-0.1050 Y-0.2287 
G01 X-0.1572 Y-0.1766 
G01 X-0.1825 Y-0.1155 
G01 X-0.1930 Y-0.1050 
G01 X-0.2212 Y-0.0369 
G01 X-0.2212 Y0.0369 
G00 Z2.5400 
G00 X0.1854 Y0.1138 
G01 Z-0.1778 F254.00 
G01 X42.2111 Y0.1138 F508.00 
G01 X42.2111 Y42.7208 
G01 X0.1854 Y42.7208 
G01 X0.1854 Y17.8212 
G01 X0.1981 Y17.8520 
G01 X0.2797 Y17.9740 
G01 X0.3836 Y18.0779 
G01 X0.7252 Y18.4195 
G01 X0.7252 Y27.2490 
G01 X0.6695 Y27.3046 
G01 X0.5724 Y27.4384 
G01 X0.4973 Y27.5856 
G01 X0.4462 Y27.7429 
G01 X0.4204 Y27.9061 
G01 X0.4204 Y28.0714 
G01 X0.4462 Y28.2347 
G01 X0.4973 Y28.3919 
G01 X0.5724 Y28.5392 
G01 X0.6695 Y28.6729 
G01 X0.7864 Y28.7898 
G01 X0.9201 Y28.8870 
G01 X1.0674 Y28.9620 
G01 X1.2246 Y29.0131 
G01 X1.3879 Y29.0390 
G01 X1.5532 Y29.0390 
G01 X1.7165 Y29.0131 
G01 X1.8737 Y28.9620 
G01 X2.0210 Y28.8870 
G01 X2.1547 Y28.7898 
G01 X2.2716 Y28.6729 
G01 X2.3688 Y28.5392 
G01 X2.4438 Y28.3919 
G01 X2.4949 Y28.2347 
G01 X2.5208 Y28.0714 
G01 X2.5208 Y27.9061 
G01 X2.4949 Y27.7429 
G01 X2.4438 Y27.5856 
G01 X2.3688 Y27.4384 
G01 X2.2716 Y27.3046 
G01 X2.2160 Y27.2490 
G01 X2.2160 Y18.0373 
G01 X2.1873 Y17.8933 
G01 X2.1311 Y17.7577 
G01 X2.0496 Y17.6356 
G01 X1.6041 Y17.1901 
G01 X1.6041 Y12.4286 
G01 X3.2348 Y10.7978 
G01 X3.3722 Y10.8196 
G01 X3.5795 Y10.8196 
G01 X3.7842 Y10.7872 
G01 X3.9813 Y10.7231 
G01 X4.1660 Y10.6290 
G01 X4.3337 Y10.5072 
G01 X4.4803 Y10.3606 
G01 X4.6021 Y10.1929 
G01 X4.6963 Y10.0082 
G01 X4.7603 Y9.8111 
G01 X4.7927 Y9.6063 
G01 X4.7927 Y9.3990 
G01 X4.7710 Y9.2617 
G01 X5.7165 Y8.3162 
G01 X8.3655 Y8.3162 
G01 X8.3655 Y9.4978 
G01 X8.3823 Y9.5383 
G01 X8.4134 Y9.5694 
G01 X8.4540 Y9.5862 
G01 X12.3079 Y9.5862 
G01 X12.3484 Y9.5694 
G01 X12.3795 Y9.5383 
G01 X12.3963 Y9.4978 
G01 X12.3963 Y5.6438 
G01 X12.3795 Y5.6033 
G01 X12.3484 Y5.5722 
G01 X12.3079 Y5.5554 
G01 X8.4540 Y5.5554 
G01 X8.4134 Y5.5722 
G01 X8.3823 Y5.6033 
G01 X8.3655 Y5.6438 
G01 X8.3655 Y6.8254 
G01 X5.3343 Y6.8254 
G01 X5.1903 Y6.8540 
G01 X5.0546 Y6.9102 
G01 X4.9326 Y6.9918 
G01 X3.7168 Y8.2075 
G01 X3.5795 Y8.1858 
G01 X3.3722 Y8.1858 
G01 X3.1675 Y8.2182 
G01 X2.9703 Y8.2823 
G01 X2.7856 Y8.3764 
G01 X2.6179 Y8.4982 
G01 X2.4714 Y8.6448 
G01 X2.3495 Y8.8125 
G01 X2.2554 Y8.9972 
G01 X2.1914 Y9.1943 
G01 X2.1589 Y9.3990 
G01 X2.1589 Y9.6063 
G01 X2.1807 Y9.7437 
G01 X0.2797 Y11.6446 
G01 X0.1981 Y11.7667 
G01 X0.1854 Y11.7975 
G01 X0.1854 Y0.1138 
G00 Z2.5400 
G00 X2.4714 Y3.6448 
G01 Z-0.1778 F254.00 
G01 X2.3495 Y3.8125 F508.00 
G01 X2.2554 Y3.9972 
G01 X2.1914 Y4.1943 
G01 X2.1589 Y4.3990 
G01 X2.1589 Y4.6063 
G01 X2.1914 Y4.8111 
G01 X2.2554 Y5.0082 
G01 X2.3495 Y5.1929 
G01 X2.4714 Y5.3606 
G01 X2.6179 Y5.5072 
G01 X2.7856 Y5.6290 
G01 X2.9703 Y5.7231 
G01 X3.1675 Y5.7872 
G01 X3.3722 Y5.8196 
G01 X3.5795 Y5.8196 
G01 X3.7842 Y5.7872 
G01 X3.9813 Y5.7231 
G01 X4.1660 Y5.6290 
G01 X4.3337 Y5.5072 
G01 X4.4803 Y5.3606 
G01 X4.6021 Y5.1929 
G01 X4.6963 Y5.0082 
G01 X4.7603 Y4.8111 
G01 X4.7927 Y4.6063 
G01 X4.7927 Y4.3990 
G01 X4.7710 Y4.2617 
G01 X4.9235 Y4.1092 
G01 X13.4665 Y4.1092 
G01 X14.3537 Y4.9964 
G01 X14.3537 Y10.2478 
G01 X12.6961 Y11.9054 
G01 X12.3963 Y11.9054 
G01 X12.3963 Y10.7238 
G01 X12.3795 Y10.6833 
G01 X12.3484 Y10.6522 
G01 X12.3079 Y10.6354 
G01 X8.4540 Y10.6354 
G01 X8.4134 Y10.6522 
G01 X8.3823 Y10.6833 
G01 X8.3655 Y10.7238 
G01 X8.3655 Y14.5778 
G01 X8.3823 Y14.6183 
G01 X8.4134 Y14.6494 
G01 X8.4540 Y14.6662 
G01 X12.3079 Y14.6662 
G01 X12.3484 Y14.6494 
G01 X12.3795 Y14.6183 
G01 X12.3963 Y14.5778 
G01 X12.3963 Y13.3962 
G01 X13.0783 Y13.3962 
G01 X13.2223 Y13.3675 
G01 X13.3579 Y13.3114 
G01 X13.4800 Y13.2298 
G01 X15.5742 Y11.1356 
G01 X15.6781 Y11.0317 
G01 X15.7596 Y10.9097 
G01 X15.8158 Y10.7740 
G01 X15.8445 Y10.6300 
G01 X15.8445 Y4.6142 
G01 X15.8158 Y4.4702 
G01 X15.7596 Y4.3346 
G01 X15.6781 Y4.2125 
G01 X14.3542 Y2.8886 
G01 X14.2504 Y2.7848 
G01 X14.1283 Y2.7032 
G01 X13.9927 Y2.6470 
G01 X13.8486 Y2.6184 
G01 X4.5413 Y2.6184 
G01 X4.3973 Y2.6470 
G01 X4.2616 Y2.7032 
G01 X4.1396 Y2.7848 
G01 X3.7168 Y3.2075 
G01 X3.5795 Y3.1858 
G01 X3.3722 Y3.1858 
G01 X3.1675 Y3.2182 
G01 X2.9703 Y3.2823 
G01 X2.7856 Y3.3764 
G01 X2.6179 Y3.4982 
G01 X2.4714 Y3.6448 
G00 Z2.5400 
G00 X2.2474 Y13.1858 
G01 Z-0.1778 F254.00 
G01 X2.2068 Y13.2026 F508.00 
G01 X2.1757 Y13.2336 
G01 X2.1589 Y13.2742 
G01 X2.1589 Y15.7311 
G01 X2.1757 Y15.7717 
G01 X2.2068 Y15.8028 
G01 X2.2474 Y15.8196 
G01 X2.9554 Y15.8196 
G01 X5.8739 Y18.7380 
G01 X5.8739 Y20.7992 
G01 X5.9025 Y20.9432 
G01 X5.9587 Y21.0789 
G01 X6.0403 Y21.2010 
G01 X7.4899 Y22.6506 
G01 X7.5419 Y22.7026 
G01 X7.5930 Y22.7537 
G01 X7.6547 Y22.7950 
G01 X7.7151 Y22.8353 
G01 X7.7832 Y22.8635 
G01 X7.8508 Y22.8915 
G01 X7.9235 Y22.9060 
G01 X7.9948 Y22.9201 
G01 X8.0696 Y22.9201 
G01 X8.1416 Y22.9201 
G01 X10.1021 Y22.9147 
G01 X10.6088 Y23.2992 
G01 X10.6005 Y23.4852 
G01 X10.5597 Y23.5464 
G01 X10.4945 Y23.7037 
G01 X10.4613 Y23.8707 
G01 X10.4613 Y24.0409 
G01 X10.4945 Y24.2080 
G01 X10.5597 Y24.3653 
G01 X10.6543 Y24.5068 
G01 X10.7747 Y24.6272 
G01 X10.9163 Y24.7218 
G01 X11.0736 Y24.7870 
G01 X11.2406 Y24.8202 
G01 X11.4108 Y24.8202 
G01 X11.5778 Y24.7870 
G01 X11.7352 Y24.7218 
G01 X11.8767 Y24.6272 
G01 X11.9971 Y24.5068 
G01 X12.0917 Y24.3653 
G01 X12.1569 Y24.2080 
G01 X12.1901 Y24.0409 
G01 X12.1901 Y23.8707 
G01 X12.1569 Y23.7037 
G01 X12.0917 Y23.5464 
G01 X12.1153 Y22.9805 
G01 X12.1193 Y22.9131 
G01 X12.1185 Y22.9073 
G01 X12.1188 Y22.9015 
G01 X12.1086 Y22.8346 
G01 X12.0994 Y22.7676 
G01 X12.0975 Y22.7621 
G01 X12.0966 Y22.7564 
G01 X12.0735 Y22.6928 
G01 X12.0514 Y22.6288 
G01 X12.0485 Y22.6238 
G01 X12.0465 Y22.6183 
G01 X12.0115 Y22.5605 
G01 X11.9773 Y22.5021 
G01 X11.9734 Y22.4977 
G01 X11.9704 Y22.4927 
G01 X11.9248 Y22.4428 
G01 X11.8799 Y22.3922 
G01 X11.8752 Y22.3887 
G01 X11.8713 Y22.3844 
G01 X11.8168 Y22.3444 
G01 X10.8422 Y21.6050 
G01 X10.8256 Y21.5884 
G01 X10.7839 Y21.5607 
G01 X10.7440 Y21.5305 
G01 X10.7229 Y21.5202 
G01 X10.7033 Y21.5072 
G01 X10.6570 Y21.4882 
G01 X10.6119 Y21.4662 
G01 X10.5892 Y21.4603 
G01 X10.5675 Y21.4514 
G01 X10.5183 Y21.4417 
G01 X10.4699 Y21.4290 
G01 X10.4465 Y21.4276 
G01 X10.4234 Y21.4231 
G01 X10.3733 Y21.4232 
G01 X10.3233 Y21.4202 
G01 X10.3001 Y21.4234 
G01 X8.3761 Y21.4285 
G01 X7.3647 Y20.4171 
G01 X7.3647 Y18.3559 
G01 X7.3360 Y18.2119 
G01 X7.2798 Y18.0762 
G01 X7.1983 Y17.9541 
G01 X7.0944 Y17.8503 
G01 X4.7927 Y15.5486 
G01 X4.7927 Y13.2742 
G01 X4.7759 Y13.2336 
G01 X4.7449 Y13.2026 
G01 X4.7043 Y13.1858 
G01 X2.2474 Y13.1858 
G00 Z2.5400 
G00 X9.3325 Y16.1447 
G01 Z-0.1778 F254.00 
G01 X9.3041 Y16.2133 F508.00 
G01 X9.3041 Y17.9131 
G01 X9.3325 Y17.9817 
G01 X9.3850 Y18.0342 
G01 X9.4536 Y18.0626 
G01 X10.0088 Y18.0626 
G01 X10.1380 Y18.0308 
G01 X10.2558 Y17.9689 
G01 X10.3554 Y17.8807 
G01 X10.4309 Y17.7712 
G01 X10.4781 Y17.6468 
G01 X10.4942 Y17.5148 
G01 X10.4781 Y17.3827 
G01 X10.4309 Y17.2583 
G01 X10.3732 Y17.1746 
G01 X10.3964 Y17.1561 
G01 X10.4861 Y17.0436 
G01 X10.5484 Y16.9141 
G01 X10.5804 Y16.7739 
G01 X10.5804 Y16.6301 
G01 X10.5484 Y16.4899 
G01 X10.4861 Y16.3603 
G01 X10.3964 Y16.2479 
G01 X10.2840 Y16.1582 
G01 X10.1544 Y16.0958 
G01 X10.0142 Y16.0638 
G01 X9.9052 Y16.0638 
G01 X9.4536 Y16.0638 
G01 X9.3850 Y16.0922 
G01 X9.3325 Y16.1447 
G00 Z2.5400 
G00 X9.6773 Y16.4370 
G01 Z-0.1778 F254.00 
G01 X9.9423 Y16.4370 F508.00 
G01 X9.9720 Y16.4387 
G01 X10.0298 Y16.4519 
G01 X10.0833 Y16.4776 
G01 X10.1296 Y16.5146 
G01 X10.1666 Y16.5610 
G01 X10.1924 Y16.6145 
G01 X10.2056 Y16.6723 
G01 X10.2056 Y16.7316 
G01 X10.1924 Y16.7895 
G01 X10.1666 Y16.8429 
G01 X10.1296 Y16.8893 
G01 X10.0833 Y16.9263 
G01 X10.0298 Y16.9520 
G01 X9.9720 Y16.9653 
G01 X9.9423 Y16.9669 
G01 X9.9052 Y16.9669 
G01 X9.6773 Y16.9669 
G01 X9.6773 Y16.4370 
G00 Z2.5400 
G00 X9.6773 Y17.3401 
G01 Z-0.1778 F254.00 
G01 X9.9424 Y17.3401 F508.00 
G01 X9.9633 Y17.3414 
G01 X10.0042 Y17.3515 
G01 X10.0415 Y17.3710 
G01 X10.0730 Y17.3989 
G01 X10.0969 Y17.4336 
G01 X10.1119 Y17.4730 
G01 X10.1169 Y17.5148 
G01 X10.1119 Y17.5566 
G01 X10.0969 Y17.5959 
G01 X10.0730 Y17.6306 
G01 X10.0415 Y17.6585 
G01 X10.0042 Y17.6781 
G01 X9.9633 Y17.6881 
G01 X9.9423 Y17.6894 
G01 X9.6773 Y17.6894 
G01 X9.6773 Y17.3401 
G00 Z2.5400 
G00 X11.2055 Y17.5207 
G01 Z-0.1778 F254.00 
G01 X11.5307 Y17.5207 F508.00 
G01 X11.6470 Y17.4896 
G01 X11.7513 Y17.4293 
G01 X11.8365 Y17.3441 
G01 X11.8968 Y17.2398 
G01 X11.9280 Y17.1234 
G01 X11.9280 Y16.2133 
G01 X11.8995 Y16.1447 
G01 X11.8471 Y16.0922 
G01 X11.7785 Y16.0638 
G01 X11.7042 Y16.0638 
G01 X11.6357 Y16.0922 
G01 X11.5832 Y16.1447 
G01 X11.5548 Y16.2133 
G01 X11.5548 Y17.0632 
G01 X11.5540 Y17.0742 
G01 X11.5483 Y17.0955 
G01 X11.5373 Y17.1145 
G01 X11.5218 Y17.1301 
G01 X11.5027 Y17.1411 
G01 X11.4814 Y17.1468 
G01 X11.4704 Y17.1475 
G01 X11.2055 Y17.1475 
G01 X11.2055 Y16.2133 
G01 X11.1771 Y16.1447 
G01 X11.1246 Y16.0922 
G01 X11.0560 Y16.0638 
G01 X10.9817 Y16.0638 
G01 X10.9132 Y16.0922 
G01 X10.8607 Y16.1447 
G01 X10.8323 Y16.2133 
G01 X10.8323 Y17.9131 
G01 X10.8607 Y17.9817 
G01 X10.9132 Y18.0342 
G01 X10.9817 Y18.0626 
G01 X11.0560 Y18.0626 
G01 X11.1246 Y18.0342 
G01 X11.1771 Y17.9817 
G01 X11.2055 Y17.9131 
G01 X11.2055 Y17.5207 
G00 Z2.5400 
G00 X12.2530 Y17.4964 
G01 Z-0.1778 F254.00 
G01 X12.2850 Y17.6365 F508.00 
G01 X12.3474 Y17.7661 
G01 X12.4370 Y17.8785 
G01 X12.5495 Y17.9682 
G01 X12.6790 Y18.0306 
G01 X12.8192 Y18.0626 
G01 X12.9630 Y18.0626 
G01 X13.1032 Y18.0306 
G01 X13.2328 Y17.9682 
G01 X13.3452 Y17.8785 
G01 X13.4349 Y17.7661 
G01 X13.4973 Y17.6365 
G01 X13.5293 Y17.4963 
G01 X13.5293 Y17.4616 
G01 X13.5293 Y16.6301 
G01 X13.4973 Y16.4899 
G01 X13.4349 Y16.3603 
G01 X13.3452 Y16.2479 
G01 X13.2328 Y16.1582 
G01 X13.1032 Y16.0958 
G01 X12.9630 Y16.0638 
G01 X12.8192 Y16.0638 
G01 X12.6790 Y16.0958 
G01 X12.5495 Y16.1582 
G01 X12.4370 Y16.2479 
G01 X12.3474 Y16.3603 
G01 X12.2850 Y16.4899 
G01 X12.2530 Y16.6301 
G01 X12.2530 Y16.7391 
G01 X12.2530 Y17.4964 
G00 Z2.5400 
G00 X12.6410 Y17.5120 
G01 Z-0.1778 F254.00 
G01 X12.6278 Y17.4541 F508.00 
G01 X12.6262 Y17.4245 
G01 X12.6262 Y16.7019 
G01 X12.6278 Y16.6723 
G01 X12.6410 Y16.6145 
G01 X12.6668 Y16.5610 
G01 X12.7038 Y16.5146 
G01 X12.7502 Y16.4776 
G01 X12.8036 Y16.4519 
G01 X12.8615 Y16.4387 
G01 X12.9208 Y16.4387 
G01 X12.9786 Y16.4519 
G01 X13.0321 Y16.4776 
G01 X13.0785 Y16.5146 
G01 X13.1155 Y16.5610 
G01 X13.1412 Y16.6145 
G01 X13.1544 Y16.6723 
G01 X13.1561 Y16.7020 
G01 X13.1561 Y17.3873 
G01 X13.1561 Y17.4244 
G01 X13.1544 Y17.4541 
G01 X13.1412 Y17.5120 
G01 X13.1155 Y17.5654 
G01 X13.0785 Y17.6118 
G01 X13.0321 Y17.6488 
G01 X12.9786 Y17.6745 
G01 X12.9208 Y17.6877 
G01 X12.8615 Y17.6877 
G01 X12.8036 Y17.6745 
G01 X12.7502 Y17.6488 
G01 X12.7038 Y17.6118 
G01 X12.6668 Y17.5654 
G01 X12.6410 Y17.5120 
G00 Z2.5400 
G00 X13.9352 Y17.4923 
G01 Z-0.1778 F254.00 
G01 X14.0038 Y17.5207 F508.00 
G01 X14.5527 Y17.5207 
G01 X14.6691 Y17.4896 
G01 X14.7734 Y17.4293 
G01 X14.8586 Y17.3441 
G01 X14.9188 Y17.2398 
G01 X14.9500 Y17.1234 
G01 X14.9500 Y16.2133 
G01 X14.9216 Y16.1447 
G01 X14.8691 Y16.0922 
G01 X14.8005 Y16.0638 
G01 X14.7263 Y16.0638 
G01 X14.6577 Y16.0922 
G01 X14.6052 Y16.1447 
G01 X14.5768 Y16.2133 
G01 X14.5768 Y17.0632 
G01 X14.5761 Y17.0742 
G01 X14.5704 Y17.0955 
G01 X14.5594 Y17.1145 
G01 X14.5438 Y17.1301 
G01 X14.5247 Y17.1411 
G01 X14.5035 Y17.1468 
G01 X14.4925 Y17.1475 
G01 X14.2275 Y17.1475 
G01 X14.2275 Y16.2133 
G01 X14.1991 Y16.1447 
G01 X14.1466 Y16.0922 
G01 X14.0780 Y16.0638 
G01 X14.0038 Y16.0638 
G01 X13.9352 Y16.0922 
G01 X13.8827 Y16.1447 
G01 X13.8543 Y16.2133 
G01 X13.8543 Y17.3713 
G01 X13.8827 Y17.4398 
G01 X13.9352 Y17.4923 
G00 Z2.5400 
G00 X15.2750 Y17.4964 
G01 Z-0.1778 F254.00 
G01 X15.3070 Y17.6365 F508.00 
G01 X15.3694 Y17.7661 
G01 X15.4591 Y17.8785 
G01 X15.5715 Y17.9682 
G01 X15.7011 Y18.0306 
G01 X15.8413 Y18.0626 
G01 X15.9851 Y18.0626 
G01 X16.1253 Y18.0306 
G01 X16.2548 Y17.9682 
G01 X16.3673 Y17.8785 
G01 X16.4569 Y17.7661 
G01 X16.5193 Y17.6365 
G01 X16.5513 Y17.4964 
G01 X16.5513 Y17.4616 
G01 X16.5513 Y16.6301 
G01 X16.5193 Y16.4899 
G01 X16.4569 Y16.3603 
G01 X16.3673 Y16.2479 
G01 X16.2548 Y16.1582 
G01 X16.1253 Y16.0958 
G01 X15.9851 Y16.0638 
G01 X15.8413 Y16.0638 
G01 X15.7011 Y16.0958 
G01 X15.5715 Y16.1582 
G01 X15.4591 Y16.2479 
G01 X15.3694 Y16.3603 
G01 X15.3070 Y16.4899 
G01 X15.2750 Y16.6301 
G01 X15.2750 Y16.7391 
G01 X15.2750 Y17.4964 
G00 Z2.5400 
G00 X15.6631 Y17.5120 
G01 Z-0.1778 F254.00 
G01 X15.6499 Y17.4541 F508.00 
G01 X15.6482 Y17.4245 
G01 X15.6482 Y16.7019 
G01 X15.6499 Y16.6723 
G01 X15.6631 Y16.6145 
G01 X15.6888 Y16.5610 
G01 X15.7258 Y16.5146 
G01 X15.7722 Y16.4776 
G01 X15.8256 Y16.4519 
G01 X15.8835 Y16.4387 
G01 X15.9428 Y16.4387 
G01 X16.0007 Y16.4519 
G01 X16.0541 Y16.4776 
G01 X16.1005 Y16.5146 
G01 X16.1375 Y16.5610 
G01 X16.1633 Y16.6144 
G01 X16.1765 Y16.6723 
G01 X16.1781 Y16.7019 
G01 X16.1781 Y17.3873 
G01 X16.1781 Y17.4244 
G01 X16.1764 Y17.4541 
G01 X16.1632 Y17.5120 
G01 X16.1375 Y17.5654 
G01 X16.1005 Y17.6118 
G01 X16.0541 Y17.6488 
G01 X16.0007 Y17.6745 
G01 X15.9428 Y17.6877 
G01 X15.8835 Y17.6877 
G01 X15.8257 Y17.6745 
G01 X15.7722 Y17.6488 
G01 X15.7258 Y17.6118 
G01 X15.6888 Y17.5654 
G01 X15.6631 Y17.5120 
G00 Z2.5400 
G00 X16.8133 Y17.4923 
G01 Z-0.1778 F254.00 
G01 X16.8819 Y17.5207 F508.00 
G01 X16.9130 Y17.5207 
G01 X16.9130 Y17.6653 
G01 X16.9442 Y17.7817 
G01 X17.0044 Y17.8860 
G01 X17.0896 Y17.9712 
G01 X17.1939 Y18.0314 
G01 X17.3103 Y18.0626 
G01 X17.4980 Y18.0626 
G01 X17.5666 Y18.0342 
G01 X17.6190 Y17.9817 
G01 X17.6475 Y17.9131 
G01 X17.6475 Y17.8389 
G01 X17.6190 Y17.7703 
G01 X17.5666 Y17.7178 
G01 X17.4980 Y17.6894 
G01 X17.3705 Y17.6894 
G01 X17.3595 Y17.6887 
G01 X17.3383 Y17.6830 
G01 X17.3192 Y17.6720 
G01 X17.3036 Y17.6564 
G01 X17.2926 Y17.6373 
G01 X17.2869 Y17.6161 
G01 X17.2862 Y17.6051 
G01 X17.2862 Y17.5207 
G01 X17.4980 Y17.5207 
G01 X17.5666 Y17.4923 
G01 X17.6190 Y17.4398 
G01 X17.6475 Y17.3713 
G01 X17.6475 Y17.2970 
G01 X17.6190 Y17.2284 
G01 X17.5666 Y17.1759 
G01 X17.4980 Y17.1475 
G01 X17.2862 Y17.1475 
G01 X17.2862 Y16.2133 
G01 X17.2578 Y16.1447 
G01 X17.2053 Y16.0922 
G01 X17.1367 Y16.0638 
G01 X17.0625 Y16.0638 
G01 X16.9939 Y16.0922 
G01 X16.9414 Y16.1447 
G01 X16.9130 Y16.2133 
G01 X16.9130 Y17.1475 
G01 X16.8819 Y17.1475 
G01 X16.8133 Y17.1759 
G01 X16.7608 Y17.2284 
G01 X16.7324 Y17.2970 
G01 X16.7324 Y17.3713 
G01 X16.7608 Y17.4398 
G01 X16.8133 Y17.4923 
G00 Z2.5400 
G00 X17.8515 Y17.4923 
G01 Z-0.1778 F254.00 
G01 X17.9201 Y17.5207 F508.00 
G01 X18.5362 Y17.5207 
G01 X18.6048 Y17.4923 
G01 X18.6573 Y17.4398 
G01 X18.6857 Y17.3713 
G01 X18.6857 Y17.1164 
G01 X18.6573 Y17.0478 
G01 X18.6048 Y16.9953 
G01 X18.5362 Y16.9669 
G01 X18.4619 Y16.9669 
G01 X18.3934 Y16.9953 
G01 X18.3409 Y17.0478 
G01 X18.3125 Y17.1164 
G01 X18.3125 Y17.1475 
G01 X18.1438 Y17.1475 
G01 X18.1438 Y16.2133 
G01 X18.1154 Y16.1447 
G01 X18.0629 Y16.0922 
G01 X17.9943 Y16.0638 
G01 X17.9201 Y16.0638 
G01 X17.8515 Y16.0922 
G01 X17.7990 Y16.1447 
G01 X17.7706 Y16.2133 
G01 X17.7706 Y17.2970 
G01 X17.7706 Y17.3713 
G01 X17.7990 Y17.4398 
G01 X17.8515 Y17.4923 
G00 Z2.5400 
G00 X18.9861 Y17.3860 
G01 Z-0.1778 F254.00 
G01 X18.9861 Y17.3860 F508.00 
G01 X19.0956 Y17.4615 
G01 X19.2200 Y17.5087 
G01 X19.3520 Y17.5248 
G01 X19.4841 Y17.5087 
G01 X19.6085 Y17.4615 
G01 X19.7180 Y17.3860 
G01 X19.8062 Y17.2864 
G01 X19.8680 Y17.1686 
G01 X19.8999 Y17.0394 
G01 X19.8999 Y16.7552 
G01 X19.8715 Y16.6866 
G01 X19.8190 Y16.6341 
G01 X19.7504 Y16.6057 
G01 X19.1774 Y16.6057 
G01 X19.1774 Y16.5213 
G01 X19.1781 Y16.5103 
G01 X19.1838 Y16.4891 
G01 X19.1948 Y16.4700 
G01 X19.2104 Y16.4544 
G01 X19.2294 Y16.4434 
G01 X19.2507 Y16.4377 
G01 X19.2617 Y16.4370 
G01 X19.7504 Y16.4370 
G01 X19.8190 Y16.4086 
G01 X19.8715 Y16.3561 
G01 X19.8999 Y16.2875 
G01 X19.8999 Y16.2133 
G01 X19.8715 Y16.1447 
G01 X19.8190 Y16.0922 
G01 X19.7504 Y16.0638 
G01 X19.2246 Y16.0638 
G01 X19.2015 Y16.0638 
G01 X19.0851 Y16.0950 
G01 X18.9808 Y16.1552 
G01 X18.8956 Y16.2404 
G01 X18.8354 Y16.3447 
G01 X18.8042 Y16.4611 
G01 X18.8042 Y17.0394 
G01 X18.8360 Y17.1686 
G01 X18.8979 Y17.2864 
G01 X18.9861 Y17.3860 
G00 Z2.5400 
G00 X19.2362 Y17.1036 
G01 Z-0.1778 F254.00 
G01 X19.2083 Y17.0721 F508.00 
G01 X19.1887 Y17.0348 
G01 X19.1787 Y16.9939 
G01 X19.1777 Y16.9789 
G01 X19.5263 Y16.9789 
G01 X19.5254 Y16.9939 
G01 X19.5153 Y17.0348 
G01 X19.4958 Y17.0721 
G01 X19.4678 Y17.1036 
G01 X19.4332 Y17.1275 
G01 X19.3938 Y17.1425 
G01 X19.3520 Y17.1475 
G01 X19.3102 Y17.1425 
G01 X19.2709 Y17.1275 
G01 X19.2362 Y17.1036 
G00 Z2.5400 
G00 X19.1881 Y15.2497 
G01 Z-0.1778 F254.00 
G01 X19.3173 Y15.2179 F508.00 
G01 X19.4351 Y15.1560 
G01 X19.5347 Y15.0678 
G01 X19.6103 Y14.9583 
G01 X19.6574 Y14.8339 
G01 X19.6735 Y14.7019 
G01 X19.6574 Y14.5698 
G01 X19.6103 Y14.4454 
G01 X19.5347 Y14.3359 
G01 X19.5092 Y14.3133 
G01 X19.5751 Y14.2307 
G01 X19.6374 Y14.1012 
G01 X19.6694 Y13.9610 
G01 X19.6694 Y13.8171 
G01 X19.6374 Y13.6770 
G01 X19.5751 Y13.5474 
G01 X19.4854 Y13.4350 
G01 X19.3730 Y13.3453 
G01 X19.2434 Y13.2829 
G01 X19.1032 Y13.2509 
G01 X18.5426 Y13.2509 
G01 X18.4740 Y13.2793 
G01 X18.4215 Y13.3318 
G01 X18.3931 Y13.4004 
G01 X18.3931 Y13.4746 
G01 X18.4215 Y13.5432 
G01 X18.4740 Y13.5957 
G01 X18.5426 Y13.6241 
G01 X19.0313 Y13.6241 
G01 X19.0610 Y13.6258 
G01 X19.1188 Y13.6390 
G01 X19.1723 Y13.6647 
G01 X19.2186 Y13.7017 
G01 X19.2556 Y13.7481 
G01 X19.2814 Y13.8015 
G01 X19.2946 Y13.8594 
G01 X19.2946 Y13.9187 
G01 X19.2814 Y13.9766 
G01 X19.2556 Y14.0300 
G01 X19.2186 Y14.0764 
G01 X19.1723 Y14.1134 
G01 X19.1188 Y14.1391 
G01 X19.0610 Y14.1523 
G01 X19.0313 Y14.1540 
G01 X18.9942 Y14.1540 
G01 X18.7232 Y14.1540 
G01 X18.6547 Y14.1824 
G01 X18.6022 Y14.2349 
G01 X18.5738 Y14.3035 
G01 X18.5738 Y14.3777 
G01 X18.6022 Y14.4463 
G01 X18.6547 Y14.4988 
G01 X18.7232 Y14.5272 
G01 X19.1217 Y14.5272 
G01 X19.1427 Y14.5285 
G01 X19.1835 Y14.5386 
G01 X19.2208 Y14.5581 
G01 X19.2523 Y14.5860 
G01 X19.2763 Y14.6207 
G01 X19.2912 Y14.6601 
G01 X19.2963 Y14.7019 
G01 X19.2912 Y14.7436 
G01 X19.2763 Y14.7830 
G01 X19.2523 Y14.8177 
G01 X19.2208 Y14.8456 
G01 X19.1835 Y14.8651 
G01 X19.1427 Y14.8752 
G01 X19.1216 Y14.8765 
G01 X18.5426 Y14.8765 
G01 X18.4740 Y14.9049 
G01 X18.4215 Y14.9574 
G01 X18.3931 Y15.0260 
G01 X18.3931 Y15.1002 
G01 X18.4215 Y15.1688 
G01 X18.4740 Y15.2213 
G01 X18.5426 Y15.2497 
G01 X19.0845 Y15.2497 
G01 X19.1881 Y15.2497 
G00 Z2.5400 
G00 X18.1603 Y15.1797 
G01 Z-0.1778 F254.00 
G01 X18.1935 Y15.1134 F508.00 
G01 X18.1988 Y15.0393 
G01 X17.6526 Y13.4008 
G01 X17.6517 Y13.3872 
G01 X17.6410 Y13.3659 
G01 X17.6335 Y13.3433 
G01 X17.6245 Y13.3330 
G01 X17.6185 Y13.3209 
G01 X17.6004 Y13.3052 
G01 X17.5848 Y13.2872 
G01 X17.5727 Y13.2811 
G01 X17.5624 Y13.2722 
G01 X17.5398 Y13.2647 
G01 X17.5184 Y13.2540 
G01 X17.5049 Y13.2530 
G01 X17.4920 Y13.2487 
G01 X17.4682 Y13.2504 
G01 X17.4444 Y13.2487 
G01 X17.4315 Y13.2530 
G01 X17.4179 Y13.2540 
G01 X17.3966 Y13.2647 
G01 X17.3740 Y13.2722 
G01 X17.3637 Y13.2811 
G01 X17.3515 Y13.2872 
G01 X17.3359 Y13.3052 
G01 X17.3179 Y13.3209 
G01 X17.3118 Y13.3330 
G01 X17.3029 Y13.3433 
G01 X17.2953 Y13.3659 
G01 X17.2847 Y13.3872 
G01 X17.2837 Y13.4008 
G01 X16.7375 Y15.0393 
G01 X16.7428 Y15.1134 
G01 X16.7760 Y15.1797 
G01 X16.8321 Y15.2284 
G01 X16.9025 Y15.2519 
G01 X16.9766 Y15.2466 
G01 X17.0430 Y15.2134 
G01 X17.0916 Y15.1573 
G01 X17.4682 Y14.0276 
G01 X17.8448 Y15.1573 
G01 X17.8934 Y15.2134 
G01 X17.9598 Y15.2466 
G01 X18.0338 Y15.2519 
G01 X18.1043 Y15.2284 
G01 X18.1603 Y15.1797 
G00 Z2.5400 
G00 X16.3683 Y15.0656 
G01 Z-0.1778 F254.00 
G01 X16.3683 Y15.0656 F508.00 
G01 X16.4580 Y14.9532 
G01 X16.5204 Y14.8236 
G01 X16.5524 Y14.6834 
G01 X16.5524 Y14.5396 
G01 X16.5204 Y14.3994 
G01 X16.4580 Y14.2699 
G01 X16.3683 Y14.1574 
G01 X16.2583 Y14.0697 
G01 X16.5493 Y13.4878 
G01 X16.5545 Y13.4137 
G01 X16.5310 Y13.3433 
G01 X16.4824 Y13.2872 
G01 X16.4160 Y13.2540 
G01 X16.3420 Y13.2487 
G01 X16.2715 Y13.2722 
G01 X16.2155 Y13.3209 
G01 X15.8892 Y13.9734 
G01 X15.6493 Y13.9734 
G01 X15.6493 Y13.4004 
G01 X15.6208 Y13.3318 
G01 X15.5684 Y13.2793 
G01 X15.4998 Y13.2509 
G01 X15.4255 Y13.2509 
G01 X15.3569 Y13.2793 
G01 X15.3045 Y13.3318 
G01 X15.2761 Y13.4004 
G01 X15.2761 Y15.1002 
G01 X15.3045 Y15.1688 
G01 X15.3569 Y15.2213 
G01 X15.4255 Y15.2497 
G01 X15.9861 Y15.2497 
G01 X16.1263 Y15.2177 
G01 X16.2559 Y15.1553 
G01 X16.3683 Y15.0656 
G00 Z2.5400 
G00 X16.1016 Y14.7989 
G01 Z-0.1778 F254.00 
G01 X16.0552 Y14.8359 F508.00 
G01 X16.0017 Y14.8616 
G01 X15.9439 Y14.8748 
G01 X15.9142 Y14.8765 
G01 X15.6493 Y14.8765 
G01 X15.6493 Y14.3466 
G01 X15.9142 Y14.3466 
G01 X15.9439 Y14.3483 
G01 X16.0017 Y14.3615 
G01 X16.0552 Y14.3872 
G01 X16.1016 Y14.4242 
G01 X16.1385 Y14.4706 
G01 X16.1643 Y14.5240 
G01 X16.1775 Y14.5819 
G01 X16.1775 Y14.6412 
G01 X16.1643 Y14.6990 
G01 X16.1385 Y14.7525 
G01 X16.1016 Y14.7989 
G00 Z2.5400 
G00 X14.3511 Y21.7973 
G01 Z-0.1778 F254.00 
G01 X14.2455 Y21.8256 F508.00 
G01 X14.1509 Y21.8803 
G01 X14.0736 Y21.9576 
G01 X13.4060 Y22.6252 
G01 X13.3513 Y22.7198 
G01 X13.3230 Y22.8254 
G01 X13.3230 Y24.9226 
G01 X12.4416 Y25.8040 
G01 X8.8508 Y25.8040 
G01 X8.3284 Y25.2817 
G01 X8.2337 Y25.2270 
G01 X8.1281 Y25.1987 
G01 X4.3650 Y25.1987 
G01 X4.2594 Y25.2270 
G01 X4.1647 Y25.2817 
G01 X3.4066 Y26.0398 
G01 X3.3293 Y26.1171 
G01 X3.2746 Y26.2117 
G01 X3.2464 Y26.3173 
G01 X3.2464 Y30.9602 
G01 X2.3184 Y30.9602 
G01 X2.2128 Y30.9885 
G01 X2.1181 Y31.0432 
G01 X0.6398 Y32.5215 
G01 X0.5625 Y32.5988 
G01 X0.5079 Y32.6934 
G01 X0.4796 Y32.7990 
G01 X0.4796 Y36.1682 
G01 X0.5079 Y36.2738 
G01 X0.5625 Y36.3685 
G01 X0.6398 Y36.4458 
G01 X0.8207 Y36.6266 
G01 X0.8207 Y40.6030 
G01 X0.8490 Y40.7086 
G01 X0.9036 Y40.8033 
G01 X0.9809 Y40.8806 
G01 X1.3962 Y41.2959 
G01 X2.6092 Y42.5090 
G01 X2.6865 Y42.5863 
G01 X2.7812 Y42.6410 
G01 X2.8868 Y42.6693 
G01 X37.7026 Y42.6693 
G01 X37.7251 Y42.6728 
G01 X37.7570 Y42.6693 
G01 X37.7892 Y42.6693 
G01 X37.8112 Y42.6634 
G01 X37.8337 Y42.6610 
G01 X37.8637 Y42.6493 
G01 X37.8948 Y42.6410 
G01 X37.9145 Y42.6296 
G01 X37.9357 Y42.6214 
G01 X37.9616 Y42.6024 
G01 X37.9895 Y42.5863 
G01 X38.0055 Y42.5703 
G01 X38.0239 Y42.5569 
G01 X38.0440 Y42.5318 
G01 X38.0668 Y42.5090 
G01 X38.0781 Y42.4894 
G01 X40.0955 Y39.9801 
G01 X40.1165 Y39.9596 
G01 X40.1296 Y39.9377 
G01 X40.1455 Y39.9178 
G01 X40.1574 Y39.8909 
G01 X40.1724 Y39.8656 
G01 X40.1793 Y39.8411 
G01 X40.1896 Y39.8178 
G01 X40.1941 Y39.7887 
G01 X40.2021 Y39.7604 
G01 X40.2025 Y39.7349 
G01 X40.2064 Y39.7098 
G01 X40.2032 Y39.6805 
G01 X40.2565 Y35.6388 
G01 X42.0312 Y35.6388 
G01 X42.0718 Y35.6220 
G01 X42.1028 Y35.5910 
G01 X42.1196 Y35.5504 
G01 X42.1196 Y33.0065 
G01 X42.1028 Y32.9659 
G01 X42.0718 Y32.9348 
G01 X42.0312 Y32.9180 
G01 X40.3993 Y32.9180 
G01 X40.3993 Y19.7862 
G01 X41.7079 Y19.7862 
G01 X41.7484 Y19.7694 
G01 X41.7795 Y19.7383 
G01 X41.7963 Y19.6978 
G01 X41.7963 Y15.8438 
G01 X41.7795 Y15.8033 
G01 X41.7484 Y15.7722 
G01 X41.7079 Y15.7554 
G01 X37.8540 Y15.7554 
G01 X37.8134 Y15.7722 
G01 X37.7823 Y15.8033 
G01 X37.7655 Y15.8438 
G01 X37.7655 Y19.6978 
G01 X37.7823 Y19.7383 
G01 X37.8134 Y19.7694 
G01 X37.8540 Y19.7862 
G01 X39.1625 Y19.7862 
G01 X39.1625 Y32.9180 
G01 X37.6873 Y32.9180 
G01 X37.6467 Y32.9348 
G01 X37.6156 Y32.9659 
G01 X37.5988 Y33.0065 
G01 X37.5988 Y35.5504 
G01 X37.6156 Y35.5910 
G01 X37.6467 Y35.6220 
G01 X37.6873 Y35.6388 
G01 X39.4260 Y35.6388 
G01 X39.3744 Y39.5517 
G01 X37.5356 Y41.8389 
G01 X3.1134 Y41.8389 
G01 X2.0611 Y40.7866 
G01 X1.9836 Y40.7089 
G01 X1.6511 Y40.3764 
G01 X1.6511 Y36.7960 
G01 X2.8047 Y36.7960 
G01 X2.8736 Y36.9312 
G01 X2.9707 Y37.0649 
G01 X3.0876 Y37.1818 
G01 X3.2214 Y37.2790 
G01 X3.3686 Y37.3540 
G01 X3.5259 Y37.4051 
G01 X3.6891 Y37.4310 
G01 X3.8544 Y37.4310 
G01 X4.0177 Y37.4051 
G01 X4.1749 Y37.3540 
G01 X4.3222 Y37.2790 
G01 X4.4559 Y37.1818 
G01 X4.5728 Y37.0649 
G01 X4.6700 Y36.9312 
G01 X4.7389 Y36.7960 
G01 X7.0497 Y36.7960 
G01 X7.1552 Y36.7677 
G01 X7.2499 Y36.7130 
G01 X8.3631 Y35.5999 
G01 X8.3631 Y38.6654 
G01 X8.3534 Y38.6820 
G01 X8.3252 Y38.7876 
G01 X8.3252 Y38.8969 
G01 X8.3534 Y39.0025 
G01 X8.4081 Y39.0972 
G01 X8.4854 Y39.1745 
G01 X8.5801 Y39.2292 
G01 X8.6857 Y39.2575 
G01 X10.1342 Y39.2575 
G01 X10.5334 Y39.6567 
G01 X11.2080 Y39.6567 
G01 X11.6851 Y39.1796 
G01 X11.6851 Y38.5049 
G01 X11.2080 Y38.0279 
G01 X10.5334 Y38.0279 
G01 X10.1342 Y38.4271 
G01 X9.1935 Y38.4271 
G01 X9.1935 Y34.7695 
G01 X9.7855 Y34.1775 
G01 X10.1342 Y34.1775 
G01 X10.5334 Y34.5767 
G01 X11.2080 Y34.5767 
G01 X11.6851 Y34.0996 
G01 X11.6851 Y33.4249 
G01 X11.2080 Y32.9479 
G01 X10.5334 Y32.9479 
G01 X10.1342 Y33.3471 
G01 X9.5589 Y33.3471 
G01 X9.4533 Y33.3754 
G01 X9.3586 Y33.4300 
G01 X8.5233 Y34.2653 
G01 X6.8230 Y35.9656 
G01 X4.7389 Y35.9656 
G01 X4.6700 Y35.8304 
G01 X4.5728 Y35.6966 
G01 X4.4559 Y35.5797 
G01 X4.3222 Y35.4826 
G01 X4.1749 Y35.4075 
G01 X4.0177 Y35.3564 
G01 X3.8544 Y35.3306 
G01 X3.6891 Y35.3306 
G01 X3.5259 Y35.3564 
G01 X3.3686 Y35.4075 
G01 X3.2214 Y35.4826 
G01 X3.0876 Y35.5797 
G01 X2.9707 Y35.6966 
G01 X2.8736 Y35.8304 
G01 X2.8047 Y35.9656 
G01 X1.3340 Y35.9656 
G01 X1.3100 Y35.9415 
G01 X1.3100 Y33.0257 
G01 X2.5450 Y31.7906 
G01 X3.6404 Y31.7906 
G01 X3.7460 Y31.7623 
G01 X3.8407 Y31.7077 
G01 X3.9180 Y31.6304 
G01 X3.9938 Y31.5546 
G01 X4.0485 Y31.4599 
G01 X4.0768 Y31.3543 
G01 X4.0768 Y26.5440 
G01 X4.5916 Y26.0291 
G01 X7.9015 Y26.0291 
G01 X8.3465 Y26.4742 
G01 X8.4238 Y26.5515 
G01 X8.5185 Y26.6061 
G01 X8.6241 Y26.6344 
G01 X12.6682 Y26.6344 
G01 X12.7738 Y26.6061 
G01 X12.8685 Y26.5515 
G01 X12.9458 Y26.4742 
G01 X13.9932 Y25.4268 
G01 X14.0705 Y25.3495 
G01 X14.1251 Y25.2548 
G01 X14.1534 Y25.1492 
G01 X14.1534 Y23.0521 
G01 X14.5778 Y22.6277 
G01 X19.3907 Y22.6277 
G01 X19.4217 Y22.6313 
G01 X19.4451 Y22.6277 
G01 X19.4688 Y22.6277 
G01 X19.4990 Y22.6196 
G01 X19.7730 Y22.5785 
G01 X19.7730 Y22.9138 
G01 X19.7898 Y22.9544 
G01 X19.8208 Y22.9854 
G01 X19.8614 Y23.0023 
G01 X21.7053 Y23.0023 
G01 X21.7459 Y22.9854 
G01 X21.7769 Y22.9544 
G01 X21.7937 Y22.9138 
G01 X21.7937 Y21.0999 
G01 X21.7769 Y21.0593 
G01 X21.7459 Y21.0283 
G01 X21.7053 Y21.0115 
G01 X19.8614 Y21.0115 
G01 X19.8208 Y21.0283 
G01 X19.7898 Y21.0593 
G01 X19.7730 Y21.0999 
G01 X19.7730 Y21.7388 
G01 X19.3831 Y21.7973 
G01 X14.3511 Y21.7973 
G00 Z2.5400 
G00 X18.2743 Y23.4048 
G01 Z-0.1778 F254.00 
G01 X18.1797 Y23.5464 F508.00 
G01 X18.1145 Y23.7037 
G01 X18.1134 Y23.7093 
G01 X16.4644 Y25.2297 
G01 X16.4518 Y25.2382 
G01 X16.4106 Y25.2794 
G01 X16.3677 Y25.3189 
G01 X16.3587 Y25.3313 
G01 X16.3480 Y25.3420 
G01 X16.3156 Y25.3905 
G01 X16.2812 Y25.4376 
G01 X16.2748 Y25.4514 
G01 X16.2664 Y25.4641 
G01 X16.2441 Y25.5180 
G01 X16.2196 Y25.5709 
G01 X16.2160 Y25.5857 
G01 X16.2102 Y25.5998 
G01 X16.1988 Y25.6569 
G01 X16.1851 Y25.7136 
G01 X16.1845 Y25.7288 
G01 X16.1815 Y25.7438 
G01 X16.1815 Y25.8021 
G01 X16.1792 Y25.8603 
G01 X16.1815 Y25.8754 
G01 X16.1815 Y27.2383 
G01 X16.1764 Y27.2434 
G01 X7.2904 Y27.2434 
G01 X7.2347 Y27.1877 
G01 X7.1010 Y27.0906 
G01 X6.9537 Y27.0155 
G01 X6.7965 Y26.9644 
G01 X6.6332 Y26.9386 
G01 X6.4679 Y26.9386 
G01 X6.3046 Y26.9644 
G01 X6.1474 Y27.0155 
G01 X6.0001 Y27.0906 
G01 X5.8664 Y27.1877 
G01 X5.7495 Y27.3046 
G01 X5.6524 Y27.4384 
G01 X5.5773 Y27.5856 
G01 X5.5262 Y27.7429 
G01 X5.5004 Y27.9061 
G01 X5.5004 Y28.0714 
G01 X5.5262 Y28.2347 
G01 X5.5773 Y28.3919 
G01 X5.6524 Y28.5392 
G01 X5.7495 Y28.6729 
G01 X5.8664 Y28.7898 
G01 X6.0001 Y28.8870 
G01 X6.1474 Y28.9620 
G01 X6.3046 Y29.0131 
G01 X6.4679 Y29.0390 
G01 X6.6332 Y29.0390 
G01 X6.7965 Y29.0131 
G01 X6.9537 Y28.9620 
G01 X7.1010 Y28.8870 
G01 X7.2347 Y28.7898 
G01 X7.2904 Y28.7342 
G01 X16.5586 Y28.7342 
G01 X16.7026 Y28.7055 
G01 X16.8383 Y28.6493 
G01 X16.9604 Y28.5678 
G01 X17.4021 Y28.1260 
G01 X17.5059 Y28.0222 
G01 X17.5875 Y27.9001 
G01 X17.6437 Y27.7645 
G01 X17.6723 Y27.6205 
G01 X17.6723 Y26.1438 
G01 X19.1290 Y24.8007 
G01 X19.1978 Y24.7870 
G01 X19.3552 Y24.7218 
G01 X19.4967 Y24.6272 
G01 X19.6171 Y24.5068 
G01 X19.7117 Y24.3653 
G01 X19.7769 Y24.2080 
G01 X19.8101 Y24.0409 
G01 X19.8101 Y23.8707 
G01 X19.7769 Y23.7037 
G01 X19.7117 Y23.5464 
G01 X19.6171 Y23.4048 
G01 X19.4967 Y23.2844 
G01 X19.3552 Y23.1898 
G01 X19.1978 Y23.1246 
G01 X19.0309 Y23.0914 
G01 X18.8606 Y23.0914 
G01 X18.6936 Y23.1246 
G01 X18.5363 Y23.1898 
G01 X18.3947 Y23.2844 
G01 X18.2743 Y23.4048 
G00 Z2.5400 
G00 X23.9048 Y22.9854 
G01 Z-0.1778 F254.00 
G01 X23.9454 Y23.0023 F508.00 
G01 X25.7893 Y23.0023 
G01 X25.8299 Y22.9854 
G01 X25.8609 Y22.9544 
G01 X25.8777 Y22.9138 
G01 X25.8777 Y22.7165 
G01 X28.4244 Y23.4196 
G01 X28.3397 Y23.5464 
G01 X28.2745 Y23.7037 
G01 X28.2413 Y23.8707 
G01 X28.2413 Y24.0409 
G01 X28.2745 Y24.2080 
G01 X28.3397 Y24.3653 
G01 X28.4343 Y24.5068 
G01 X28.5547 Y24.6272 
G01 X28.6963 Y24.7218 
G01 X28.8536 Y24.7870 
G01 X29.0206 Y24.8202 
G01 X29.1909 Y24.8202 
G01 X29.3578 Y24.7870 
G01 X29.5152 Y24.7218 
G01 X29.6567 Y24.6272 
G01 X29.7771 Y24.5068 
G01 X29.8717 Y24.3653 
G01 X29.9369 Y24.2080 
G01 X29.9701 Y24.0409 
G01 X29.9701 Y23.8707 
G01 X29.9369 Y23.7037 
G01 X29.8717 Y23.5464 
G01 X29.7771 Y23.4048 
G01 X29.6567 Y23.2844 
G01 X29.5152 Y23.1898 
G01 X29.4355 Y23.1568 
G01 X29.4327 Y23.1314 
G01 X29.4329 Y23.1011 
G01 X29.4267 Y23.0773 
G01 X29.4240 Y23.0528 
G01 X29.4130 Y23.0246 
G01 X29.4054 Y22.9952 
G01 X29.3933 Y22.9739 
G01 X29.3843 Y22.9509 
G01 X29.3664 Y22.9265 
G01 X29.3515 Y22.9002 
G01 X29.3342 Y22.8826 
G01 X29.3197 Y22.8628 
G01 X29.2960 Y22.8439 
G01 X29.2747 Y22.8223 
G01 X29.2535 Y22.8098 
G01 X29.2344 Y22.7944 
G01 X29.2066 Y22.7823 
G01 X29.1805 Y22.7669 
G01 X29.1568 Y22.7604 
G01 X29.1343 Y22.7505 
G01 X29.1043 Y22.7459 
G01 X25.8777 Y21.8551 
G01 X25.8777 Y21.0999 
G01 X25.8609 Y21.0593 
G01 X25.8299 Y21.0283 
G01 X25.7893 Y21.0115 
G01 X23.9454 Y21.0115 
G01 X23.9048 Y21.0283 
G01 X23.8738 Y21.0593 
G01 X23.8570 Y21.0999 
G01 X23.8570 Y22.9138 
G01 X23.8738 Y22.9544 
G01 X23.9048 Y22.9854 
G00 Z2.5400 
G00 X23.3984 Y26.5254 
G01 Z-0.1778 F254.00 
G01 X23.3984 Y5.8396 F508.00 
G01 X26.3664 Y2.8716 
G01 X37.7655 Y2.8716 
G01 X37.7655 Y4.2978 
G01 X37.7823 Y4.3383 
G01 X37.8134 Y4.3694 
G01 X37.8540 Y4.3862 
G01 X39.1625 Y4.3862 
G01 X39.1625 Y4.6420 
G01 X34.0731 Y4.6420 
G01 X33.9536 Y4.6658 
G01 X33.8411 Y4.7124 
G01 X33.7398 Y4.7801 
G01 X33.6536 Y4.8662 
G01 X33.4031 Y5.1167 
G01 X33.3355 Y5.2180 
G01 X33.2889 Y5.3305 
G01 X33.2651 Y5.4500 
G01 X33.2651 Y31.6980 
G01 X32.0451 Y32.9180 
G01 X29.3873 Y32.9180 
G01 X29.3467 Y32.9348 
G01 X29.3156 Y32.9659 
G01 X29.2988 Y33.0065 
G01 X29.2988 Y35.5504 
G01 X29.3156 Y35.5910 
G01 X29.3467 Y35.6220 
G01 X29.3873 Y35.6388 
G01 X31.6321 Y35.6388 
G01 X31.6321 Y39.7853 
G01 X31.0877 Y40.3297 
G01 X20.9169 Y40.3297 
G01 X20.8299 Y40.2428 
G01 X20.8299 Y39.3519 
G01 X20.9867 Y39.3519 
G01 X21.0273 Y39.3351 
G01 X21.0583 Y39.3040 
G01 X21.0751 Y39.2635 
G01 X21.0751 Y38.2196 
G01 X21.0583 Y38.1790 
G01 X21.0273 Y38.1479 
G01 X20.9867 Y38.1311 
G01 X19.8428 Y38.1311 
G01 X19.8022 Y38.1479 
G01 X19.7712 Y38.1790 
G01 X19.7543 Y38.2196 
G01 X19.7543 Y39.2635 
G01 X19.7712 Y39.3040 
G01 X19.8022 Y39.3351 
G01 X19.8428 Y39.3519 
G01 X19.9995 Y39.3519 
G01 X19.9995 Y40.4694 
G01 X20.0278 Y40.5750 
G01 X20.0825 Y40.6697 
G01 X20.1598 Y40.7470 
G01 X20.4127 Y40.9999 
G01 X20.4900 Y41.0772 
G01 X20.5847 Y41.1318 
G01 X20.6903 Y41.1601 
G01 X31.3143 Y41.1601 
G01 X31.4199 Y41.1318 
G01 X31.5146 Y41.0772 
G01 X32.3023 Y40.2895 
G01 X32.3796 Y40.2122 
G01 X32.4342 Y40.1175 
G01 X32.4625 Y40.0119 
G01 X32.4625 Y35.6388 
G01 X33.7312 Y35.6388 
G01 X33.7718 Y35.6220 
G01 X33.8028 Y35.5910 
G01 X33.8196 Y35.5504 
G01 X33.8196 Y33.0065 
G01 X33.8028 Y32.9659 
G01 X33.7746 Y32.9376 
G01 X34.2777 Y32.4345 
G01 X34.3638 Y32.3484 
G01 X34.4315 Y32.2471 
G01 X34.4781 Y32.1345 
G01 X34.5019 Y32.0151 
G01 X34.5019 Y5.8788 
G01 X39.4903 Y5.8788 
G01 X39.6097 Y5.8550 
G01 X39.7223 Y5.8084 
G01 X39.8236 Y5.7407 
G01 X40.1751 Y5.3892 
G01 X40.2613 Y5.3030 
G01 X40.3289 Y5.2018 
G01 X40.3755 Y5.0892 
G01 X40.3993 Y4.9698 
G01 X40.3993 Y4.3862 
G01 X41.7079 Y4.3862 
G01 X41.7484 Y4.3694 
G01 X41.7795 Y4.3383 
G01 X41.7963 Y4.2978 
G01 X41.7963 Y0.4438 
G01 X41.7795 Y0.4033 
G01 X41.7484 Y0.3722 
G01 X41.7079 Y0.3554 
G01 X37.8540 Y0.3554 
G01 X37.8134 Y0.3722 
G01 X37.7823 Y0.4033 
G01 X37.7655 Y0.4438 
G01 X37.7655 Y2.1428 
G01 X26.1675 Y2.1428 
G01 X26.0748 Y2.1676 
G01 X25.9917 Y2.2156 
G01 X25.9239 Y2.2835 
G01 X22.7424 Y5.4649 
G01 X22.6945 Y5.5480 
G01 X22.6696 Y5.6407 
G01 X22.6696 Y26.5254 
G01 X22.2921 Y26.5254 
G01 X22.1865 Y26.5537 
G01 X22.0919 Y26.6083 
G01 X22.0146 Y26.6856 
G01 X19.4834 Y29.2168 
G01 X8.4583 Y29.2168 
G01 X8.3527 Y29.2451 
G01 X8.2580 Y29.2998 
G01 X8.1807 Y29.3771 
G01 X4.4870 Y33.0708 
G01 X4.4559 Y33.0397 
G01 X4.3222 Y32.9426 
G01 X4.1749 Y32.8675 
G01 X4.0177 Y32.8164 
G01 X3.8544 Y32.7906 
G01 X3.6891 Y32.7906 
G01 X3.5259 Y32.8164 
G01 X3.3686 Y32.8675 
G01 X3.2214 Y32.9426 
G01 X3.0876 Y33.0397 
G01 X2.9707 Y33.1566 
G01 X2.8736 Y33.2904 
G01 X2.7985 Y33.4376 
G01 X2.7474 Y33.5949 
G01 X2.7216 Y33.7581 
G01 X2.7216 Y33.9234 
G01 X2.7474 Y34.0867 
G01 X2.7985 Y34.2439 
G01 X2.8736 Y34.3912 
G01 X2.9707 Y34.5249 
G01 X3.0876 Y34.6418 
G01 X3.2214 Y34.7390 
G01 X3.3686 Y34.8140 
G01 X3.5259 Y34.8651 
G01 X3.6891 Y34.8910 
G01 X3.8544 Y34.8910 
G01 X4.0177 Y34.8651 
G01 X4.1749 Y34.8140 
G01 X4.3222 Y34.7390 
G01 X4.4559 Y34.6418 
G01 X4.5728 Y34.5249 
G01 X4.6700 Y34.3912 
G01 X4.7450 Y34.2439 
G01 X4.7961 Y34.0867 
G01 X4.8220 Y33.9234 
G01 X4.8220 Y33.9101 
G01 X8.6849 Y30.0472 
G01 X12.9955 Y30.0472 
G01 X12.9955 Y30.4857 
G01 X12.5963 Y30.8849 
G01 X12.5963 Y31.5596 
G01 X13.0734 Y32.0367 
G01 X13.7480 Y32.0367 
G01 X14.2251 Y31.5596 
G01 X14.2251 Y30.8849 
G01 X13.8259 Y30.4857 
G01 X13.8259 Y30.0472 
G01 X19.7100 Y30.0472 
G01 X19.8156 Y30.0189 
G01 X19.9103 Y29.9642 
G01 X22.5188 Y27.3558 
G01 X24.7520 Y27.3558 
G01 X25.5701 Y28.1739 
G01 X25.5701 Y29.5931 
G01 X25.5395 Y29.6238 
G01 X25.5227 Y29.6643 
G01 X25.5227 Y31.1083 
G01 X25.5395 Y31.1488 
G01 X25.5705 Y31.1799 
G01 X25.6111 Y31.1967 
G01 X26.6550 Y31.1967 
G01 X26.6956 Y31.1799 
G01 X26.7267 Y31.1488 
G01 X26.7435 Y31.1083 
G01 X26.7435 Y29.6643 
G01 X26.7267 Y29.6238 
G01 X26.6956 Y29.5927 
G01 X26.6550 Y29.5759 
G01 X26.4005 Y29.5759 
G01 X26.4005 Y27.9472 
G01 X26.3722 Y27.8416 
G01 X26.3176 Y27.7470 
G01 X26.2402 Y27.6697 
G01 X25.1789 Y26.6083 
G01 X25.0842 Y26.5537 
G01 X24.9786 Y26.5254 
G01 X23.3984 Y26.5254 
G00 Z2.5400 
G00 X23.6395 Y29.6238 
G01 Z-0.1778 F254.00 
G01 X23.6227 Y29.6643 F508.00 
G01 X23.6227 Y30.0126 
G01 X20.8519 Y30.0126 
G01 X20.7463 Y30.0409 
G01 X20.6516 Y30.0956 
G01 X20.5743 Y30.1729 
G01 X20.0556 Y30.6916 
G01 X20.0009 Y30.7863 
G01 X19.9726 Y30.8919 
G01 X19.9726 Y31.1947 
G01 X19.8159 Y31.1947 
G01 X19.7753 Y31.2115 
G01 X19.7442 Y31.2426 
G01 X19.7274 Y31.2832 
G01 X19.7274 Y32.3271 
G01 X19.7442 Y32.3677 
G01 X19.7753 Y32.3987 
G01 X19.8159 Y32.4155 
G01 X20.9598 Y32.4155 
G01 X21.0004 Y32.3987 
G01 X21.0314 Y32.3677 
G01 X21.0482 Y32.3271 
G01 X21.0482 Y31.2832 
G01 X21.0314 Y31.2426 
G01 X21.0004 Y31.2115 
G01 X20.9598 Y31.1947 
G01 X20.8030 Y31.1947 
G01 X20.8030 Y31.1185 
G01 X21.0785 Y30.8430 
G01 X23.6227 Y30.8430 
G01 X23.6227 Y31.1083 
G01 X23.6395 Y31.1488 
G01 X23.6705 Y31.1799 
G01 X23.7111 Y31.1967 
G01 X24.7550 Y31.1967 
G01 X24.7956 Y31.1799 
G01 X24.8267 Y31.1488 
G01 X24.8435 Y31.1083 
G01 X24.8435 Y29.6643 
G01 X24.8267 Y29.6238 
G01 X24.7956 Y29.5927 
G01 X24.7550 Y29.5759 
G01 X23.7111 Y29.5759 
G01 X23.6705 Y29.5927 
G01 X23.6395 Y29.6238 
G00 Z2.5400 
G00 X24.5895 Y31.8238 
G01 Z-0.1778 F254.00 
G01 X24.5727 Y31.8643 F508.00 
G01 X24.5727 Y33.3083 
G01 X24.5895 Y33.3488 
G01 X24.6205 Y33.3799 
G01 X24.6611 Y33.3967 
G01 X25.7050 Y33.3967 
G01 X25.7456 Y33.3799 
G01 X25.7767 Y33.3488 
G01 X25.7935 Y33.3083 
G01 X25.7935 Y33.0015 
G01 X27.3043 Y33.0015 
G01 X27.4099 Y32.9732 
G01 X27.5046 Y32.9185 
G01 X27.5819 Y32.8412 
G01 X27.7385 Y32.6846 
G01 X27.7551 Y32.6728 
G01 X27.7770 Y32.6461 
G01 X27.8014 Y32.6217 
G01 X27.8116 Y32.6041 
G01 X28.7317 Y31.4857 
G01 X31.5670 Y30.1579 
G01 X31.5770 Y30.1556 
G01 X31.6163 Y30.1347 
G01 X31.6567 Y30.1158 
G01 X31.6645 Y30.1092 
G01 X31.6736 Y30.1044 
G01 X31.7062 Y30.0741 
G01 X31.7403 Y30.0454 
G01 X31.7462 Y30.0370 
G01 X31.7537 Y30.0301 
G01 X31.7774 Y29.9923 
G01 X31.8029 Y29.9558 
G01 X31.8064 Y29.9461 
G01 X31.8118 Y29.9375 
G01 X31.8249 Y29.8949 
G01 X31.8401 Y29.8530 
G01 X31.8410 Y29.8428 
G01 X31.8440 Y29.8330 
G01 X31.8456 Y29.7885 
G01 X31.8495 Y29.7441 
G01 X31.8477 Y29.7340 
G01 X32.0325 Y24.7312 
G01 X32.0552 Y24.7218 
G01 X32.1967 Y24.6272 
G01 X32.3171 Y24.5068 
G01 X32.4117 Y24.3653 
G01 X32.4769 Y24.2080 
G01 X32.5101 Y24.0409 
G01 X32.5101 Y23.8707 
G01 X32.4769 Y23.7037 
G01 X32.4117 Y23.5464 
G01 X32.3171 Y23.4048 
G01 X32.1967 Y23.2844 
G01 X32.0552 Y23.1898 
G01 X31.8978 Y23.1246 
G01 X31.7309 Y23.0914 
G01 X31.5606 Y23.0914 
G01 X31.3936 Y23.1246 
G01 X31.2363 Y23.1898 
G01 X31.0947 Y23.2844 
G01 X30.9743 Y23.4048 
G01 X30.8797 Y23.5464 
G01 X30.8145 Y23.7037 
G01 X30.7813 Y23.8707 
G01 X30.7813 Y24.0409 
G01 X30.8145 Y24.2080 
G01 X30.8797 Y24.3653 
G01 X30.9743 Y24.5068 
G01 X31.0947 Y24.6272 
G01 X31.2028 Y24.6994 
G01 X31.0256 Y29.4945 
G01 X28.3094 Y30.7665 
G01 X28.2737 Y30.7799 
G01 X28.2601 Y30.7896 
G01 X28.2450 Y30.7966 
G01 X28.2158 Y30.8213 
G01 X28.1847 Y30.8435 
G01 X28.1741 Y30.8563 
G01 X28.1614 Y30.8670 
G01 X28.1395 Y30.8984 
G01 X27.1613 Y32.0874 
G01 X27.0777 Y32.1711 
G01 X25.7935 Y32.1711 
G01 X25.7935 Y31.8643 
G01 X25.7767 Y31.8238 
G01 X25.7456 Y31.7927 
G01 X25.7050 Y31.7759 
G01 X24.6611 Y31.7759 
G01 X24.6205 Y31.7927 
G01 X24.5895 Y31.8238 
G00 Z2.5400 
G00 X21.0004 Y32.9115 
G01 Z-0.1778 F254.00 
G01 X20.9598 Y32.8947 F508.00 
G01 X19.8159 Y32.8947 
G01 X19.7753 Y32.9115 
G01 X19.7442 Y32.9426 
G01 X19.7274 Y32.9832 
G01 X19.7274 Y33.9926 
G01 X17.0610 Y33.9926 
G01 X16.4984 Y33.4300 
G01 X16.4038 Y33.3754 
G01 X16.2982 Y33.3471 
G01 X14.1472 Y33.3471 
G01 X13.7480 Y32.9479 
G01 X13.0734 Y32.9479 
G01 X12.5963 Y33.4249 
G01 X12.5963 Y34.0996 
G01 X13.0734 Y34.5767 
G01 X13.7480 Y34.5767 
G01 X14.1472 Y34.1775 
G01 X16.0715 Y34.1775 
G01 X16.5568 Y34.6627 
G01 X16.6341 Y34.7400 
G01 X16.7288 Y34.7947 
G01 X16.8344 Y34.8230 
G01 X20.4306 Y34.8230 
G01 X20.5362 Y34.7947 
G01 X20.6309 Y34.7400 
G01 X20.6688 Y34.7021 
G01 X20.7461 Y34.6248 
G01 X20.8008 Y34.5302 
G01 X20.8290 Y34.4246 
G01 X20.8290 Y34.1155 
G01 X20.9598 Y34.1155 
G01 X21.0004 Y34.0987 
G01 X21.0314 Y34.0677 
G01 X21.0482 Y34.0271 
G01 X21.0482 Y32.9832 
G01 X21.0314 Y32.9426 
G01 X21.0004 Y32.9115 
G00 Z2.5400 
G00 X20.7067 Y35.7055 
G01 Z-0.1778 F254.00 
G01 X20.6120 Y35.6508 F508.00 
G01 X20.5064 Y35.6225 
G01 X18.9947 Y35.6225 
G01 X18.8891 Y35.6508 
G01 X18.7945 Y35.7055 
G01 X18.7172 Y35.7828 
G01 X18.0056 Y36.4943 
G01 X16.3691 Y36.4943 
G01 X16.3663 Y36.4839 
G01 X16.3117 Y36.3892 
G01 X15.8189 Y35.8965 
G01 X15.7416 Y35.8192 
G01 X15.6470 Y35.7645 
G01 X15.5414 Y35.7362 
G01 X13.9964 Y35.7362 
G01 X13.7480 Y35.4879 
G01 X13.0734 Y35.4879 
G01 X12.5963 Y35.9649 
G01 X12.5963 Y36.6396 
G01 X13.0734 Y37.1167 
G01 X13.7480 Y37.1167 
G01 X14.2251 Y36.6396 
G01 X14.2251 Y36.5666 
G01 X15.3147 Y36.5666 
G01 X15.5642 Y36.8161 
G01 X15.5642 Y40.2090 
G01 X5.6528 Y40.2090 
G01 X4.7506 Y39.3068 
G01 X4.7961 Y39.1667 
G01 X4.8220 Y39.0034 
G01 X4.8220 Y38.8381 
G01 X4.7961 Y38.6749 
G01 X4.7450 Y38.5177 
G01 X4.6700 Y38.3704 
G01 X4.5728 Y38.2366 
G01 X4.4559 Y38.1197 
G01 X4.3222 Y38.0226 
G01 X4.1749 Y37.9475 
G01 X4.0177 Y37.8964 
G01 X3.8544 Y37.8706 
G01 X3.6891 Y37.8706 
G01 X3.5259 Y37.8964 
G01 X3.3686 Y37.9475 
G01 X3.2214 Y38.0226 
G01 X3.0876 Y38.1197 
G01 X2.9707 Y38.2366 
G01 X2.8736 Y38.3704 
G01 X2.7985 Y38.5177 
G01 X2.7474 Y38.6749 
G01 X2.7216 Y38.8381 
G01 X2.7216 Y39.0034 
G01 X2.7474 Y39.1667 
G01 X2.7985 Y39.3239 
G01 X2.8736 Y39.4712 
G01 X2.9707 Y39.6049 
G01 X3.0876 Y39.7218 
G01 X3.2214 Y39.8190 
G01 X3.3686 Y39.8940 
G01 X3.5259 Y39.9451 
G01 X3.6891 Y39.9710 
G01 X3.8544 Y39.9710 
G01 X4.0177 Y39.9451 
G01 X4.1663 Y39.8968 
G01 X5.1486 Y40.8791 
G01 X5.2259 Y40.9564 
G01 X5.3205 Y41.0111 
G01 X5.4261 Y41.0394 
G01 X15.9583 Y41.0394 
G01 X16.0639 Y41.0111 
G01 X16.1585 Y40.9564 
G01 X16.2344 Y40.8806 
G01 X16.3117 Y40.8033 
G01 X16.3663 Y40.7086 
G01 X16.3946 Y40.6030 
G01 X16.3946 Y37.3247 
G01 X18.2323 Y37.3247 
G01 X18.3379 Y37.2964 
G01 X18.4325 Y37.2418 
G01 X19.2214 Y36.4529 
G01 X19.7972 Y36.4529 
G01 X19.7712 Y36.4790 
G01 X19.7543 Y36.5196 
G01 X19.7543 Y37.5635 
G01 X19.7712 Y37.6041 
G01 X19.8022 Y37.6351 
G01 X19.8428 Y37.6519 
G01 X20.9867 Y37.6519 
G01 X21.0273 Y37.6351 
G01 X21.0583 Y37.6041 
G01 X21.0751 Y37.5635 
G01 X21.0751 Y36.5196 
G01 X21.0583 Y36.4790 
G01 X21.0273 Y36.4479 
G01 X20.9867 Y36.4311 
G01 X20.8669 Y36.4311 
G01 X20.8669 Y35.9830 
G01 X20.8387 Y35.8775 
G01 X20.7840 Y35.7828 
G01 X20.7067 Y35.7055 
G00 Z2.5400 
G00 X11.6851 Y35.9649 
G01 Z-0.1778 F254.00 
G01 X11.2080 Y35.4879 F508.00 
G01 X10.5334 Y35.4879 
G01 X10.0563 Y35.9649 
G01 X10.0563 Y36.6396 
G01 X10.5334 Y37.1167 
G01 X11.2080 Y37.1167 
G01 X11.6851 Y36.6396 
G01 X11.6851 Y35.9649 
G00 Z2.5400 
G00 X12.5963 Y38.5049 
G01 Z-0.1778 F254.00 
G01 X12.5963 Y39.1796 F508.00 
G01 X13.0734 Y39.6567 
G01 X13.7480 Y39.6567 
G01 X14.2251 Y39.1796 
G01 X14.2251 Y38.5049 
G01 X13.7480 Y38.0279 
G01 X13.0734 Y38.0279 
G01 X12.5963 Y38.5049 
G00 Z2.5400 
G00 X11.6851 Y31.5596 
G01 Z-0.1778 F254.00 
G01 X11.6851 Y30.8849 F508.00 
G01 X11.2080 Y30.4079 
G01 X10.5334 Y30.4079 
G01 X10.0563 Y30.8849 
G01 X10.0563 Y31.5596 
G01 X10.5334 Y32.0367 
G01 X11.2080 Y32.0367 
G01 X11.6851 Y31.5596 
G00 Z2.5400 
G00 X-0.3482 Y0.0411 
G01 Z-0.1778 F254.00 
G01 X-0.3269 Y0.1206 F508.00 
G01 X-0.3124 Y0.1457 
G01 X-0.3124 Y42.9474 
G01 X-0.2911 Y43.0268 
G01 X-0.2500 Y43.0981 
G01 X-0.1918 Y43.1562 
G01 X-0.1206 Y43.1974 
G01 X-0.0411 Y43.2186 
G01 X42.2971 Y43.2186 
G01 X42.3262 Y43.2108 
G01 X42.3554 Y43.2186 
G01 X42.4376 Y43.2186 
G01 X42.5171 Y43.1974 
G01 X42.5883 Y43.1562 
G01 X42.6465 Y43.0981 
G01 X42.6876 Y43.0268 
G01 X42.7089 Y42.9474 
G01 X42.7089 Y-0.1127 
G01 X42.6876 Y-0.1921 
G01 X42.6465 Y-0.2634 
G01 X42.5883 Y-0.3216 
G01 X42.5171 Y-0.3627 
G01 X42.4376 Y-0.3840 
G01 X-0.0411 Y-0.3840 
G01 X-0.1206 Y-0.3627 
G01 X-0.1918 Y-0.3216 
G01 X-0.2500 Y-0.2634 
G01 X-0.2911 Y-0.1921 
G01 X-0.2959 Y-0.1743 
G01 X-0.3269 Y-0.1206 
G01 X-0.3482 Y-0.0411 
G01 X-0.3482 Y0.0411 
G00 Z2.5400 
G00 X0.3124 Y0.2408 
G01 Z-0.1778 F254.00 
G01 X37.7987 Y0.2408 F508.00 
G01 X37.7414 Y0.2645 
G01 X37.6747 Y0.3313 
G01 X37.6385 Y0.4186 
G01 X37.6385 Y2.0158 
G01 X26.1508 Y2.0158 
G01 X26.0258 Y2.0493 
G01 X25.9138 Y2.1140 
G01 X25.8223 Y2.2055 
G01 X22.6408 Y5.3869 
G01 X22.5761 Y5.4990 
G01 X22.5426 Y5.6240 
G01 X22.5426 Y26.3984 
G01 X22.2754 Y26.3984 
G01 X22.1375 Y26.4353 
G01 X22.0139 Y26.5067 
G01 X21.9129 Y26.6076 
G01 X19.4308 Y29.0898 
G01 X8.4415 Y29.0898 
G01 X8.3036 Y29.1268 
G01 X8.1800 Y29.1981 
G01 X8.0791 Y29.2991 
G01 X4.4788 Y32.8994 
G01 X4.3888 Y32.8340 
G01 X4.2237 Y32.7498 
G01 X4.0474 Y32.6926 
G01 X3.8644 Y32.6636 
G01 X3.6791 Y32.6636 
G01 X3.4961 Y32.6926 
G01 X3.3199 Y32.7498 
G01 X3.1548 Y32.8340 
G01 X3.0049 Y32.9429 
G01 X2.8739 Y33.0739 
G01 X2.7649 Y33.2238 
G01 X2.6808 Y33.3889 
G01 X2.6236 Y33.5651 
G01 X2.5946 Y33.7481 
G01 X2.5946 Y33.9334 
G01 X2.6236 Y34.1164 
G01 X2.6808 Y34.2927 
G01 X2.7649 Y34.4578 
G01 X2.8739 Y34.6077 
G01 X3.0049 Y34.7387 
G01 X3.1548 Y34.8476 
G01 X3.3199 Y34.9317 
G01 X3.4961 Y34.9890 
G01 X3.6791 Y35.0180 
G01 X3.8644 Y35.0180 
G01 X4.0474 Y34.9890 
G01 X4.2237 Y34.9317 
G01 X4.3888 Y34.8476 
G01 X4.5387 Y34.7387 
G01 X4.6697 Y34.6077 
G01 X4.7786 Y34.4578 
G01 X4.8627 Y34.2927 
G01 X4.9200 Y34.1164 
G01 X4.9435 Y33.9682 
G01 X8.7375 Y30.1742 
G01 X12.8685 Y30.1742 
G01 X12.8685 Y30.4331 
G01 X12.4693 Y30.8323 
G01 X12.4693 Y31.6122 
G01 X13.0207 Y32.1637 
G01 X13.8006 Y32.1637 
G01 X14.3521 Y31.6122 
G01 X14.3521 Y30.8323 
G01 X13.9529 Y30.4331 
G01 X13.9529 Y30.1742 
G01 X19.7268 Y30.1742 
G01 X19.8647 Y30.1372 
G01 X19.9883 Y30.0659 
G01 X20.0892 Y29.9649 
G01 X22.5714 Y27.4828 
G01 X24.6994 Y27.4828 
G01 X25.4431 Y28.2265 
G01 X25.4431 Y29.5405 
G01 X25.4318 Y29.5518 
G01 X25.3957 Y29.6391 
G01 X25.3957 Y31.1335 
G01 X25.4318 Y31.2208 
G01 X25.4986 Y31.2876 
G01 X25.5858 Y31.3237 
G01 X26.6803 Y31.3237 
G01 X26.7675 Y31.2876 
G01 X26.8343 Y31.2208 
G01 X26.8705 Y31.1335 
G01 X26.8705 Y29.6391 
G01 X26.8343 Y29.5518 
G01 X26.7675 Y29.4850 
G01 X26.6803 Y29.4489 
G01 X26.5275 Y29.4489 
G01 X26.5275 Y27.9305 
G01 X26.4906 Y27.7926 
G01 X26.4192 Y27.6690 
G01 X26.3182 Y27.5680 
G01 X25.2569 Y26.5067 
G01 X25.1333 Y26.4353 
G01 X24.9954 Y26.3984 
G01 X23.5254 Y26.3984 
G01 X23.5254 Y5.8922 
G01 X26.4190 Y2.9986 
G01 X37.6385 Y2.9986 
G01 X37.6385 Y4.3230 
G01 X37.6747 Y4.4103 
G01 X37.7414 Y4.4771 
G01 X37.8287 Y4.5132 
G01 X39.0355 Y4.5132 
G01 X34.0606 Y4.5150 
G01 X33.9166 Y4.5436 
G01 X33.7809 Y4.5998 
G01 X33.6588 Y4.6814 
G01 X33.5550 Y4.7852 
G01 X33.3045 Y5.0357 
G01 X33.2229 Y5.1578 
G01 X33.1667 Y5.2935 
G01 X33.1381 Y5.4375 
G01 X33.1381 Y31.6454 
G01 X31.9925 Y32.7910 
G01 X29.3620 Y32.7910 
G01 X29.2747 Y32.8272 
G01 X29.2080 Y32.8939 
G01 X29.1718 Y32.9812 
G01 X29.1718 Y35.5756 
G01 X29.2080 Y35.6629 
G01 X29.2747 Y35.7297 
G01 X29.3620 Y35.7658 
G01 X31.5051 Y35.7658 
G01 X31.5051 Y39.7327 
G01 X31.0351 Y40.2027 
G01 X20.9695 Y40.2027 
G01 X20.9569 Y40.1902 
G01 X20.9569 Y39.4789 
G01 X21.0120 Y39.4789 
G01 X21.0992 Y39.4428 
G01 X21.1660 Y39.3760 
G01 X21.2021 Y39.2887 
G01 X21.2021 Y38.1943 
G01 X21.1660 Y38.1070 
G01 X21.0992 Y38.0403 
G01 X21.0120 Y38.0041 
G01 X19.8175 Y38.0041 
G01 X19.7303 Y38.0403 
G01 X19.6635 Y38.1070 
G01 X19.6273 Y38.1943 
G01 X19.6273 Y39.2887 
G01 X19.6635 Y39.3760 
G01 X19.7303 Y39.4428 
G01 X19.8175 Y39.4789 
G01 X19.8726 Y39.4789 
G01 X19.8726 Y40.4861 
G01 X19.9095 Y40.6240 
G01 X19.9809 Y40.7477 
G01 X20.0818 Y40.8486 
G01 X20.3111 Y41.0778 
G01 X20.4120 Y41.1788 
G01 X20.5356 Y41.2502 
G01 X20.6735 Y41.2871 
G01 X31.3310 Y41.2871 
G01 X31.4689 Y41.2502 
G01 X31.5926 Y41.1788 
G01 X32.3803 Y40.3911 
G01 X32.4812 Y40.2902 
G01 X32.5526 Y40.1665 
G01 X32.5895 Y40.0286 
G01 X32.5895 Y35.7658 
G01 X33.7564 Y35.7658 
G01 X33.8437 Y35.7297 
G01 X33.9105 Y35.6629 
G01 X33.9466 Y35.5756 
G01 X33.9466 Y32.9812 
G01 X33.9361 Y32.9557 
G01 X34.3586 Y32.5331 
G01 X34.4625 Y32.4293 
G01 X34.5440 Y32.3072 
G01 X34.6002 Y32.1716 
G01 X34.6289 Y32.0276 
G01 X34.6289 Y6.0058 
G01 X39.5028 Y6.0058 
G01 X39.6468 Y5.9772 
G01 X39.7824 Y5.9210 
G01 X39.9045 Y5.8394 
G01 X40.2561 Y5.4878 
G01 X40.3599 Y5.3840 
G01 X40.4415 Y5.2619 
G01 X40.4977 Y5.1263 
G01 X40.5263 Y4.9823 
G01 X40.5263 Y4.5132 
G01 X41.7331 Y4.5132 
G01 X41.8204 Y4.4771 
G01 X41.8872 Y4.4103 
G01 X41.9233 Y4.3230 
G01 X41.9233 Y0.4186 
G01 X41.8872 Y0.3313 
G01 X41.8204 Y0.2645 
G01 X41.7631 Y0.2408 
G01 X42.0841 Y0.2408 
G01 X42.0841 Y32.8025 
G01 X42.0564 Y32.7910 
G01 X40.5263 Y32.7910 
G01 X40.5263 Y19.9132 
G01 X41.7331 Y19.9132 
G01 X41.8204 Y19.8771 
G01 X41.8872 Y19.8103 
G01 X41.9233 Y19.7230 
G01 X41.9233 Y15.8186 
G01 X41.8872 Y15.7313 
G01 X41.8204 Y15.6645 
G01 X41.7331 Y15.6284 
G01 X37.8287 Y15.6284 
G01 X37.7414 Y15.6645 
G01 X37.6747 Y15.7313 
G01 X37.6385 Y15.8186 
G01 X37.6385 Y19.7230 
G01 X37.6747 Y19.8103 
G01 X37.7414 Y19.8771 
G01 X37.8287 Y19.9132 
G01 X39.0355 Y19.9132 
G01 X39.0355 Y32.7910 
G01 X37.6620 Y32.7910 
G01 X37.5747 Y32.8272 
G01 X37.5080 Y32.8939 
G01 X37.4718 Y32.9812 
G01 X37.4718 Y35.5756 
G01 X37.5080 Y35.6629 
G01 X37.5747 Y35.7297 
G01 X37.6620 Y35.7658 
G01 X39.2973 Y35.7658 
G01 X39.2480 Y39.5062 
G01 X37.4747 Y41.7119 
G01 X3.1660 Y41.7119 
G01 X2.1627 Y40.7086 
G01 X2.0616 Y40.6073 
G01 X1.7781 Y40.3238 
G01 X1.7781 Y36.9230 
G01 X2.7268 Y36.9230 
G01 X2.7649 Y36.9978 
G01 X2.8739 Y37.1477 
G01 X3.0049 Y37.2787 
G01 X3.1548 Y37.3876 
G01 X3.3199 Y37.4717 
G01 X3.4961 Y37.5290 
G01 X3.6791 Y37.5580 
G01 X3.8644 Y37.5580 
G01 X4.0474 Y37.5290 
G01 X4.2237 Y37.4717 
G01 X4.3888 Y37.3876 
G01 X4.5387 Y37.2787 
G01 X4.6697 Y37.1477 
G01 X4.7786 Y36.9978 
G01 X4.8167 Y36.9230 
G01 X7.0664 Y36.9230 
G01 X7.2043 Y36.8860 
G01 X7.3279 Y36.8147 
G01 X8.2361 Y35.9065 
G01 X8.2361 Y38.6313 
G01 X8.1982 Y38.7709 
G01 X8.1982 Y38.9136 
G01 X8.2351 Y39.0515 
G01 X8.3065 Y39.1752 
G01 X8.4074 Y39.2761 
G01 X8.5311 Y39.3475 
G01 X8.6690 Y39.3845 
G01 X10.0816 Y39.3845 
G01 X10.4807 Y39.7837 
G01 X11.2606 Y39.7837 
G01 X11.8121 Y39.2322 
G01 X11.8121 Y38.4523 
G01 X11.2606 Y37.9009 
G01 X10.4807 Y37.9009 
G01 X10.0816 Y38.3001 
G01 X9.3204 Y38.3001 
G01 X9.3204 Y34.8221 
G01 X9.8381 Y34.3045 
G01 X10.0815 Y34.3045 
G01 X10.4807 Y34.7037 
G01 X11.2606 Y34.7037 
G01 X11.8121 Y34.1522 
G01 X11.8121 Y33.3723 
G01 X11.2606 Y32.8209 
G01 X10.4807 Y32.8209 
G01 X10.0815 Y33.2201 
G01 X9.5421 Y33.2201 
G01 X9.4042 Y33.2570 
G01 X9.2806 Y33.3284 
G01 X8.4453 Y34.1637 
G01 X8.3444 Y34.2646 
G01 X6.7704 Y35.8386 
G01 X4.8167 Y35.8386 
G01 X4.7786 Y35.7638 
G01 X4.6697 Y35.6139 
G01 X4.5387 Y35.4829 
G01 X4.3888 Y35.3740 
G01 X4.2237 Y35.2898 
G01 X4.0474 Y35.2326 
G01 X3.8644 Y35.2036 
G01 X3.6791 Y35.2036 
G01 X3.4961 Y35.2326 
G01 X3.3199 Y35.2898 
G01 X3.1548 Y35.3740 
G01 X3.0049 Y35.4829 
G01 X2.8739 Y35.6139 
G01 X2.7649 Y35.7638 
G01 X2.7268 Y35.8386 
G01 X1.4370 Y35.8386 
G01 X1.4370 Y33.0783 
G01 X2.5976 Y31.9176 
G01 X3.6571 Y31.9176 
G01 X3.7950 Y31.8807 
G01 X3.9187 Y31.8093 
G01 X4.0196 Y31.7083 
G01 X4.0954 Y31.6325 
G01 X4.1668 Y31.5089 
G01 X4.2038 Y31.3710 
G01 X4.2038 Y26.5966 
G01 X4.6442 Y26.1561 
G01 X7.8489 Y26.1561 
G01 X8.2449 Y26.5522 
G01 X8.3459 Y26.6531 
G01 X8.4695 Y26.7245 
G01 X8.6074 Y26.7614 
G01 X12.6849 Y26.7614 
G01 X12.8228 Y26.7245 
G01 X12.9465 Y26.6531 
G01 X14.0712 Y25.5284 
G01 X14.1721 Y25.4275 
G01 X14.2435 Y25.3038 
G01 X14.2804 Y25.1659 
G01 X14.2804 Y23.1047 
G01 X14.6304 Y22.7547 
G01 X19.3835 Y22.7547 
G01 X19.4241 Y22.7593 
G01 X19.4546 Y22.7547 
G01 X19.4855 Y22.7547 
G01 X19.5249 Y22.7442 
G01 X19.6460 Y22.7260 
G01 X19.6460 Y22.9391 
G01 X19.6821 Y23.0263 
G01 X19.7489 Y23.0931 
G01 X19.8361 Y23.1292 
G01 X21.7306 Y23.1292 
G01 X21.8178 Y23.0931 
G01 X21.8846 Y23.0263 
G01 X21.9208 Y22.9391 
G01 X21.9208 Y21.0746 
G01 X21.8846 Y20.9874 
G01 X21.8178 Y20.9206 
G01 X21.7306 Y20.8845 
G01 X19.8361 Y20.8845 
G01 X19.7489 Y20.9206 
G01 X19.6821 Y20.9874 
G01 X19.6460 Y21.0746 
G01 X19.6460 Y21.6294 
G01 X19.3736 Y21.6703 
G01 X14.3344 Y21.6703 
G01 X14.1965 Y21.7073 
G01 X14.0729 Y21.7787 
G01 X13.9719 Y21.8796 
G01 X13.3044 Y22.5472 
G01 X13.2330 Y22.6708 
G01 X13.1960 Y22.8087 
G01 X13.1960 Y24.8700 
G01 X12.3890 Y25.6770 
G01 X8.9034 Y25.6770 
G01 X8.5073 Y25.2810 
G01 X8.4064 Y25.1800 
G01 X8.2827 Y25.1087 
G01 X8.1448 Y25.0717 
G01 X4.3483 Y25.0717 
G01 X4.2104 Y25.1087 
G01 X4.0867 Y25.1800 
G01 X3.3286 Y25.9381 
G01 X3.2277 Y26.0391 
G01 X3.1563 Y26.1627 
G01 X3.1194 Y26.3006 
G01 X3.1194 Y30.8332 
G01 X2.3017 Y30.8332 
G01 X2.1638 Y30.8702 
G01 X2.0401 Y30.9416 
G01 X0.4609 Y32.5208 
G01 X0.3895 Y32.6444 
G01 X0.3526 Y32.7823 
G01 X0.3526 Y36.1849 
G01 X0.3895 Y36.3228 
G01 X0.4609 Y36.4464 
G01 X0.5619 Y36.5474 
G01 X0.6937 Y36.6792 
G01 X0.6937 Y40.6198 
G01 X0.7306 Y40.7577 
G01 X0.8020 Y40.8813 
G01 X0.9030 Y40.9823 
G01 X1.2946 Y41.3738 
G01 X2.5076 Y42.5870 
G01 X2.5144 Y42.5938 
G01 X0.3124 Y42.5938 
G01 X0.3124 Y28.2015 
G01 X0.3224 Y28.2644 
G01 X0.3796 Y28.4407 
G01 X0.4637 Y28.6058 
G01 X0.5727 Y28.7557 
G01 X0.7037 Y28.8867 
G01 X0.8536 Y28.9956 
G01 X1.0187 Y29.0797 
G01 X1.1949 Y29.1370 
G01 X1.3779 Y29.1660 
G01 X1.5632 Y29.1660 
G01 X1.7462 Y29.1370 
G01 X1.9225 Y29.0797 
G01 X2.0876 Y28.9956 
G01 X2.2375 Y28.8867 
G01 X2.3685 Y28.7557 
G01 X2.4774 Y28.6058 
G01 X2.5615 Y28.4407 
G01 X2.6188 Y28.2644 
G01 X2.6478 Y28.0814 
G01 X2.6478 Y27.8961 
G01 X2.6188 Y27.7131 
G01 X2.5615 Y27.5369 
G01 X2.4774 Y27.3718 
G01 X2.3685 Y27.2219 
G01 X2.3430 Y27.1964 
G01 X2.3430 Y18.0248 
G01 X2.3094 Y17.8563 
G01 X2.2437 Y17.6975 
G01 X2.1482 Y17.5546 
G01 X1.7311 Y17.1375 
G01 X1.7311 Y12.4812 
G01 X3.2789 Y10.9334 
G01 X3.3622 Y10.9466 
G01 X3.5895 Y10.9466 
G01 X3.8140 Y10.9110 
G01 X4.0301 Y10.8408 
G01 X4.2326 Y10.7376 
G01 X4.4165 Y10.6040 
G01 X4.5772 Y10.4433 
G01 X4.7108 Y10.2594 
G01 X4.8140 Y10.0569 
G01 X4.8842 Y9.8408 
G01 X4.9197 Y9.6163 
G01 X4.9197 Y9.3890 
G01 X4.9065 Y9.3057 
G01 X5.7691 Y8.4432 
G01 X8.2385 Y8.4432 
G01 X8.2385 Y9.5230 
G01 X8.2747 Y9.6103 
G01 X8.3414 Y9.6771 
G01 X8.4287 Y9.7132 
G01 X12.3331 Y9.7132 
G01 X12.4204 Y9.6771 
G01 X12.4872 Y9.6103 
G01 X12.5233 Y9.5230 
G01 X12.5233 Y5.6186 
G01 X12.4872 Y5.5313 
G01 X12.4204 Y5.4645 
G01 X12.3331 Y5.4284 
G01 X8.4287 Y5.4284 
G01 X8.3414 Y5.4645 
G01 X8.2747 Y5.5313 
G01 X8.2385 Y5.6186 
G01 X8.2385 Y6.6984 
G01 X5.3218 Y6.6984 
G01 X5.1532 Y6.7319 
G01 X4.9945 Y6.7977 
G01 X4.8516 Y6.8932 
G01 X3.6728 Y8.0720 
G01 X3.5895 Y8.0588 
G01 X3.3622 Y8.0588 
G01 X3.1377 Y8.0943 
G01 X2.9216 Y8.1646 
G01 X2.7191 Y8.2677 
G01 X2.5352 Y8.4013 
G01 X2.3745 Y8.5620 
G01 X2.2409 Y8.7459 
G01 X2.1377 Y8.9484 
G01 X2.0675 Y9.1646 
G01 X2.0319 Y9.3890 
G01 X2.0319 Y9.6163 
G01 X2.0451 Y9.6996 
G01 X0.3124 Y11.4324 
G01 X0.3124 Y0.2408 
G00 Z2.5400 
G00 X2.3745 Y3.5620 
G01 Z-0.1778 F254.00 
G01 X2.2409 Y3.7459 F508.00 
G01 X2.1377 Y3.9484 
G01 X2.0675 Y4.1646 
G01 X2.0319 Y4.3890 
G01 X2.0319 Y4.6163 
G01 X2.0675 Y4.8408 
G01 X2.1377 Y5.0569 
G01 X2.2409 Y5.2594 
G01 X2.3745 Y5.4433 
G01 X2.5352 Y5.6040 
G01 X2.7191 Y5.7376 
G01 X2.9216 Y5.8408 
G01 X3.1377 Y5.9110 
G01 X3.3622 Y5.9466 
G01 X3.5895 Y5.9466 
G01 X3.8140 Y5.9110 
G01 X4.0301 Y5.8408 
G01 X4.2326 Y5.7376 
G01 X4.4165 Y5.6040 
G01 X4.5772 Y5.4433 
G01 X4.7108 Y5.2594 
G01 X4.8140 Y5.0569 
G01 X4.8842 Y4.8408 
G01 X4.9197 Y4.6163 
G01 X4.9197 Y4.3890 
G01 X4.9065 Y4.3057 
G01 X4.9761 Y4.2362 
G01 X13.4139 Y4.2362 
G01 X14.2267 Y5.0490 
G01 X14.2267 Y10.1952 
G01 X12.6435 Y11.7784 
G01 X12.5233 Y11.7784 
G01 X12.5233 Y10.6986 
G01 X12.4872 Y10.6113 
G01 X12.4204 Y10.5445 
G01 X12.3331 Y10.5084 
G01 X8.4287 Y10.5084 
G01 X8.3414 Y10.5445 
G01 X8.2747 Y10.6113 
G01 X8.2385 Y10.6986 
G01 X8.2385 Y14.6030 
G01 X8.2747 Y14.6903 
G01 X8.3414 Y14.7571 
G01 X8.4287 Y14.7932 
G01 X12.3331 Y14.7932 
G01 X12.4204 Y14.7571 
G01 X12.4872 Y14.6903 
G01 X12.5233 Y14.6030 
G01 X12.5233 Y13.5232 
G01 X13.0908 Y13.5232 
G01 X13.2593 Y13.4897 
G01 X13.4181 Y13.4239 
G01 X13.5610 Y13.3284 
G01 X15.6552 Y11.2342 
G01 X15.7767 Y11.1127 
G01 X15.8722 Y10.9698 
G01 X15.9380 Y10.8110 
G01 X15.9715 Y10.6425 
G01 X15.9715 Y4.6017 
G01 X15.9380 Y4.4332 
G01 X15.8722 Y4.2744 
G01 X15.7767 Y4.1315 
G01 X14.4529 Y2.8077 
G01 X14.3314 Y2.6862 
G01 X14.1885 Y2.5907 
G01 X14.0297 Y2.5249 
G01 X13.8612 Y2.4914 
G01 X4.5288 Y2.4914 
G01 X4.3603 Y2.5249 
G01 X4.2015 Y2.5907 
G01 X4.0586 Y2.6862 
G01 X3.6728 Y3.0720 
G01 X3.5895 Y3.0588 
G01 X3.3622 Y3.0588 
G01 X3.1377 Y3.0943 
G01 X2.9216 Y3.1646 
G01 X2.7191 Y3.2677 
G01 X2.5352 Y3.4013 
G01 X2.3745 Y3.5620 
G00 Z2.5400 
G00 X2.2221 Y13.0588 
G01 Z-0.1778 F254.00 
G01 X2.1349 Y13.0949 F508.00 
G01 X2.0681 Y13.1617 
G01 X2.0319 Y13.2490 
G01 X2.0319 Y15.7564 
G01 X2.0681 Y15.8437 
G01 X2.1349 Y15.9104 
G01 X2.2221 Y15.9466 
G01 X2.9028 Y15.9466 
G01 X5.7469 Y18.7906 
G01 X5.7469 Y20.8117 
G01 X5.7804 Y20.9803 
G01 X5.8462 Y21.1391 
G01 X5.9416 Y21.2819 
G01 X7.3914 Y22.7317 
G01 X7.4520 Y22.7923 
G01 X7.5121 Y22.8524 
G01 X7.5843 Y22.9007 
G01 X7.6550 Y22.9478 
G01 X7.7352 Y22.9811 
G01 X7.8137 Y23.0136 
G01 X7.8988 Y23.0305 
G01 X7.9823 Y23.0471 
G01 X8.0693 Y23.0471 
G01 X8.1541 Y23.0471 
G01 X10.0595 Y23.0419 
G01 X10.4790 Y23.3601 
G01 X10.4752 Y23.4442 
G01 X10.4471 Y23.4862 
G01 X10.3724 Y23.6666 
G01 X10.3343 Y23.8582 
G01 X10.3343 Y24.0535 
G01 X10.3724 Y24.2450 
G01 X10.4471 Y24.4254 
G01 X10.5556 Y24.5878 
G01 X10.6937 Y24.7259 
G01 X10.8561 Y24.8344 
G01 X11.0365 Y24.9091 
G01 X11.2281 Y24.9472 
G01 X11.4234 Y24.9472 
G01 X11.6149 Y24.9091 
G01 X11.7953 Y24.8344 
G01 X11.9577 Y24.7259 
G01 X12.0958 Y24.5878 
G01 X12.2043 Y24.4254 
G01 X12.2790 Y24.2450 
G01 X12.3171 Y24.0535 
G01 X12.3171 Y23.8582 
G01 X12.2790 Y23.6666 
G01 X12.2184 Y23.5202 
G01 X12.2421 Y22.9872 
G01 X12.2469 Y22.9082 
G01 X12.2459 Y22.9015 
G01 X12.2462 Y22.8946 
G01 X12.2342 Y22.8163 
G01 X12.2235 Y22.7379 
G01 X12.2213 Y22.7315 
G01 X12.2202 Y22.7248 
G01 X12.1932 Y22.6503 
G01 X12.1674 Y22.5755 
G01 X12.1639 Y22.5696 
G01 X12.1616 Y22.5632 
G01 X12.1206 Y22.4955 
G01 X12.0806 Y22.4272 
G01 X12.0761 Y22.4221 
G01 X12.0726 Y22.4163 
G01 X12.0192 Y22.3579 
G01 X11.9666 Y22.2986 
G01 X11.9612 Y22.2945 
G01 X11.9566 Y22.2895 
G01 X11.8928 Y22.2426 
G01 X10.9258 Y21.5090 
G01 X10.9063 Y21.4896 
G01 X10.8574 Y21.4571 
G01 X10.8108 Y21.4217 
G01 X10.7861 Y21.4097 
G01 X10.7631 Y21.3945 
G01 X10.7089 Y21.3722 
G01 X10.6562 Y21.3466 
G01 X10.6296 Y21.3396 
G01 X10.6042 Y21.3291 
G01 X10.5467 Y21.3179 
G01 X10.4900 Y21.3030 
G01 X10.4625 Y21.3013 
G01 X10.4356 Y21.2961 
G01 X10.3770 Y21.2962 
G01 X10.3185 Y21.2927 
G01 X10.2912 Y21.2964 
G01 X8.4286 Y21.3014 
G01 X7.4917 Y20.3645 
G01 X7.4917 Y18.3434 
G01 X7.4581 Y18.1748 
G01 X7.3924 Y18.0160 
G01 X7.2969 Y17.8732 
G01 X7.1754 Y17.7517 
G01 X4.9197 Y15.4960 
G01 X4.9197 Y13.2490 
G01 X4.8836 Y13.1617 
G01 X4.8168 Y13.0949 
G01 X4.7296 Y13.0588 
G01 X2.2221 Y13.0588 
G00 Z2.5400 
G00 X0.3124 Y18.1863 
G01 Z-0.1778 F254.00 
G01 X0.5982 Y18.4721 F508.00 
G01 X0.5982 Y27.1964 
G01 X0.5727 Y27.2219 
G01 X0.4637 Y27.3718 
G01 X0.3796 Y27.5369 
G01 X0.3224 Y27.7131 
G01 X0.3124 Y27.7760 
G01 X0.3124 Y18.1863 
G00 Z2.5400 
G00 X9.2982 Y18.1269 
G01 Z-0.1778 F254.00 
G01 X9.3697 Y18.1682 F508.00 
G01 X9.4495 Y18.1896 
G01 X9.9010 Y18.1896 
G01 X10.0183 Y18.1896 
G01 X10.1666 Y18.1558 
G01 X10.3036 Y18.0898 
G01 X10.4225 Y17.9950 
G01 X10.5173 Y17.8761 
G01 X10.5833 Y17.7391 
G01 X10.6171 Y17.5908 
G01 X10.6171 Y17.4387 
G01 X10.5833 Y17.2905 
G01 X10.5341 Y17.1882 
G01 X10.5647 Y17.1542 
G01 X10.6451 Y17.0149 
G01 X10.6948 Y16.8619 
G01 X10.7053 Y16.7628 
G01 X10.7053 Y17.9173 
G01 X10.7266 Y17.9971 
G01 X10.7679 Y18.0686 
G01 X10.8263 Y18.1269 
G01 X10.8978 Y18.1682 
G01 X10.9776 Y18.1896 
G01 X11.0602 Y18.1896 
G01 X11.1399 Y18.1682 
G01 X11.2114 Y18.1269 
G01 X11.2698 Y18.0686 
G01 X11.3111 Y17.9971 
G01 X11.3325 Y17.9173 
G01 X11.3325 Y17.6477 
G01 X11.5363 Y17.6477 
G01 X11.6647 Y17.6184 
G01 X11.7834 Y17.5613 
G01 X11.8864 Y17.4791 
G01 X11.9685 Y17.3762 
G01 X12.0256 Y17.2575 
G01 X12.0550 Y17.1291 
G01 X12.0550 Y16.2091 
G01 X12.0336 Y16.1294 
G01 X11.9923 Y16.0578 
G01 X11.9339 Y15.9995 
G01 X11.8624 Y15.9582 
G01 X11.7826 Y15.9368 
G01 X11.7001 Y15.9368 
G01 X11.6203 Y15.9582 
G01 X11.5488 Y15.9995 
G01 X11.4904 Y16.0578 
G01 X11.4491 Y16.1294 
G01 X11.4278 Y16.2091 
G01 X11.4278 Y17.0205 
G01 X11.3325 Y17.0205 
G01 X11.3325 Y16.2091 
G01 X11.3111 Y16.1294 
G01 X11.2698 Y16.0578 
G01 X11.2114 Y15.9995 
G01 X11.1399 Y15.9582 
G01 X11.0602 Y15.9368 
G01 X10.9776 Y15.9368 
G01 X10.8978 Y15.9582 
G01 X10.8263 Y15.9995 
G01 X10.7679 Y16.0578 
G01 X10.7266 Y16.1294 
G01 X10.7053 Y16.2091 
G01 X10.7053 Y16.6411 
G01 X10.6949 Y16.5420 
G01 X10.6451 Y16.3890 
G01 X10.5647 Y16.2497 
G01 X10.4571 Y16.1302 
G01 X10.3270 Y16.0357 
G01 X10.1800 Y15.9702 
G01 X10.0227 Y15.9368 
G01 X9.9010 Y15.9368 
G01 X9.4495 Y15.9368 
G01 X9.3697 Y15.9582 
G01 X9.2982 Y15.9995 
G01 X9.2398 Y16.0578 
G01 X9.1985 Y16.1294 
G01 X9.1771 Y16.2091 
G01 X9.1771 Y17.9173 
G01 X9.1985 Y17.9971 
G01 X9.2398 Y18.0686 
G01 X9.2982 Y18.1269 
G00 Z2.5400 
G00 X9.8043 Y17.5624 
G01 Z-0.1778 F254.00 
G01 X9.8043 Y17.4671 F508.00 
G01 X9.9424 Y17.4671 
G01 X9.9476 Y17.4674 
G01 X9.9580 Y17.4698 
G01 X9.9676 Y17.4744 
G01 X9.9760 Y17.4811 
G01 X9.9826 Y17.4894 
G01 X9.9873 Y17.4990 
G01 X9.9896 Y17.5094 
G01 X9.9896 Y17.5201 
G01 X9.9873 Y17.5305 
G01 X9.9826 Y17.5401 
G01 X9.9760 Y17.5484 
G01 X9.9676 Y17.5551 
G01 X9.9580 Y17.5597 
G01 X9.9476 Y17.5621 
G01 X9.9423 Y17.5624 
G01 X9.8043 Y17.5624 
G00 Z2.5400 
G00 X9.8043 Y16.8399 
G01 Z-0.1778 F254.00 
G01 X9.8043 Y16.5640 F508.00 
G01 X9.9423 Y16.5640 
G01 X9.9567 Y16.5648 
G01 X9.9849 Y16.5708 
G01 X10.0113 Y16.5825 
G01 X10.0346 Y16.5994 
G01 X10.0539 Y16.6209 
G01 X10.0683 Y16.6458 
G01 X10.0772 Y16.6733 
G01 X10.0802 Y16.7020 
G01 X10.0772 Y16.7306 
G01 X10.0683 Y16.7581 
G01 X10.0539 Y16.7830 
G01 X10.0346 Y16.8045 
G01 X10.0113 Y16.8214 
G01 X9.9849 Y16.8332 
G01 X9.9567 Y16.8392 
G01 X9.9424 Y16.8399 
G01 X9.9010 Y16.8399 
G01 X9.8043 Y16.8399 
G00 Z2.5400 
G00 X12.1260 Y16.7433 
G01 Z-0.1778 F254.00 
G01 X12.1260 Y17.5049 F508.00 
G01 X12.1594 Y17.6622 
G01 X12.2248 Y17.8091 
G01 X12.3194 Y17.9393 
G01 X12.4389 Y18.0469 
G01 X12.5782 Y18.1273 
G01 X12.7312 Y18.1770 
G01 X12.8911 Y18.1938 
G01 X13.0511 Y18.1770 
G01 X13.2041 Y18.1273 
G01 X13.3433 Y18.0469 
G01 X13.4629 Y17.9393 
G01 X13.5574 Y17.8091 
G01 X13.6228 Y17.6622 
G01 X13.6563 Y17.5049 
G01 X13.6563 Y17.4657 
G01 X13.6563 Y16.6607 
G01 X13.6563 Y16.6215 
G01 X13.6228 Y16.4642 
G01 X13.5574 Y16.3173 
G01 X13.4629 Y16.1871 
G01 X13.3433 Y16.0795 
G01 X13.2041 Y15.9991 
G01 X13.0511 Y15.9494 
G01 X12.8911 Y15.9326 
G01 X12.7312 Y15.9494 
G01 X12.5782 Y15.9991 
G01 X12.4389 Y16.0795 
G01 X12.3194 Y16.1871 
G01 X12.2248 Y16.3173 
G01 X12.1594 Y16.4642 
G01 X12.1260 Y16.6215 
G01 X12.1260 Y16.7432 
G00 Z2.5400 
G00 X12.7532 Y16.7019 
G01 Z-0.1778 F254.00 
G01 X12.7539 Y16.6875 F508.00 
G01 X12.7599 Y16.6593 
G01 X12.7717 Y16.6330 
G01 X12.7886 Y16.6096 
G01 X12.8100 Y16.5903 
G01 X12.8350 Y16.5759 
G01 X12.8624 Y16.5670 
G01 X12.8911 Y16.5640 
G01 X12.9198 Y16.5670 
G01 X12.9472 Y16.5759 
G01 X12.9722 Y16.5903 
G01 X12.9937 Y16.6096 
G01 X13.0106 Y16.6330 
G01 X13.0223 Y16.6593 
G01 X13.0283 Y16.6875 
G01 X13.0291 Y16.7019 
G01 X13.0291 Y17.3832 
G01 X13.0291 Y17.4244 
G01 X13.0283 Y17.4389 
G01 X13.0223 Y17.4671 
G01 X13.0106 Y17.4934 
G01 X12.9936 Y17.5168 
G01 X12.9722 Y17.5361 
G01 X12.9472 Y17.5505 
G01 X12.9198 Y17.5594 
G01 X12.8911 Y17.5624 
G01 X12.8624 Y17.5594 
G01 X12.8350 Y17.5505 
G01 X12.8100 Y17.5361 
G01 X12.7886 Y17.5168 
G01 X12.7717 Y17.4934 
G01 X12.7599 Y17.4671 
G01 X12.7539 Y17.4389 
G01 X12.7532 Y17.4245 
G01 X12.7532 Y16.7019 
G00 Z2.5400 
G00 X13.7273 Y16.2091 
G01 Z-0.1778 F254.00 
G01 X13.7273 Y17.2929 F508.00 
G01 X13.7273 Y17.3754 
G01 X13.7487 Y17.4552 
G01 X13.7900 Y17.5267 
G01 X13.8483 Y17.5851 
G01 X13.9199 Y17.6264 
G01 X13.9996 Y17.6477 
G01 X14.5583 Y17.6477 
G01 X14.6867 Y17.6184 
G01 X14.8054 Y17.5613 
G01 X14.9084 Y17.4791 
G01 X14.9905 Y17.3762 
G01 X15.0477 Y17.2575 
G01 X15.0770 Y17.1291 
G01 X15.0770 Y16.2091 
G01 X15.0556 Y16.1294 
G01 X15.0143 Y16.0578 
G01 X14.9559 Y15.9995 
G01 X14.8844 Y15.9582 
G01 X14.8047 Y15.9368 
G01 X14.7221 Y15.9368 
G01 X14.6423 Y15.9582 
G01 X14.5708 Y15.9995 
G01 X14.5124 Y16.0578 
G01 X14.4712 Y16.1294 
G01 X14.4498 Y16.2091 
G01 X14.4498 Y17.0205 
G01 X14.3545 Y17.0205 
G01 X14.3545 Y16.2091 
G01 X14.3331 Y16.1294 
G01 X14.2918 Y16.0578 
G01 X14.2335 Y15.9995 
G01 X14.1619 Y15.9582 
G01 X14.0822 Y15.9368 
G01 X13.9996 Y15.9368 
G01 X13.9199 Y15.9582 
G01 X13.8483 Y15.9995 
G01 X13.7900 Y16.0578 
G01 X13.7487 Y16.1294 
G01 X13.7273 Y16.2091 
G00 Z2.5400 
G00 X15.2469 Y16.3173 
G01 Z-0.1778 F254.00 
G01 X15.2469 Y16.3173 F508.00 
G01 X15.1814 Y16.4642 
G01 X15.1480 Y16.6215 
G01 X15.1480 Y16.7432 
G01 X15.1480 Y17.5049 
G01 X15.1814 Y17.6622 
G01 X15.2469 Y17.8091 
G01 X15.3414 Y17.9393 
G01 X15.4609 Y18.0469 
G01 X15.6002 Y18.1273 
G01 X15.7532 Y18.1770 
G01 X15.9132 Y18.1938 
G01 X16.0731 Y18.1770 
G01 X16.2261 Y18.1273 
G01 X16.3654 Y18.0469 
G01 X16.4849 Y17.9393 
G01 X16.5795 Y17.8091 
G01 X16.6449 Y17.6622 
G01 X16.6727 Y17.5313 
G01 X16.7264 Y17.5851 
G01 X16.7860 Y17.6195 
G01 X16.7860 Y17.6709 
G01 X16.8153 Y17.7993 
G01 X16.8725 Y17.9180 
G01 X16.9546 Y18.0210 
G01 X17.0576 Y18.1031 
G01 X17.1763 Y18.1603 
G01 X17.3047 Y18.1896 
G01 X17.5021 Y18.1896 
G01 X17.5819 Y18.1682 
G01 X17.6534 Y18.1269 
G01 X17.7118 Y18.0686 
G01 X17.7531 Y17.9971 
G01 X17.7745 Y17.9173 
G01 X17.7745 Y17.8347 
G01 X17.7531 Y17.7550 
G01 X17.7118 Y17.6835 
G01 X17.6534 Y17.6251 
G01 X17.6188 Y17.6051 
G01 X17.6534 Y17.5851 
G01 X17.7090 Y17.5295 
G01 X17.7646 Y17.5851 
G01 X17.8361 Y17.6264 
G01 X17.9159 Y17.6477 
G01 X18.5403 Y17.6477 
G01 X18.6201 Y17.6264 
G01 X18.6916 Y17.5851 
G01 X18.7500 Y17.5267 
G01 X18.7913 Y17.4552 
G01 X18.8120 Y17.3780 
G01 X18.8718 Y17.4531 
G01 X18.9907 Y17.5479 
G01 X19.1277 Y17.6139 
G01 X19.2760 Y17.6477 
G01 X19.4281 Y17.6477 
G01 X19.5763 Y17.6139 
G01 X19.7133 Y17.5479 
G01 X19.8322 Y17.4531 
G01 X19.9271 Y17.3342 
G01 X19.9930 Y17.1972 
G01 X20.0269 Y17.0489 
G01 X20.0269 Y16.7510 
G01 X20.0055 Y16.6712 
G01 X19.9642 Y16.5997 
G01 X19.9058 Y16.5413 
G01 X19.8712 Y16.5213 
G01 X19.9058 Y16.5013 
G01 X19.9642 Y16.4430 
G01 X20.0055 Y16.3714 
G01 X20.0269 Y16.2917 
G01 X20.0269 Y16.2091 
G01 X20.0055 Y16.1294 
G01 X19.9642 Y16.0578 
G01 X19.9058 Y15.9995 
G01 X19.8343 Y15.9582 
G01 X19.7546 Y15.9368 
G01 X19.3030 Y15.9368 
G01 X19.1959 Y15.9368 
G01 X19.0674 Y15.9661 
G01 X18.9488 Y16.0233 
G01 X18.8458 Y16.1054 
G01 X18.7636 Y16.2084 
G01 X18.7065 Y16.3271 
G01 X18.6772 Y16.4555 
G01 X18.6772 Y16.8942 
G01 X18.6201 Y16.8613 
G01 X18.5403 Y16.8399 
G01 X18.4578 Y16.8399 
G01 X18.3780 Y16.8613 
G01 X18.3065 Y16.9026 
G01 X18.2708 Y16.9383 
G01 X18.2708 Y16.2091 
G01 X18.2494 Y16.1294 
G01 X18.2081 Y16.0578 
G01 X18.1497 Y15.9995 
G01 X18.0782 Y15.9582 
G01 X17.9985 Y15.9368 
G01 X17.9159 Y15.9368 
G01 X17.8361 Y15.9582 
G01 X17.7646 Y15.9995 
G01 X17.7063 Y16.0578 
G01 X17.6650 Y16.1294 
G01 X17.6436 Y16.2091 
G01 X17.6436 Y17.0775 
G01 X17.5819 Y17.0419 
G01 X17.5021 Y17.0205 
G01 X17.4132 Y17.0205 
G01 X17.4132 Y16.2091 
G01 X17.3918 Y16.1294 
G01 X17.3506 Y16.0578 
G01 X17.2922 Y15.9995 
G01 X17.2207 Y15.9582 
G01 X17.1409 Y15.9368 
G01 X17.0583 Y15.9368 
G01 X16.9786 Y15.9582 
G01 X16.9071 Y15.9995 
G01 X16.8487 Y16.0578 
G01 X16.8074 Y16.1294 
G01 X16.7860 Y16.2091 
G01 X16.7860 Y17.0488 
G01 X16.7264 Y17.0832 
G01 X16.6783 Y17.1313 
G01 X16.6783 Y16.6215 
G01 X16.6449 Y16.4642 
G01 X16.5795 Y16.3173 
G01 X16.4849 Y16.1872 
G01 X16.3654 Y16.0795 
G01 X16.2261 Y15.9991 
G01 X16.0731 Y15.9494 
G01 X15.9132 Y15.9326 
G01 X15.7532 Y15.9494 
G01 X15.6002 Y15.9991 
G01 X15.4609 Y16.0795 
G01 X15.3414 Y16.1871 
G01 X15.2469 Y16.3173 
G00 Z2.5400 
G00 X15.8106 Y16.6096 
G01 Z-0.1778 F254.00 
G01 X15.8321 Y16.5903 F508.00 
G01 X15.8570 Y16.5759 
G01 X15.8845 Y16.5670 
G01 X15.9132 Y16.5640 
G01 X15.9418 Y16.5670 
G01 X15.9693 Y16.5759 
G01 X15.9942 Y16.5903 
G01 X16.0157 Y16.6096 
G01 X16.0326 Y16.6330 
G01 X16.0444 Y16.6593 
G01 X16.0504 Y16.6875 
G01 X16.0511 Y16.7020 
G01 X16.0511 Y17.3832 
G01 X16.0511 Y17.4244 
G01 X16.0504 Y17.4389 
G01 X16.0444 Y17.4671 
G01 X16.0326 Y17.4934 
G01 X16.0157 Y17.5168 
G01 X15.9942 Y17.5361 
G01 X15.9693 Y17.5505 
G01 X15.9418 Y17.5594 
G01 X15.9132 Y17.5624 
G01 X15.8845 Y17.5594 
G01 X15.8570 Y17.5505 
G01 X15.8321 Y17.5361 
G01 X15.8106 Y17.5168 
G01 X15.7937 Y17.4934 
G01 X15.7820 Y17.4671 
G01 X15.7760 Y17.4389 
G01 X15.7752 Y17.4245 
G01 X15.7752 Y16.7019 
G01 X15.7760 Y16.6875 
G01 X15.7820 Y16.6593 
G01 X15.7937 Y16.6330 
G01 X15.8106 Y16.6096 
G00 Z2.5400 
G00 X15.9946 Y15.3767 
G01 Z-0.1778 F254.00 
G01 X16.1519 Y15.3433 F508.00 
G01 X16.2989 Y15.2778 
G01 X16.4290 Y15.1833 
G01 X16.5366 Y15.0638 
G01 X16.6171 Y14.9245 
G01 X16.6668 Y14.7715 
G01 X16.6836 Y14.6115 
G01 X16.6668 Y14.4516 
G01 X16.6171 Y14.2986 
G01 X16.5366 Y14.1593 
G01 X16.4290 Y14.0398 
G01 X16.4189 Y14.0324 
G01 X16.6647 Y13.5408 
G01 X16.6813 Y13.4599 
G01 X16.6763 Y13.3775 
G01 X16.6502 Y13.2992 
G01 X16.6047 Y13.2303 
G01 X16.5429 Y13.1755 
G01 X16.4691 Y13.1385 
G01 X16.3882 Y13.1220 
G01 X16.3058 Y13.1269 
G01 X16.2274 Y13.1531 
G01 X16.1585 Y13.1985 
G01 X16.1037 Y13.2603 
G01 X15.8107 Y13.8464 
G01 X15.7762 Y13.8464 
G01 X15.7762 Y13.3962 
G01 X15.7549 Y13.3165 
G01 X15.7136 Y13.2449 
G01 X15.6552 Y13.1866 
G01 X15.5837 Y13.1453 
G01 X15.5039 Y13.1239 
G01 X15.4214 Y13.1239 
G01 X15.3416 Y13.1453 
G01 X15.2701 Y13.1866 
G01 X15.2117 Y13.2449 
G01 X15.1704 Y13.3165 
G01 X15.1491 Y13.3962 
G01 X15.1491 Y14.1187 
G01 X15.1491 Y15.1044 
G01 X15.1704 Y15.1841 
G01 X15.2117 Y15.2557 
G01 X15.2701 Y15.3140 
G01 X15.3416 Y15.3553 
G01 X15.4214 Y15.3767 
G01 X15.9946 Y15.3767 
G00 Z2.5400 
G00 X15.9832 Y14.7310 
G01 Z-0.1778 F254.00 
G01 X15.9568 Y14.7427 F508.00 
G01 X15.9286 Y14.7487 
G01 X15.9142 Y14.7495 
G01 X15.7762 Y14.7495 
G01 X15.7762 Y14.4736 
G01 X15.9142 Y14.4736 
G01 X15.9286 Y14.4743 
G01 X15.9568 Y14.4803 
G01 X15.9832 Y14.4921 
G01 X16.0065 Y14.5090 
G01 X16.0258 Y14.5305 
G01 X16.0402 Y14.5554 
G01 X16.0491 Y14.5829 
G01 X16.0522 Y14.6115 
G01 X16.0491 Y14.6402 
G01 X16.0402 Y14.6677 
G01 X16.0258 Y14.6926 
G01 X16.0065 Y14.7141 
G01 X15.9832 Y14.7310 
G00 Z2.5400 
G00 X16.6157 Y15.0031 
G01 Z-0.1778 F254.00 
G01 X16.6108 Y15.0855 F508.00 
G01 X16.6274 Y15.1664 
G01 X16.6643 Y15.2403 
G01 X16.7191 Y15.3021 
G01 X16.7880 Y15.3476 
G01 X16.8663 Y15.3737 
G01 X16.9487 Y15.3786 
G01 X17.0296 Y15.3621 
G01 X17.1035 Y15.3251 
G01 X17.1653 Y15.2703 
G01 X17.2108 Y15.2014 
G01 X17.4682 Y14.4292 
G01 X17.7256 Y15.2014 
G01 X17.7711 Y15.2703 
G01 X17.8329 Y15.3251 
G01 X17.9067 Y15.3621 
G01 X17.9876 Y15.3786 
G01 X18.0700 Y15.3737 
G01 X18.1484 Y15.3476 
G01 X18.2173 Y15.3021 
G01 X18.2721 Y15.2403 
G01 X18.2943 Y15.1959 
G01 X18.3288 Y15.2557 
G01 X18.3872 Y15.3140 
G01 X18.4587 Y15.3553 
G01 X18.5385 Y15.3767 
G01 X19.1976 Y15.3767 
G01 X19.3459 Y15.3429 
G01 X19.4829 Y15.2769 
G01 X19.6018 Y15.1821 
G01 X19.6966 Y15.0632 
G01 X19.7626 Y14.9261 
G01 X19.7965 Y14.7779 
G01 X19.7965 Y14.6258 
G01 X19.7626 Y14.4776 
G01 X19.6966 Y14.3405 
G01 X19.6720 Y14.3096 
G01 X19.7341 Y14.2020 
G01 X19.7839 Y14.0490 
G01 X19.8007 Y13.8891 
G01 X19.7839 Y13.7291 
G01 X19.7341 Y13.5761 
G01 X19.6537 Y13.4368 
G01 X19.5461 Y13.3173 
G01 X19.4160 Y13.2228 
G01 X19.2690 Y13.1573 
G01 X19.1117 Y13.1239 
G01 X18.5385 Y13.1239 
G01 X18.4587 Y13.1453 
G01 X18.3872 Y13.1866 
G01 X18.3288 Y13.2449 
G01 X18.2875 Y13.3165 
G01 X18.2661 Y13.3962 
G01 X18.2661 Y13.4788 
G01 X18.2875 Y13.5585 
G01 X18.3288 Y13.6301 
G01 X18.3872 Y13.6884 
G01 X18.4587 Y13.7297 
G01 X18.5385 Y13.7511 
G01 X19.0313 Y13.7511 
G01 X19.0457 Y13.7519 
G01 X19.0739 Y13.7578 
G01 X19.1003 Y13.7696 
G01 X19.1236 Y13.7865 
G01 X19.1429 Y13.8080 
G01 X19.1573 Y13.8329 
G01 X19.1662 Y13.8604 
G01 X19.1693 Y13.8890 
G01 X19.1662 Y13.9177 
G01 X19.1573 Y13.9452 
G01 X19.1429 Y13.9701 
G01 X19.1236 Y13.9916 
G01 X19.1003 Y14.0085 
G01 X19.0739 Y14.0203 
G01 X19.0457 Y14.0262 
G01 X19.0313 Y14.0270 
G01 X18.9900 Y14.0270 
G01 X18.7191 Y14.0270 
G01 X18.6393 Y14.0484 
G01 X18.5678 Y14.0897 
G01 X18.5094 Y14.1481 
G01 X18.4681 Y14.2196 
G01 X18.4468 Y14.2993 
G01 X18.4468 Y14.3819 
G01 X18.4681 Y14.4617 
G01 X18.5094 Y14.5332 
G01 X18.5678 Y14.5915 
G01 X18.6393 Y14.6328 
G01 X18.7191 Y14.6542 
G01 X19.1217 Y14.6542 
G01 X19.1269 Y14.6545 
G01 X19.1373 Y14.6569 
G01 X19.1470 Y14.6615 
G01 X19.1553 Y14.6682 
G01 X19.1620 Y14.6765 
G01 X19.1666 Y14.6861 
G01 X19.1690 Y14.6965 
G01 X19.1690 Y14.7072 
G01 X19.1666 Y14.7176 
G01 X19.1620 Y14.7272 
G01 X19.1553 Y14.7355 
G01 X19.1470 Y14.7422 
G01 X19.1373 Y14.7468 
G01 X19.1269 Y14.7492 
G01 X19.1216 Y14.7495 
G01 X18.5385 Y14.7495 
G01 X18.4587 Y14.7709 
G01 X18.3872 Y14.8122 
G01 X18.3288 Y14.8705 
G01 X18.2956 Y14.9281 
G01 X17.7716 Y13.3562 
G01 X17.7671 Y13.3342 
G01 X17.7586 Y13.3172 
G01 X17.7526 Y13.2992 
G01 X17.7402 Y13.2804 
G01 X17.7302 Y13.2603 
G01 X17.7176 Y13.2461 
G01 X17.7071 Y13.2303 
G01 X17.6903 Y13.2154 
G01 X17.6754 Y13.1985 
G01 X17.6596 Y13.1881 
G01 X17.6453 Y13.1755 
G01 X17.6253 Y13.1654 
G01 X17.6065 Y13.1530 
G01 X17.5885 Y13.1470 
G01 X17.5715 Y13.1385 
G01 X17.5495 Y13.1340 
G01 X17.5282 Y13.1269 
G01 X17.5092 Y13.1258 
G01 X17.4906 Y13.1220 
G01 X17.4682 Y13.1233 
G01 X17.4458 Y13.1220 
G01 X17.4271 Y13.1258 
G01 X17.4082 Y13.1269 
G01 X17.3869 Y13.1340 
G01 X17.3649 Y13.1385 
G01 X17.3479 Y13.1470 
G01 X17.3298 Y13.1530 
G01 X17.3111 Y13.1654 
G01 X17.2910 Y13.1755 
G01 X17.2768 Y13.1881 
G01 X17.2609 Y13.1985 
G01 X17.2460 Y13.2154 
G01 X17.2292 Y13.2303 
G01 X17.2188 Y13.2461 
G01 X17.2061 Y13.2603 
G01 X17.1961 Y13.2804 
G01 X17.1837 Y13.2992 
G01 X17.1777 Y13.3172 
G01 X17.1692 Y13.3342 
G01 X17.1647 Y13.3562 
G01 X16.6157 Y15.0031 
G00 Z2.5400 
G00 X18.1756 Y23.3238 
G01 Z-0.1778 F254.00 
G01 X18.0671 Y23.4862 F508.00 
G01 X18.0048 Y23.6367 
G01 X16.3856 Y25.1296 
G01 X16.3708 Y25.1395 
G01 X16.3226 Y25.1878 
G01 X16.2724 Y25.2340 
G01 X16.2619 Y25.2485 
G01 X16.2493 Y25.2611 
G01 X16.2114 Y25.3178 
G01 X16.1712 Y25.3729 
G01 X16.1637 Y25.3891 
G01 X16.1538 Y25.4039 
G01 X16.1277 Y25.4670 
G01 X16.0991 Y25.5289 
G01 X16.0949 Y25.5463 
G01 X16.0881 Y25.5627 
G01 X16.0748 Y25.6296 
G01 X16.0587 Y25.6960 
G01 X16.0580 Y25.7138 
G01 X16.0545 Y25.7313 
G01 X16.0545 Y25.7995 
G01 X16.0518 Y25.8677 
G01 X16.0545 Y25.8853 
G01 X16.0545 Y27.1164 
G01 X7.3430 Y27.1164 
G01 X7.3175 Y27.0909 
G01 X7.1676 Y26.9820 
G01 X7.0025 Y26.8978 
G01 X6.8262 Y26.8406 
G01 X6.6432 Y26.8116 
G01 X6.4579 Y26.8116 
G01 X6.2749 Y26.8406 
G01 X6.0987 Y26.8978 
G01 X5.9336 Y26.9820 
G01 X5.7837 Y27.0909 
G01 X5.6527 Y27.2219 
G01 X5.5437 Y27.3718 
G01 X5.4596 Y27.5369 
G01 X5.4024 Y27.7131 
G01 X5.3734 Y27.8961 
G01 X5.3734 Y28.0814 
G01 X5.4024 Y28.2644 
G01 X5.4596 Y28.4407 
G01 X5.5437 Y28.6058 
G01 X5.6527 Y28.7557 
G01 X5.7837 Y28.8867 
G01 X5.9336 Y28.9956 
G01 X6.0987 Y29.0797 
G01 X6.2749 Y29.1370 
G01 X6.4579 Y29.1660 
G01 X6.6432 Y29.1660 
G01 X6.8262 Y29.1370 
G01 X7.0025 Y29.0797 
G01 X7.1676 Y28.9956 
G01 X7.3175 Y28.8867 
G01 X7.3430 Y28.8612 
G01 X16.5711 Y28.8612 
G01 X16.7397 Y28.8277 
G01 X16.8984 Y28.7619 
G01 X17.0413 Y28.6664 
G01 X17.4831 Y28.2247 
G01 X17.6046 Y28.1032 
G01 X17.7001 Y27.9603 
G01 X17.7658 Y27.8015 
G01 X17.7993 Y27.6330 
G01 X17.7993 Y26.1994 
G01 X19.1888 Y24.9183 
G01 X19.2349 Y24.9091 
G01 X19.4153 Y24.8344 
G01 X19.5777 Y24.7259 
G01 X19.7158 Y24.5878 
G01 X19.8243 Y24.4254 
G01 X19.8990 Y24.2450 
G01 X19.9371 Y24.0535 
G01 X19.9371 Y23.8582 
G01 X19.8990 Y23.6666 
G01 X19.8243 Y23.4862 
G01 X19.7158 Y23.3238 
G01 X19.5777 Y23.1857 
G01 X19.4153 Y23.0772 
G01 X19.2349 Y23.0025 
G01 X19.0434 Y22.9644 
G01 X18.8481 Y22.9644 
G01 X18.6565 Y23.0025 
G01 X18.4761 Y23.0772 
G01 X18.3137 Y23.1857 
G01 X18.1756 Y23.3238 
G00 Z2.5400 
G00 X23.8329 Y23.0931 
G01 Z-0.1778 F254.00 
G01 X23.9201 Y23.1292 F508.00 
G01 X25.8146 Y23.1292 
G01 X25.9018 Y23.0931 
G01 X25.9686 Y23.0263 
G01 X26.0048 Y22.9391 
G01 X26.0048 Y22.8833 
G01 X28.2232 Y23.4958 
G01 X28.1524 Y23.6666 
G01 X28.1143 Y23.8582 
G01 X28.1143 Y24.0535 
G01 X28.1524 Y24.2450 
G01 X28.2271 Y24.4254 
G01 X28.3356 Y24.5878 
G01 X28.4737 Y24.7259 
G01 X28.6361 Y24.8344 
G01 X28.8165 Y24.9091 
G01 X29.0081 Y24.9472 
G01 X29.2034 Y24.9472 
G01 X29.3949 Y24.9091 
G01 X29.5753 Y24.8344 
G01 X29.7377 Y24.7259 
G01 X29.8758 Y24.5878 
G01 X29.9843 Y24.4254 
G01 X30.0590 Y24.2450 
G01 X30.0971 Y24.0535 
G01 X30.0971 Y23.8582 
G01 X30.0590 Y23.6666 
G01 X29.9843 Y23.4862 
G01 X29.8758 Y23.3238 
G01 X29.7377 Y23.1857 
G01 X29.5753 Y23.0772 
G01 X29.5558 Y23.0692 
G01 X29.5519 Y23.0542 
G01 X29.5484 Y23.0223 
G01 X29.5341 Y22.9854 
G01 X29.5241 Y22.9471 
G01 X29.5083 Y22.9192 
G01 X29.4966 Y22.8893 
G01 X29.4732 Y22.8574 
G01 X29.4537 Y22.8230 
G01 X29.4311 Y22.8001 
G01 X29.4121 Y22.7742 
G01 X29.3813 Y22.7494 
G01 X29.3535 Y22.7212 
G01 X29.3258 Y22.7050 
G01 X29.3008 Y22.6849 
G01 X29.2645 Y22.6690 
G01 X29.2304 Y22.6489 
G01 X29.1995 Y22.6404 
G01 X29.1700 Y22.6275 
G01 X29.1309 Y22.6215 
G01 X26.0048 Y21.7584 
G01 X26.0048 Y21.0746 
G01 X25.9686 Y20.9874 
G01 X25.9018 Y20.9206 
G01 X25.8146 Y20.8845 
G01 X23.9201 Y20.8845 
G01 X23.8329 Y20.9206 
G01 X23.7661 Y20.9874 
G01 X23.7300 Y21.0746 
G01 X23.7300 Y22.9391 
G01 X23.7661 Y23.0263 
G01 X23.8329 Y23.0931 
G00 Z2.5400 
G00 X23.6858 Y29.4489 
G01 Z-0.1778 F254.00 
G01 X23.5986 Y29.4850 F508.00 
G01 X23.5318 Y29.5518 
G01 X23.4957 Y29.6391 
G01 X23.4957 Y29.8856 
G01 X20.8352 Y29.8856 
G01 X20.6973 Y29.9226 
G01 X20.5736 Y29.9939 
G01 X20.4727 Y30.0949 
G01 X19.9540 Y30.6136 
G01 X19.8826 Y30.7373 
G01 X19.8456 Y30.8752 
G01 X19.8456 Y31.0677 
G01 X19.7906 Y31.0677 
G01 X19.7034 Y31.1039 
G01 X19.6366 Y31.1706 
G01 X19.6004 Y31.2579 
G01 X19.6004 Y32.3523 
G01 X19.6366 Y32.4396 
G01 X19.7034 Y32.5064 
G01 X19.7906 Y32.5425 
G01 X20.9851 Y32.5425 
G01 X21.0723 Y32.5064 
G01 X21.1391 Y32.4396 
G01 X21.1752 Y32.3523 
G01 X21.1752 Y31.2579 
G01 X21.1391 Y31.1706 
G01 X21.0723 Y31.1039 
G01 X21.0193 Y31.0819 
G01 X21.1311 Y30.9700 
G01 X23.4957 Y30.9700 
G01 X23.4957 Y31.1335 
G01 X23.5318 Y31.2208 
G01 X23.5986 Y31.2876 
G01 X23.6858 Y31.3237 
G01 X24.7803 Y31.3237 
G01 X24.8675 Y31.2876 
G01 X24.9343 Y31.2208 
G01 X24.9705 Y31.1335 
G01 X24.9705 Y29.6391 
G01 X24.9343 Y29.5518 
G01 X24.8675 Y29.4850 
G01 X24.7803 Y29.4489 
G01 X23.6858 Y29.4489 
G00 Z2.5400 
G00 X24.4818 Y31.7518 
G01 Z-0.1778 F254.00 
G01 X24.4457 Y31.8391 F508.00 
G01 X24.4457 Y33.3335 
G01 X24.4818 Y33.4208 
G01 X24.5486 Y33.4876 
G01 X24.6358 Y33.5237 
G01 X25.7303 Y33.5237 
G01 X25.8175 Y33.4876 
G01 X25.8843 Y33.4208 
G01 X25.9205 Y33.3335 
G01 X25.9205 Y33.1285 
G01 X27.3210 Y33.1285 
G01 X27.4589 Y33.0915 
G01 X27.5826 Y33.0202 
G01 X27.8209 Y32.7819 
G01 X27.8425 Y32.7664 
G01 X27.8711 Y32.7316 
G01 X27.9030 Y32.6997 
G01 X27.9163 Y32.6767 
G01 X28.8115 Y31.5885 
G01 X31.6086 Y30.2786 
G01 X31.6216 Y30.2757 
G01 X31.6730 Y30.2485 
G01 X31.7257 Y30.2238 
G01 X31.7360 Y30.2151 
G01 X31.7478 Y30.2089 
G01 X31.7904 Y30.1693 
G01 X31.8349 Y30.1318 
G01 X31.8426 Y30.1208 
G01 X31.8524 Y30.1117 
G01 X31.8833 Y30.0624 
G01 X31.9166 Y30.0147 
G01 X31.9212 Y30.0022 
G01 X31.9283 Y29.9908 
G01 X31.9454 Y29.9352 
G01 X31.9652 Y29.8805 
G01 X31.9664 Y29.8672 
G01 X31.9703 Y29.8544 
G01 X31.9724 Y29.7962 
G01 X31.9774 Y29.7383 
G01 X31.9751 Y29.7251 
G01 X32.1568 Y24.8066 
G01 X32.2777 Y24.7259 
G01 X32.4158 Y24.5878 
G01 X32.5243 Y24.4254 
G01 X32.5990 Y24.2450 
G01 X32.6371 Y24.0535 
G01 X32.6371 Y23.8582 
G01 X32.5990 Y23.6666 
G01 X32.5243 Y23.4862 
G01 X32.4158 Y23.3238 
G01 X32.2777 Y23.1857 
G01 X32.1153 Y23.0772 
G01 X31.9349 Y23.0025 
G01 X31.7434 Y22.9644 
G01 X31.5481 Y22.9644 
G01 X31.3565 Y23.0025 
G01 X31.1761 Y23.0772 
G01 X31.0137 Y23.1857 
G01 X30.8756 Y23.3238 
G01 X30.7671 Y23.4862 
G01 X30.6924 Y23.6666 
G01 X30.6543 Y23.8582 
G01 X30.6543 Y24.0535 
G01 X30.6924 Y24.2450 
G01 X30.7671 Y24.4254 
G01 X30.8756 Y24.5878 
G01 X31.0137 Y24.7259 
G01 X31.0732 Y24.7656 
G01 X30.9015 Y29.4123 
G01 X28.2601 Y30.6493 
G01 X28.2134 Y30.6669 
G01 X28.1957 Y30.6795 
G01 X28.1760 Y30.6887 
G01 X28.1378 Y30.7209 
G01 X28.0973 Y30.7499 
G01 X28.0835 Y30.7667 
G01 X28.0668 Y30.7807 
G01 X28.0383 Y30.8216 
G01 X27.0671 Y32.0020 
G01 X27.0251 Y32.0441 
G01 X25.9205 Y32.0441 
G01 X25.9205 Y31.8391 
G01 X25.8843 Y31.7518 
G01 X25.8175 Y31.6850 
G01 X25.7303 Y31.6489 
G01 X24.6358 Y31.6489 
G01 X24.5486 Y31.6850 
G01 X24.4818 Y31.7518 
G00 Z2.5400 
G00 X21.0723 Y32.8039 
G01 Z-0.1778 F254.00 
G01 X20.9851 Y32.7677 F508.00 
G01 X19.7906 Y32.7677 
G01 X19.7034 Y32.8039 
G01 X19.6366 Y32.8706 
G01 X19.6004 Y32.9579 
G01 X19.6004 Y33.8656 
G01 X17.1136 Y33.8656 
G01 X16.5764 Y33.3284 
G01 X16.4528 Y33.2570 
G01 X16.3149 Y33.2201 
G01 X14.1998 Y33.2201 
G01 X13.8006 Y32.8209 
G01 X13.0207 Y32.8209 
G01 X12.4693 Y33.3723 
G01 X12.4693 Y34.1522 
G01 X13.0207 Y34.7037 
G01 X13.8006 Y34.7037 
G01 X14.1998 Y34.3045 
G01 X16.0189 Y34.3045 
G01 X16.4552 Y34.7407 
G01 X16.5561 Y34.8417 
G01 X16.6798 Y34.9131 
G01 X16.8177 Y34.9500 
G01 X20.4473 Y34.9500 
G01 X20.5852 Y34.9131 
G01 X20.7089 Y34.8417 
G01 X20.7468 Y34.8038 
G01 X20.8477 Y34.7028 
G01 X20.9191 Y34.5792 
G01 X20.9560 Y34.4413 
G01 X20.9560 Y34.2425 
G01 X20.9851 Y34.2425 
G01 X21.0723 Y34.2064 
G01 X21.1391 Y34.1396 
G01 X21.1752 Y34.0523 
G01 X21.1752 Y32.9579 
G01 X21.1391 Y32.8706 
G01 X21.0723 Y32.8039 
G00 Z2.5400 
G00 X20.7847 Y35.6038 
G01 Z-0.1778 F254.00 
G01 X20.6610 Y35.5325 F508.00 
G01 X20.5231 Y35.4955 
G01 X18.9780 Y35.4955 
G01 X18.8401 Y35.5325 
G01 X18.7165 Y35.6038 
G01 X18.6155 Y35.7048 
G01 X17.9530 Y36.3673 
G01 X16.4457 Y36.3673 
G01 X16.4133 Y36.3112 
G01 X15.9206 Y35.8185 
G01 X15.8196 Y35.7176 
G01 X15.6960 Y35.6462 
G01 X15.5581 Y35.6092 
G01 X14.0490 Y35.6092 
G01 X13.8006 Y35.3609 
G01 X13.0207 Y35.3609 
G01 X12.4693 Y35.9123 
G01 X12.4693 Y36.6922 
G01 X13.0207 Y37.2437 
G01 X13.8006 Y37.2437 
G01 X14.3507 Y36.6936 
G01 X15.2621 Y36.6936 
G01 X15.4372 Y36.8687 
G01 X15.4372 Y40.0820 
G01 X5.7054 Y40.0820 
G01 X4.8954 Y39.2720 
G01 X4.9200 Y39.1964 
G01 X4.9490 Y39.0134 
G01 X4.9490 Y38.8281 
G01 X4.9200 Y38.6451 
G01 X4.8627 Y38.4689 
G01 X4.7786 Y38.3038 
G01 X4.6697 Y38.1539 
G01 X4.5387 Y38.0229 
G01 X4.3888 Y37.9140 
G01 X4.2237 Y37.8298 
G01 X4.0474 Y37.7726 
G01 X3.8644 Y37.7436 
G01 X3.6791 Y37.7436 
G01 X3.4961 Y37.7726 
G01 X3.3199 Y37.8298 
G01 X3.1548 Y37.9140 
G01 X3.0049 Y38.0229 
G01 X2.8739 Y38.1539 
G01 X2.7649 Y38.3038 
G01 X2.6808 Y38.4689 
G01 X2.6236 Y38.6451 
G01 X2.5946 Y38.8281 
G01 X2.5946 Y39.0134 
G01 X2.6236 Y39.1964 
G01 X2.6808 Y39.3727 
G01 X2.7649 Y39.5378 
G01 X2.8739 Y39.6877 
G01 X3.0049 Y39.8187 
G01 X3.1548 Y39.9276 
G01 X3.3199 Y40.0117 
G01 X3.4961 Y40.0690 
G01 X3.6791 Y40.0980 
G01 X3.8644 Y40.0980 
G01 X4.0474 Y40.0690 
G01 X4.1315 Y40.0417 
G01 X5.0469 Y40.9571 
G01 X5.1479 Y41.0581 
G01 X5.2715 Y41.1294 
G01 X5.4094 Y41.1664 
G01 X15.9750 Y41.1664 
G01 X16.1129 Y41.1294 
G01 X16.2365 Y41.0581 
G01 X16.3123 Y40.9823 
G01 X16.4133 Y40.8813 
G01 X16.4847 Y40.7577 
G01 X16.5216 Y40.6198 
G01 X16.5216 Y37.4517 
G01 X18.2490 Y37.4517 
G01 X18.3869 Y37.4148 
G01 X18.5105 Y37.3434 
G01 X19.2740 Y36.5799 
G01 X19.6273 Y36.5799 
G01 X19.6273 Y37.5887 
G01 X19.6635 Y37.6760 
G01 X19.7303 Y37.7428 
G01 X19.8175 Y37.7789 
G01 X21.0120 Y37.7789 
G01 X21.0992 Y37.7428 
G01 X21.1660 Y37.6760 
G01 X21.2021 Y37.5887 
G01 X21.2021 Y36.4943 
G01 X21.1660 Y36.4070 
G01 X21.0992 Y36.3403 
G01 X21.0120 Y36.3041 
G01 X20.9939 Y36.3041 
G01 X20.9939 Y35.9663 
G01 X20.9570 Y35.8284 
G01 X20.8856 Y35.7048 
G01 X20.7847 Y35.6038 
G00 Z2.5400 
G00 X14.3521 Y38.4523 
G01 Z-0.1778 F254.00 
G01 X13.8006 Y37.9009 F508.00 
G01 X13.0207 Y37.9009 
G01 X12.4693 Y38.4523 
G01 X12.4693 Y39.2322 
G01 X13.0207 Y39.7837 
G01 X13.8006 Y39.7837 
G01 X14.3521 Y39.2322 
G01 X14.3521 Y38.4523 
G00 Z2.5400 
G00 X11.8121 Y36.6922 
G01 Z-0.1778 F254.00 
G01 X11.8121 Y35.9123 F508.00 
G01 X11.2606 Y35.3609 
G01 X10.4807 Y35.3609 
G01 X9.9293 Y35.9123 
G01 X9.9293 Y36.6922 
G01 X10.4807 Y37.2437 
G01 X11.2606 Y37.2437 
G01 X11.8121 Y36.6922 
G00 Z2.5400 
G00 X11.8121 Y31.6122 
G01 Z-0.1778 F254.00 
G01 X11.8121 Y30.8323 F508.00 
G01 X11.2606 Y30.2809 
G01 X10.4807 Y30.2809 
G01 X9.9293 Y30.8323 
G01 X9.9293 Y31.6122 
G01 X10.4807 Y32.1637 
G01 X11.2606 Y32.1637 
G01 X11.8121 Y31.6122 
G00 Z2.5400 
G00 X40.3818 Y35.7658 
G01 Z-0.1778 F254.00 
G01 X42.0564 Y35.7658 F508.00 
G01 X42.0841 Y35.7544 
G01 X42.0841 Y42.5938 
G01 X38.1616 Y42.5938 
G01 X38.1684 Y42.5870 
G01 X38.1832 Y42.5613 
G01 X40.1896 Y40.0657 
G01 X40.2171 Y40.0389 
G01 X40.2341 Y40.0103 
G01 X40.2550 Y39.9844 
G01 X40.2705 Y39.9492 
G01 X40.2901 Y39.9162 
G01 X40.2992 Y39.8842 
G01 X40.3126 Y39.8538 
G01 X40.3185 Y39.8158 
G01 X40.3289 Y39.7788 
G01 X40.3293 Y39.7455 
G01 X40.3344 Y39.7127 
G01 X40.3303 Y39.6745 
G01 X40.3818 Y35.7658 
G00 Z2.5400 
G00 X-0.4752 Y0.0578 
G01 Z-0.1778 F254.00 
G01 X-0.4452 Y0.1696 F508.00 
G01 X-0.4394 Y0.1797 
G01 X-0.4394 Y42.9641 
G01 X-0.4095 Y43.0758 
G01 X-0.3516 Y43.1760 
G01 X-0.2698 Y43.2578 
G01 X-0.1696 Y43.3157 
G01 X-0.0578 Y43.3456 
G01 X42.3138 Y43.3456 
G01 X42.3262 Y43.3423 
G01 X42.3386 Y43.3456 
G01 X42.4543 Y43.3456 
G01 X42.5661 Y43.3157 
G01 X42.6663 Y43.2578 
G01 X42.7481 Y43.1760 
G01 X42.8059 Y43.0758 
G01 X42.8359 Y42.9641 
G01 X42.8359 Y-0.1294 
G01 X42.8059 Y-0.2412 
G01 X42.7481 Y-0.3414 
G01 X42.6663 Y-0.4232 
G01 X42.5661 Y-0.4810 
G01 X42.4543 Y-0.5110 
G01 X-0.0578 Y-0.5110 
G01 X-0.1696 Y-0.4810 
G01 X-0.2698 Y-0.4232 
G01 X-0.3516 Y-0.3414 
G01 X-0.4095 Y-0.2412 
G01 X-0.4142 Y-0.2233 
G01 X-0.4452 Y-0.1696 
G01 X-0.4752 Y-0.0578 
G01 X-0.4752 Y0.0578 
G00 Z2.5400 
G00 X0.4394 Y0.3678 
G01 Z-0.1778 F254.00 
G01 X37.5249 Y0.3678 F508.00 
G01 X37.5115 Y0.4178 
G01 X37.5115 Y1.8888 
G01 X26.1546 Y1.8888 
G01 X26.0351 Y1.9126 
G01 X25.9226 Y1.9592 
G01 X25.8213 Y2.0269 
G01 X25.7351 Y2.1130 
G01 X22.5537 Y5.2945 
G01 X22.4860 Y5.3957 
G01 X22.4394 Y5.5083 
G01 X22.4156 Y5.6278 
G01 X22.4156 Y26.2714 
G01 X22.2809 Y26.2714 
G01 X22.1516 Y26.2971 
G01 X22.0298 Y26.3475 
G01 X21.9202 Y26.4208 
G01 X21.8270 Y26.5140 
G01 X19.3782 Y28.9628 
G01 X16.7112 Y28.9628 
G01 X16.7767 Y28.9498 
G01 X16.9586 Y28.8744 
G01 X17.1223 Y28.7651 
G01 X17.5640 Y28.3233 
G01 X17.7032 Y28.1841 
G01 X17.8126 Y28.0204 
G01 X17.8879 Y27.8386 
G01 X17.9263 Y27.6455 
G01 X17.9263 Y26.2551 
G01 X19.2529 Y25.0320 
G01 X19.3750 Y24.9923 
G01 X19.5319 Y24.9124 
G01 X19.6743 Y24.8089 
G01 X19.7988 Y24.6844 
G01 X19.9023 Y24.5420 
G01 X19.9822 Y24.3851 
G01 X20.0366 Y24.2177 
G01 X20.0641 Y24.0438 
G01 X20.0641 Y23.8678 
G01 X20.0366 Y23.6939 
G01 X19.9822 Y23.5265 
G01 X19.9023 Y23.3696 
G01 X19.8161 Y23.2511 
G01 X19.8354 Y23.2563 
G01 X21.7313 Y23.2563 
G01 X21.8240 Y23.2314 
G01 X21.9071 Y23.1834 
G01 X21.9749 Y23.1156 
G01 X22.0229 Y23.0325 
G01 X22.0478 Y22.9398 
G01 X22.0478 Y21.0739 
G01 X22.0229 Y20.9812 
G01 X21.9749 Y20.8981 
G01 X21.9071 Y20.8303 
G01 X21.8240 Y20.7823 
G01 X21.7313 Y20.7575 
G01 X19.8354 Y20.7575 
G01 X19.7427 Y20.7823 
G01 X19.6596 Y20.8303 
G01 X19.5918 Y20.8981 
G01 X19.5438 Y20.9812 
G01 X19.5190 Y21.0739 
G01 X19.5190 Y21.5201 
G01 X19.3641 Y21.5433 
G01 X14.3399 Y21.5433 
G01 X14.2106 Y21.5691 
G01 X14.0888 Y21.6195 
G01 X13.9792 Y21.6927 
G01 X13.8860 Y21.7859 
G01 X13.2184 Y22.4535 
G01 X13.1452 Y22.5631 
G01 X13.0948 Y22.6849 
G01 X13.0690 Y22.8142 
G01 X13.0690 Y24.8174 
G01 X12.3364 Y25.5500 
G01 X8.9560 Y25.5500 
G01 X8.5932 Y25.1873 
G01 X8.5000 Y25.0941 
G01 X8.3904 Y25.0209 
G01 X8.2686 Y24.9704 
G01 X8.1394 Y24.9447 
G01 X4.3537 Y24.9447 
G01 X4.2245 Y24.9704 
G01 X4.1027 Y25.0209 
G01 X3.9931 Y25.0941 
G01 X3.2350 Y25.8522 
G01 X3.1418 Y25.9454 
G01 X3.0685 Y26.0550 
G01 X3.0181 Y26.1768 
G01 X2.9924 Y26.3061 
G01 X2.9924 Y30.7062 
G01 X2.3071 Y30.7062 
G01 X2.1779 Y30.7319 
G01 X2.0561 Y30.7824 
G01 X1.9465 Y30.8556 
G01 X0.4682 Y32.3339 
G01 X0.4394 Y32.3627 
G01 X0.4394 Y28.7883 
G01 X0.4758 Y28.8384 
G01 X0.6209 Y28.9836 
G01 X0.7870 Y29.1042 
G01 X0.9699 Y29.1974 
G01 X1.1652 Y29.2609 
G01 X1.3679 Y29.2930 
G01 X1.5732 Y29.2930 
G01 X1.7760 Y29.2609 
G01 X1.9712 Y29.1974 
G01 X2.1541 Y29.1042 
G01 X2.3202 Y28.9836 
G01 X2.4654 Y28.8384 
G01 X2.5860 Y28.6723 
G01 X2.6792 Y28.4894 
G01 X2.7427 Y28.2942 
G01 X2.7748 Y28.0914 
G01 X2.7748 Y27.8861 
G01 X2.7427 Y27.6834 
G01 X2.6792 Y27.4881 
G01 X2.5860 Y27.3052 
G01 X2.4700 Y27.1455 
G01 X2.4700 Y18.0123 
G01 X2.4316 Y17.8192 
G01 X2.3562 Y17.6373 
G01 X2.2469 Y17.4737 
G01 X1.8581 Y17.0849 
G01 X1.8581 Y12.5338 
G01 X3.3229 Y11.0689 
G01 X3.3522 Y11.0736 
G01 X3.5995 Y11.0736 
G01 X3.8437 Y11.0349 
G01 X4.0789 Y10.9585 
G01 X4.2992 Y10.8462 
G01 X4.4992 Y10.7009 
G01 X4.6741 Y10.5261 
G01 X4.8194 Y10.3260 
G01 X4.9316 Y10.1057 
G01 X5.0081 Y9.8705 
G01 X5.0467 Y9.6263 
G01 X5.0467 Y9.3790 
G01 X5.0421 Y9.3498 
G01 X5.8217 Y8.5702 
G01 X8.1115 Y8.5702 
G01 X8.1115 Y9.5238 
G01 X8.1364 Y9.6165 
G01 X8.1843 Y9.6995 
G01 X8.2522 Y9.7674 
G01 X8.3353 Y9.8154 
G01 X8.4279 Y9.8402 
G01 X12.3339 Y9.8402 
G01 X12.4266 Y9.8154 
G01 X12.5097 Y9.7674 
G01 X12.5775 Y9.6995 
G01 X12.6255 Y9.6165 
G01 X12.6503 Y9.5238 
G01 X12.6503 Y5.6178 
G01 X12.6255 Y5.5251 
G01 X12.5775 Y5.4421 
G01 X12.5097 Y5.3742 
G01 X12.4266 Y5.3262 
G01 X12.3339 Y5.3014 
G01 X8.4279 Y5.3014 
G01 X8.3353 Y5.3262 
G01 X8.2522 Y5.3742 
G01 X8.1843 Y5.4421 
G01 X8.1364 Y5.5251 
G01 X8.1115 Y5.6178 
G01 X8.1115 Y6.5714 
G01 X5.3093 Y6.5714 
G01 X5.1162 Y6.6098 
G01 X4.9343 Y6.6851 
G01 X4.7706 Y6.7945 
G01 X3.6287 Y7.9364 
G01 X3.5995 Y7.9318 
G01 X3.3522 Y7.9318 
G01 X3.1080 Y7.9705 
G01 X2.8728 Y8.0469 
G01 X2.6525 Y8.1591 
G01 X2.4525 Y8.3045 
G01 X2.2776 Y8.4793 
G01 X2.1323 Y8.6793 
G01 X2.0200 Y8.8997 
G01 X1.9436 Y9.1348 
G01 X1.9049 Y9.3790 
G01 X1.9049 Y9.6263 
G01 X1.9096 Y9.6556 
G01 X0.4394 Y11.1258 
G01 X0.4394 Y0.3678 
G00 Z2.5400 
G00 X2.2776 Y3.4793 
G01 Z-0.1778 F254.00 
G01 X2.1323 Y3.6793 F508.00 
G01 X2.0200 Y3.8997 
G01 X1.9436 Y4.1348 
G01 X1.9049 Y4.3790 
G01 X1.9049 Y4.6263 
G01 X1.9436 Y4.8705 
G01 X2.0200 Y5.1057 
G01 X2.1323 Y5.3260 
G01 X2.2776 Y5.5261 
G01 X2.4525 Y5.7009 
G01 X2.6525 Y5.8462 
G01 X2.8728 Y5.9585 
G01 X3.1080 Y6.0349 
G01 X3.3522 Y6.0736 
G01 X3.5995 Y6.0736 
G01 X3.8437 Y6.0349 
G01 X4.0789 Y5.9585 
G01 X4.2992 Y5.8462 
G01 X4.4992 Y5.7009 
G01 X4.6741 Y5.5261 
G01 X4.8194 Y5.3260 
G01 X4.9316 Y5.1057 
G01 X5.0081 Y4.8705 
G01 X5.0467 Y4.6263 
G01 X5.0467 Y4.3790 
G01 X5.0442 Y4.3632 
G01 X13.3613 Y4.3632 
G01 X14.0997 Y5.1016 
G01 X14.0997 Y10.1426 
G01 X12.6503 Y11.5920 
G01 X12.6503 Y10.6978 
G01 X12.6255 Y10.6051 
G01 X12.5775 Y10.5221 
G01 X12.5097 Y10.4542 
G01 X12.4266 Y10.4062 
G01 X12.3339 Y10.3814 
G01 X8.4279 Y10.3814 
G01 X8.3353 Y10.4062 
G01 X8.2522 Y10.4542 
G01 X8.1843 Y10.5221 
G01 X8.1364 Y10.6051 
G01 X8.1115 Y10.6978 
G01 X8.1115 Y14.6038 
G01 X8.1364 Y14.6965 
G01 X8.1843 Y14.7795 
G01 X8.2522 Y14.8474 
G01 X8.3353 Y14.8954 
G01 X8.4279 Y14.9202 
G01 X12.3339 Y14.9202 
G01 X12.4266 Y14.8954 
G01 X12.5097 Y14.8474 
G01 X12.5775 Y14.7795 
G01 X12.6255 Y14.6965 
G01 X12.6503 Y14.6038 
G01 X12.6503 Y13.6502 
G01 X13.1033 Y13.6502 
G01 X13.2964 Y13.6118 
G01 X13.4783 Y13.5365 
G01 X13.6419 Y13.4271 
G01 X15.7362 Y11.3329 
G01 X15.8754 Y11.1937 
G01 X15.9847 Y11.0300 
G01 X16.0601 Y10.8481 
G01 X16.0985 Y10.6550 
G01 X16.0985 Y4.5892 
G01 X16.0601 Y4.3961 
G01 X15.9847 Y4.2143 
G01 X15.8754 Y4.0506 
G01 X14.5515 Y2.7267 
G01 X14.4123 Y2.5875 
G01 X14.2486 Y2.4781 
G01 X14.0667 Y2.4028 
G01 X13.8737 Y2.3644 
G01 X4.5163 Y2.3644 
G01 X4.3232 Y2.4028 
G01 X4.1413 Y2.4781 
G01 X3.9776 Y2.5875 
G01 X3.6287 Y2.9364 
G01 X3.5995 Y2.9318 
G01 X3.3522 Y2.9318 
G01 X3.1080 Y2.9705 
G01 X2.8728 Y3.0469 
G01 X2.6525 Y3.1591 
G01 X2.4525 Y3.3045 
G01 X2.2776 Y3.4793 
G00 Z2.5400 
G00 X2.2214 Y12.9318 
G01 Z-0.1778 F254.00 
G01 X2.1287 Y12.9566 F508.00 
G01 X2.0456 Y13.0046 
G01 X1.9777 Y13.0724 
G01 X1.9298 Y13.1555 
G01 X1.9049 Y13.2482 
G01 X1.9049 Y15.7572 
G01 X1.9298 Y15.8498 
G01 X1.9777 Y15.9329 
G01 X2.0456 Y16.0008 
G01 X2.1287 Y16.0487 
G01 X2.2214 Y16.0736 
G01 X2.8502 Y16.0736 
G01 X5.6199 Y18.8433 
G01 X5.6199 Y20.8242 
G01 X5.6583 Y21.0173 
G01 X5.7336 Y21.1992 
G01 X5.8430 Y21.3629 
G01 X7.2928 Y22.8128 
G01 X7.3627 Y22.8827 
G01 X7.4311 Y22.9510 
G01 X7.5145 Y23.0067 
G01 X7.5948 Y23.0604 
G01 X7.6874 Y23.0987 
G01 X7.7767 Y23.1357 
G01 X7.7792 Y23.1365 
G01 X7.8745 Y23.1552 
G01 X7.9698 Y23.1741 
G01 X7.9724 Y23.1744 
G01 X8.0689 Y23.1741 
G01 X8.1666 Y23.1741 
G01 X10.0169 Y23.1690 
G01 X10.3447 Y23.4176 
G01 X10.2893 Y23.5265 
G01 X10.2349 Y23.6939 
G01 X10.2073 Y23.8678 
G01 X10.2073 Y24.0438 
G01 X10.2349 Y24.2177 
G01 X10.2893 Y24.3851 
G01 X10.3692 Y24.5420 
G01 X10.4726 Y24.6844 
G01 X10.5971 Y24.8089 
G01 X10.7395 Y24.9124 
G01 X10.8964 Y24.9923 
G01 X11.0638 Y25.0467 
G01 X11.2377 Y25.0742 
G01 X11.4137 Y25.0742 
G01 X11.5876 Y25.0467 
G01 X11.7550 Y24.9923 
G01 X11.9119 Y24.9124 
G01 X12.0543 Y24.8089 
G01 X12.1788 Y24.6844 
G01 X12.2823 Y24.5420 
G01 X12.3622 Y24.3851 
G01 X12.4166 Y24.2177 
G01 X12.4441 Y24.0438 
G01 X12.4441 Y23.8678 
G01 X12.4166 Y23.6939 
G01 X12.3622 Y23.5265 
G01 X12.3466 Y23.4959 
G01 X12.3689 Y22.9938 
G01 X12.3744 Y22.9033 
G01 X12.3733 Y22.8956 
G01 X12.3737 Y22.8878 
G01 X12.3599 Y22.7981 
G01 X12.3476 Y22.7083 
G01 X12.3451 Y22.7009 
G01 X12.3439 Y22.6932 
G01 X12.3129 Y22.6079 
G01 X12.2833 Y22.5222 
G01 X12.2794 Y22.5155 
G01 X12.2767 Y22.5082 
G01 X12.2297 Y22.4306 
G01 X12.1839 Y22.3523 
G01 X12.1788 Y22.3464 
G01 X12.1747 Y22.3398 
G01 X12.1135 Y22.2728 
G01 X12.0533 Y22.2050 
G01 X12.0471 Y22.2003 
G01 X12.0419 Y22.1945 
G01 X11.9687 Y22.1408 
G01 X11.0093 Y21.4129 
G01 X10.9870 Y21.3907 
G01 X10.9311 Y21.3536 
G01 X10.8776 Y21.3130 
G01 X10.8492 Y21.2992 
G01 X10.8230 Y21.2818 
G01 X10.7609 Y21.2562 
G01 X10.7005 Y21.2269 
G01 X10.6701 Y21.2189 
G01 X10.6409 Y21.2069 
G01 X10.5750 Y21.1940 
G01 X10.5101 Y21.1770 
G01 X10.4786 Y21.1751 
G01 X10.4477 Y21.1690 
G01 X10.3806 Y21.1692 
G01 X10.3136 Y21.1652 
G01 X10.2824 Y21.1695 
G01 X8.4810 Y21.1742 
G01 X7.6187 Y20.3119 
G01 X7.6187 Y18.3309 
G01 X7.5803 Y18.1378 
G01 X7.5049 Y17.9559 
G01 X7.3955 Y17.7922 
G01 X7.2563 Y17.6530 
G01 X5.0467 Y15.4434 
G01 X5.0467 Y13.2482 
G01 X5.0219 Y13.1555 
G01 X4.9739 Y13.0724 
G01 X4.9061 Y13.0046 
G01 X4.8230 Y12.9566 
G01 X4.7303 Y12.9318 
G01 X2.2214 Y12.9318 
G00 Z2.5400 
G00 X0.4394 Y18.4929 
G01 Z-0.1778 F254.00 
G01 X0.4712 Y18.5247 F508.00 
G01 X0.4712 Y27.1455 
G01 X0.4394 Y27.1892 
G01 X0.4394 Y18.4929 
G00 Z2.5400 
G00 X9.2202 Y18.2286 
G01 Z-0.1778 F254.00 
G01 X9.3207 Y18.2866 F508.00 
G01 X9.4327 Y18.3166 
G01 X10.0266 Y18.3166 
G01 X10.1914 Y18.2816 
G01 X10.3454 Y18.2130 
G01 X10.4818 Y18.1139 
G01 X10.5933 Y17.9901 
G01 X10.6083 Y18.0461 
G01 X10.6663 Y18.1465 
G01 X10.7483 Y18.2286 
G01 X10.8488 Y18.2866 
G01 X10.9609 Y18.3166 
G01 X11.0769 Y18.3166 
G01 X11.1889 Y18.2866 
G01 X11.2894 Y18.2286 
G01 X11.3714 Y18.1465 
G01 X11.4294 Y18.0461 
G01 X11.4595 Y17.9340 
G01 X11.4595 Y17.7747 
G01 X11.5506 Y17.7747 
G01 X11.7069 Y17.7391 
G01 X11.8514 Y17.6695 
G01 X11.9767 Y17.5695 
G01 X12.0029 Y17.5367 
G01 X12.0380 Y17.7017 
G01 X12.1142 Y17.8730 
G01 X12.2245 Y18.0247 
G01 X12.3638 Y18.1502 
G01 X12.5263 Y18.2440 
G01 X12.7046 Y18.3019 
G01 X12.8911 Y18.3215 
G01 X13.0776 Y18.3019 
G01 X13.2560 Y18.2440 
G01 X13.4184 Y18.1502 
G01 X13.5578 Y18.0247 
G01 X13.6680 Y17.8730 
G01 X13.7443 Y17.7017 
G01 X13.7515 Y17.6678 
G01 X13.7704 Y17.6867 
G01 X13.8708 Y17.7447 
G01 X13.9829 Y17.7747 
G01 X14.5726 Y17.7747 
G01 X14.7289 Y17.7391 
G01 X14.8734 Y17.6695 
G01 X14.9988 Y17.5695 
G01 X15.0249 Y17.5367 
G01 X15.0600 Y17.7017 
G01 X15.1363 Y17.8730 
G01 X15.2465 Y18.0247 
G01 X15.3859 Y18.1502 
G01 X15.5483 Y18.2440 
G01 X15.7266 Y18.3019 
G01 X15.9132 Y18.3215 
G01 X16.0997 Y18.3019 
G01 X16.2780 Y18.2440 
G01 X16.4404 Y18.1502 
G01 X16.5798 Y18.0247 
G01 X16.6900 Y17.8730 
G01 X16.6995 Y17.8516 
G01 X16.7643 Y17.9860 
G01 X16.8642 Y18.1114 
G01 X16.9896 Y18.2114 
G01 X17.1340 Y18.2809 
G01 X17.2904 Y18.3166 
G01 X17.5189 Y18.3166 
G01 X17.6309 Y18.2866 
G01 X17.7314 Y18.2286 
G01 X17.8134 Y18.1465 
G01 X17.8714 Y18.0461 
G01 X17.9015 Y17.9340 
G01 X17.9015 Y17.8180 
G01 X17.8891 Y17.7720 
G01 X17.8992 Y17.7747 
G01 X18.5571 Y17.7747 
G01 X18.6691 Y17.7447 
G01 X18.7696 Y17.6867 
G01 X18.8516 Y17.6047 
G01 X18.8781 Y17.6252 
G01 X19.0241 Y17.7094 
G01 X19.1844 Y17.7615 
G01 X19.3520 Y17.7792 
G01 X19.5197 Y17.7615 
G01 X19.6800 Y17.7094 
G01 X19.8259 Y17.6252 
G01 X19.9512 Y17.5124 
G01 X20.0503 Y17.3760 
G01 X20.1188 Y17.2220 
G01 X20.1539 Y17.0572 
G01 X20.1539 Y16.7343 
G01 X20.1238 Y16.6222 
G01 X20.0658 Y16.5217 
G01 X20.1238 Y16.4205 
G01 X20.1539 Y16.3084 
G01 X20.1539 Y16.1924 
G01 X20.1238 Y16.0803 
G01 X20.0658 Y15.9799 
G01 X19.9838 Y15.8978 
G01 X19.8833 Y15.8398 
G01 X19.7713 Y15.8098 
G01 X19.3197 Y15.8098 
G01 X19.1815 Y15.8098 
G01 X19.0252 Y15.8455 
G01 X18.8808 Y15.9151 
G01 X18.7554 Y16.0150 
G01 X18.6554 Y16.1404 
G01 X18.5859 Y16.2848 
G01 X18.5502 Y16.4412 
G01 X18.5502 Y16.7129 
G01 X18.4411 Y16.7129 
G01 X18.3978 Y16.7245 
G01 X18.3978 Y16.1924 
G01 X18.3678 Y16.0803 
G01 X18.3098 Y15.9799 
G01 X18.2277 Y15.8978 
G01 X18.1273 Y15.8398 
G01 X18.0152 Y15.8098 
G01 X17.8992 Y15.8098 
G01 X17.7871 Y15.8398 
G01 X17.6867 Y15.8978 
G01 X17.6046 Y15.9799 
G01 X17.5466 Y16.0803 
G01 X17.5284 Y16.1483 
G01 X17.5102 Y16.0803 
G01 X17.4522 Y15.9799 
G01 X17.3701 Y15.8978 
G01 X17.2697 Y15.8398 
G01 X17.1576 Y15.8098 
G01 X17.0416 Y15.8098 
G01 X16.9295 Y15.8398 
G01 X16.8291 Y15.8978 
G01 X16.7470 Y15.9799 
G01 X16.6890 Y16.0803 
G01 X16.6590 Y16.1924 
G01 X16.6590 Y16.2107 
G01 X16.5798 Y16.1017 
G01 X16.4404 Y15.9762 
G01 X16.2780 Y15.8824 
G01 X16.0997 Y15.8245 
G01 X15.9132 Y15.8049 
G01 X15.7267 Y15.8245 
G01 X15.5483 Y15.8824 
G01 X15.3859 Y15.9762 
G01 X15.2465 Y16.1017 
G01 X15.1977 Y16.1689 
G01 X15.1740 Y16.0803 
G01 X15.1160 Y15.9799 
G01 X15.0339 Y15.8978 
G01 X14.9335 Y15.8398 
G01 X14.8214 Y15.8098 
G01 X14.7054 Y15.8098 
G01 X14.5933 Y15.8398 
G01 X14.4929 Y15.8978 
G01 X14.4108 Y15.9799 
G01 X14.4021 Y15.9949 
G01 X14.3935 Y15.9799 
G01 X14.3114 Y15.8978 
G01 X14.2110 Y15.8398 
G01 X14.0989 Y15.8098 
G01 X13.9829 Y15.8098 
G01 X13.8708 Y15.8398 
G01 X13.7704 Y15.8978 
G01 X13.6883 Y15.9799 
G01 X13.6303 Y16.0803 
G01 X13.6066 Y16.1689 
G01 X13.5578 Y16.1017 
G01 X13.4184 Y15.9762 
G01 X13.2560 Y15.8824 
G01 X13.0776 Y15.8245 
G01 X12.8911 Y15.8049 
G01 X12.7046 Y15.8245 
G01 X12.5263 Y15.8824 
G01 X12.3638 Y15.9762 
G01 X12.2245 Y16.1017 
G01 X12.1757 Y16.1689 
G01 X12.1519 Y16.0803 
G01 X12.0939 Y15.9799 
G01 X12.0119 Y15.8978 
G01 X11.9114 Y15.8398 
G01 X11.7994 Y15.8098 
G01 X11.6833 Y15.8098 
G01 X11.5713 Y15.8398 
G01 X11.4708 Y15.8978 
G01 X11.3888 Y15.9799 
G01 X11.3801 Y15.9949 
G01 X11.3714 Y15.9799 
G01 X11.2894 Y15.8978 
G01 X11.1889 Y15.8398 
G01 X11.0769 Y15.8098 
G01 X10.9609 Y15.8098 
G01 X10.8488 Y15.8398 
G01 X10.7483 Y15.8978 
G01 X10.6663 Y15.9799 
G01 X10.6083 Y16.0803 
G01 X10.6025 Y16.1019 
G01 X10.5426 Y16.0353 
G01 X10.3908 Y15.9251 
G01 X10.2195 Y15.8488 
G01 X10.0361 Y15.8098 
G01 X9.8843 Y15.8098 
G01 X9.4327 Y15.8098 
G01 X9.3207 Y15.8398 
G01 X9.2202 Y15.8978 
G01 X9.1382 Y15.9799 
G01 X9.0802 Y16.0803 
G01 X9.0501 Y16.1924 
G01 X9.0501 Y17.9340 
G01 X9.0802 Y18.0461 
G01 X9.1382 Y18.1465 
G01 X9.2202 Y18.2286 
G00 Z2.5400 
G00 X9.9313 Y16.7129 
G01 Z-0.1778 F254.00 
G01 X9.9313 Y16.6910 F508.00 
G01 X9.9423 Y16.6910 
G01 X9.9457 Y16.6915 
G01 X9.9496 Y16.6938 
G01 X9.9523 Y16.6975 
G01 X9.9533 Y16.7020 
G01 X9.9523 Y16.7064 
G01 X9.9496 Y16.7101 
G01 X9.9457 Y16.7124 
G01 X9.9424 Y16.7129 
G01 X9.9313 Y16.7129 
G00 Z2.5400 
G00 X12.8802 Y16.7019 
G01 Z-0.1778 F254.00 
G01 X12.8802 Y16.7008 F508.00 
G01 X12.8816 Y16.6965 
G01 X12.8847 Y16.6931 
G01 X12.8888 Y16.6912 
G01 X12.8934 Y16.6912 
G01 X12.8976 Y16.6931 
G01 X12.9006 Y16.6965 
