(.../EAGLE-8.3.2/ulp/pcb-gcode-3/pcb-gcode.ulp)
(Copyright 2005 - 2012 by John Johnson)
(See readme.txt for licensing terms.)
(This file generated from the board:)
(.../Documents/eagle/BHOnOff/BHONoff.brd)
(Current profile is .../pcb-gcode-3/profiles/generic.pp  )
(This file generated 17/11/2017 16:15)
(Settings from pcb-machine.h)
(spindle on time = 3.0000)
(spindle speed = 20000.0000)
(tool change at 0.0000 0.0000 3.4000 )
(feed rate xy = F0.00  )
(feed rate z  = F508.00 )
(Z Axis Settings)
(  High     Up        Down     Drill)
(8.7000 	2.5400 	-0.1778 	-0.2794 )
(Settings from pcb-defaults.h)
(isolate min = 0.0254)
(isolate max = 0.5000)
(isolate step = 0.1270)
(Generated top outlines, top drill, )
(Unit of measure: mm)
( Tool|       Size       |  Min Sub |  Max Sub |   Count )
( T01  0.800mm 0.0315in 0.0000in 0.0000in )
( T02  0.900mm 0.0354in 0.0000in 0.0000in )
( T03  1.000mm 0.0394in 0.0000in 0.0000in )
( T04  1.016mm 0.0400in 0.0000in 0.0000in )
( T05  1.300mm 0.0512in 0.0000in 0.0000in )
( T06  1.400mm 0.0551in 0.0000in 0.0000in )
(Metric Mode)
G21
(Absolute Coordinates)
G90
S20000
G00 Z8.7000 
G00 X0.0000 Y0.0000 
M03
G04 P3.000000
M05
G00 Z3.4000 
M06 T01  ; 0.8000 
G01 Z0.0000 F508.00 
M06 
G00 Z2.5400 
M03
G04 P3.000000
G00 Z2.540000
G00 X1.4706 Y27.9888 
G01 Z-0.2794 F508.00 
G01 Z2.540000
(R2.5400  P1.000000)
G00 X6.5506 Y27.9888 
G01 Z-0.279400
G01 Z2.540000
G00 X33.2900 Y34.3002 
G01 Z-0.279400
G01 Z2.540000
G00 X38.1098 Y34.3002 
G01 Z-0.279400
G01 Z2.540000
M05
G00 Z3.4000 
G00 X0.0000 Y0.0000 
M06 T02  ; 0.9000 
G01 Z0.0000 F508.00 
M06 
G00 Z2.5400 
M03
G04 P3.000000
G00 Z2.540000
G00 X10.8707 Y31.2223 
G01 Z-0.2794 F508.00 
G01 Z2.540000
(R2.5400  P1.000000)
G00 X10.8707 Y33.7623 
G01 Z-0.279400
G01 Z2.540000
G00 X10.8707 Y36.3023 
G01 Z-0.279400
G01 Z2.540000
G00 X10.8707 Y38.8423 
G01 Z-0.279400
G01 Z2.540000
G00 X13.4107 Y38.8423 
G01 Z-0.279400
G01 Z2.540000
G00 X13.4107 Y36.3023 
G01 Z-0.279400
G01 Z2.540000
G00 X13.4107 Y33.7623 
G01 Z-0.279400
G01 Z2.540000
G00 X13.4107 Y31.2223 
G01 Z-0.279400
G01 Z2.540000
M05
G00 Z3.4000 
G00 X0.0000 Y0.0000 
M06 T03  ; 1.0000 
G01 Z0.0000 F508.00 
M06 
G00 Z2.5400 
M03
G04 P3.000000
G00 Z2.540000
G00 X11.3257 Y23.9558 
G01 Z-0.2794 F508.00 
G01 Z2.540000
(R2.5400  P1.000000)
G00 X18.9457 Y23.9558 
G01 Z-0.279400
G01 Z2.540000
G00 X29.1057 Y23.9558 
G01 Z-0.279400
G01 Z2.540000
G00 X31.6457 Y23.9558 
G01 Z-0.279400
G01 Z2.540000
M05
G00 Z3.4000 
G00 X0.0000 Y0.0000 
M06 T04  ; 1.0160 
G01 Z0.0000 F508.00 
M06 
G00 Z2.5400 
M03
G04 P3.000000
G00 Z2.540000
G00 X3.7718 Y33.8408 
G01 Z-0.2794 F508.00 
G01 Z2.540000
(R2.5400  P1.000000)
G00 X3.7718 Y36.3808 
G01 Z-0.279400
G01 Z2.540000
G00 X3.7718 Y38.9208 
G01 Z-0.279400
G01 Z2.540000
M05
G00 Z3.4000 
G00 X0.0000 Y0.0000 
M06 T05  ; 1.3000 
G01 Z0.0000 F508.00 
M06 
G00 Z2.5400 
M03
G04 P3.000000
G00 Z2.540000
G00 X3.4758 Y4.5027 
G01 Z-0.2794 F508.00 
G01 Z2.540000
(R2.5400  P1.000000)
G00 X3.4758 Y9.5027 
G01 Z-0.279400
G01 Z2.540000
G00 X3.4758 Y14.5027 
G01 Z-0.279400
G01 Z2.540000
M05
G00 Z3.4000 
G00 X0.0000 Y0.0000 
M06 T06  ; 1.4000 
G01 Z0.0000 F508.00 
M06 
G00 Z2.5400 
M03
G04 P3.000000
G00 Z2.540000
G00 X10.3809 Y7.5708 
G01 Z-0.2794 F508.00 
G01 Z2.540000
(R2.5400  P1.000000)
G00 X10.3809 Y12.6508 
G01 Z-0.279400
G01 Z2.540000
G00 X39.7809 Y17.7708 
G01 Z-0.279400
G01 Z2.540000
G00 X39.7809 Y2.3708 
G01 Z-0.279400
G01 Z2.540000
T01 
G00 Z8.7000 
M05
M02
